<?xml version="1.0"?>
<VTKFile type="ImageData" version="0.1" byte_order="LittleEndian">
  <ImageData WholeExtent="0 15 0 15 0 0" Origin="0 0 0" Spacing="1 1 1">
    <Piece Extent="0 15 0 15 0 0">
      <PointData>
        <DataArray type="Float32" Name="rho" format="ascii">
          0.98768
          0.983423
          0.986014
          0.986935
          0.985955
          0.987812
          0.986089
          0.987816
          0.986873
          0.988695
          0.988257
          0.992007
          0.987567
          1.00038
          0.991525
          0.992222
          0.989525
          0.990963
          0.991094
          0.991199
          0.990922
          0.991235
          0.991063
          0.991148
          0.991167
          0.991221
          0.991174
          0.99137
          0.991255
          0.991253
          0.991804
          0.991225
          0.990782
          0.99127
          0.991047
          0.991192
          0.991242
          0.991044
          0.991264
          0.991163
          0.991178
          0.991245
          0.991239
          0.991222
          0.991342
          0.991297
          0.991107
          0.991561
          0.990239
          0.991255
          0.991322
          0.991143
          0.991306
          0.991285
          0.991121
          0.991323
          0.991199
          0.991227
          0.99127
          0.991229
          0.991255
          0.991239
          0.991341
          0.99161
          0.990703
          0.991321
          0.991402
          0.991412
          0.991199
          0.991403
          0.991321
          0.991141
          0.99141
          0.991165
          0.991245
          0.991284
          0.991184
          0.991268
          0.991157
          0.991436
          0.990722
          0.991535
          0.991393
          0.991527
          0.991477
          0.991211
          0.991492
          0.991365
          0.991095
          0.99145
          0.991141
          0.99122
          0.991223
          0.99114
          0.991153
          0.991442
          0.99055
          0.991655
          0.991675
          0.991433
          0.991605
          0.991572
          0.991218
          0.991521
          0.991305
          0.991114
          0.991446
          0.990991
          0.991265
          0.991065
          0.99124
          0.991274
          0.990973
          0.99183
          0.991732
          0.991786
          0.99152
          0.99169
          0.991528
          0.991077
          0.991724
          0.991115
          0.990999
          0.991513
          0.990805
          0.991377
          0.990584
          0.991423
          0.990198
          0.99192
          0.991932
          0.991937
          0.991851
          0.991377
          0.991666
          0.991726
          0.990772
          0.991774
          0.990971
          0.990815
          0.991452
          0.990253
          0.991743
          0.990786
          0.992604
          0.992312
          0.992203
          0.99199
          0.9918
          0.991903
          0.991552
          0.991405
          0.991642
          0.990493
          0.991829
          0.990652
          0.990702
          0.991719
          0.989517
          0.991121
          0.987825
          0.992514
          0.992417
          0.992025
          0.992105
          0.992163
          0.991414
          0.991387
          0.991443
          0.991405
          0.990219
          0.992017
          0.99008
          0.990097
          0.992181
          0.989711
          0.995419
          0.993305
          0.992156
          0.992802
          0.992469
          0.991391
          0.99192
          0.991555
          0.990812
          0.991364
          0.991486
          0.988742
          0.992326
          0.990079
          0.987161
          0.991557
          0.983062
          0.99164
          0.994154
          0.992818
          0.991743
          0.992397
          0.991643
          0.991254
          0.991371
          0.990672
          0.990681
          0.991136
          0.989758
          0.99038
          0.993305
          0.987825
          0.994228
          0.995919
          0.992881
          0.992597
          0.992483
          0.992104
          0.99125
          0.991395
          0.990641
          0.990904
          0.989513
          0.991134
          0.990657
          0.987627
          0.984593
          0.991785
          0.975459
          0.994265
          0.992196
          0.993963
          0.992807
          0.991258
          0.992418
          0.990431
          0.991422
          0.989935
          0.990986
          0.989571
          0.990114
          0.986868
          0.99779
          0.997085
          0.943416
          0.986647
          0.99105
          0.992792
          0.993029
          0.991999
          0.991784
          0.991223
          0.990579
          0.99056
          0.98977
          0.990743
          0.987817
          0.993046
          0.986682
          0.996247
        </DataArray>
        <DataArray type="Float32" Name="ux" format="ascii">
          0
          0
          0
          0
          0
          0
          0
          0
          0
          0
          0
          0
          0
          0
          0
          0
          0
          -0.00111291
          -0.000863306
          -0.000485975
          -0.000102202
          -5.38743e-05
          -4.03159e-05
          6.02685e-05
          -0.000121337
          -0.000386773
          -0.000553834
          -0.000736955
          -0.00138461
          -0.00105817
          -0.00109104
          0
          0
          0.000283646
          0.000629347
          0.000212907
          0.000614824
          0.00109994
          0.000860666
          0.000813289
          0.000811789
          0.000551565
          0.000598041
          -7.09056e-05
          -0.000173963
          0.000841353
          0.000110036
          0
          0
          -0.00107293
          -0.000343068
          0.000215571
          -0.000191205
          0.000117993
          0.000794164
          0.000140684
          0.000220306
          0.000359944
          -0.000546229
          -0.000536914
          -0.000433821
          -0.00104696
          -0.00176586
          0
          0
          -0.000126925
          2.77743e-05
          0.000379019
          0.00141581
          0.000573037
          0.00088249
          0.00172508
          0.0011476
          0.000684975
          0.0008957
          0.000916969
          6.45321e-06
          0.000387126
          -0.000311685
          0
          0
          -0.000224385
          0.000697007
          9.28949e-05
          0.000838298
          0.00179253
          0.000836662
          0.00129999
          0.00170434
          0.000814823
          0.00146757
          0.0005497
          8.82687e-05
          0.00108768
          -0.000675876
          0
          0
          -0.000612932
          0.000414161
          0.000929214
          0.000617384
          0.00126621
          0.00289523
          0.000489156
          0.00143838
          0.00292897
          0.000476472
          0.000872197
          0.000765228
          0.000495007
          -0.000817746
          0
          0
          -6.59737e-05
          0.000627486
          0.00108504
          0.00269351
          0.00157037
          0.00177881
          0.00393422
          0.0022952
          0.00209962
          0.0033153
          0.00170078
          0.00144665
          0.00179486
          -0.000445457
          0
          0
          -0.000807957
          0.000754571
          0.000721541
          0.0017277
          0.00201751
          0.00144129
          0.0028484
          0.003764
          0.000418995
          0.00231133
          0.00235927
          -0.000269906
          0.000475861
          -0.00232347
          0
          0
          0.00132424
          0.00279227
          0.00269074
          0.00278942
          0.00426199
          0.00719836
          0.00315164
          0.00486161
          0.00840714
          0.00311533
          0.0060905
          0.0060153
          0.00576263
          0.00473622
          0
          0
          -0.00210467
          -0.000561187
          -0.000852835
          0.00241585
          0.00300033
          0.000971823
          0.00306742
          0.000517268
          0.000267574
          0.00385168
          -0.00476576
          0.000544037
          -0.000730435
          -0.0103349
          0
          0
          0.00226495
          0.00352023
          0.00665351
          0.00984094
          0.00617768
          0.00835267
          0.00960401
          0.0119032
          0.00878878
          0.0103669
          0.0179141
          0.00762595
          0.01498
          0.0155398
          0
          0
          -0.00280101
          0.00540021
          0.00652569
          0.00181983
          0.00295103
          0.00370813
          0.000688386
          -2.31701e-05
          -0.00066162
          -0.00742551
          -0.00918939
          -0.0045574
          -0.0229847
          -0.0236607
          0
          0
          0.014055
          0.0169433
          0.00605845
          0.0122788
          0.0116824
          0.0124902
          0.0141231
          0.0150646
          0.0166422
          0.0212579
          0.0160987
          0.019255
          0.028902
          0.0146955
          0
          0
          -0.0307366
          -0.046773
          -0.0454784
          -0.0507046
          -0.0539257
          -0.0544089
          -0.0562762
          -0.0548444
          -0.0533416
          -0.0504156
          -0.0425382
          -0.0433881
          -0.0353531
          -0.0161969
          0
          0.0256
          0.0256
          0.0256
          0.0256
          0.0256
          0.0256
          0.0256
          0.0256
          0.0256
          0.0256
          0.0256
          0.0256
          0.0256
          0.0256
          0.0256
          0.0256
        </DataArray>
        <DataArray type="Float32" Name="uy" format="ascii">
          0
          0
          0
          0
          0
          0
          0
          0
          0
          0
          0
          0
          0
          0
          0
          0
          0
          -0.00210664
          -0.00224454
          -0.0012504
          -0.00206566
          -0.000654346
          -0.00202978
          -0.000676858
          -0.00147019
          -0.000303224
          -0.0010768
          0.000771586
          -0.000869265
          0.00280582
          0.000522736
          0
          0
          -0.00215399
          -0.00205802
          -0.00125323
          -0.00253255
          -0.000436016
          -0.00186064
          -0.000849764
          -0.00103036
          -0.00031879
          -0.00105334
          0.00142372
          -0.0013983
          0.00214581
          0.000537136
          0
          0
          -0.00218753
          -0.00243891
          -0.000854028
          -0.00253058
          -0.00112101
          -0.00125041
          -0.000624048
          -0.00112835
          4.59222e-05
          -0.000439576
          0.00169976
          -0.00189759
          0.00306211
          0.000259108
          0
          0
          -0.00185095
          -0.00295278
          -0.00137741
          -0.00208607
          -0.00103038
          -0.00211979
          0.000164487
          -0.00135592
          0.000524705
          -0.000251558
          0.00145961
          -0.00141882
          0.00351008
          -0.000278326
          0
          0
          -0.00231329
          -0.00266887
          -0.00166144
          -0.00302773
          -5.25489e-05
          -0.00215588
          -0.00114808
          0.000459037
          0.000103639
          -0.000681075
          0.00300717
          -0.00206103
          0.00387771
          0.000383634
          0
          0
          -0.00255383
          -0.00343029
          -0.000984331
          -0.00352438
          -0.00133091
          -0.00107649
          -0.000429417
          -0.00145686
          0.00149096
          -0.00044627
          0.0033595
          -0.00258334
          0.00466482
          0.000692327
          0
          0
          -0.00297508
          -0.0038377
          -0.0019731
          -0.00300488
          -0.00175123
          -0.00201986
          0.000982184
          -0.00205803
          0.000732204
          0.00187589
          0.00245098
          -0.00191241
          0.00544468
          0.00160242
          0
          0
          -0.00335587
          -0.0045029
          -0.00241273
          -0.00435685
          0.00023987
          -0.00318041
          -0.00179791
          0.00177332
          0.000103849
          -0.00077203
          0.00689336
          -0.00467602
          0.00856578
          0.000849679
          0
          0
          -0.00475418
          -0.00508233
          -0.00254533
          -0.00411973
          -0.00204167
          -0.0025127
          -0.000215137
          -0.00178687
          0.00397695
          -0.00115716
          0.00472239
          0.000196389
          0.00539642
          0.00561185
          0
          0
          -0.00595695
          -0.00559565
          -0.00233361
          -0.00625005
          -0.00323589
          -0.00183836
          0.000622585
          -0.00209553
          9.60176e-05
          0.00422127
          0.00377914
          -0.00593336
          0.0143203
          0.00249175
          0
          0
          -0.00695483
          -0.00581364
          -0.00598283
          -0.00782774
          0.000579512
          -0.0039286
          -0.000262383
          0.000778389
          0.00117705
          -0.000360676
          0.0118707
          -0.00828859
          0.0142157
          0.0115514
          0
          0
          -0.00810277
          -0.0117554
          -0.00681739
          -0.00415498
          -0.00247469
          -0.00386773
          -0.00129889
          -0.00112736
          0.0039153
          -0.00121232
          0.00348317
          0.00245014
          0.0113644
          0.00640333
          0
          0
          -0.0225225
          -0.00938571
          -0.00194529
          -0.00675344
          -0.000627182
          -0.003189
          0.00164573
          0.000738826
          0.00546661
          0.00582682
          0.00813962
          -0.0026814
          0.0331935
          0.0016834
          0
          0
          -0.0161462
          -0.00183345
          -0.00202722
          -0.0080532
          -0.000132345
          -0.00638062
          -0.000703723
          -0.00384741
          0.00031244
          -0.00231295
          0.00710857
          -0.0108968
          0.0190231
          0.00732464
          0
          0
          0
          0
          0
          0
          0
          0
          0
          0
          0
          0
          0
          0
          0
          0
          0
        </DataArray>
        <DataArray type="Float32" Name="velocity" NumberOfComponents="3" format="ascii">
          0 0 0
          0 0 0
          0 0 0
          0 0 0
          0 0 0
          0 0 0
          0 0 0
          0 0 0
          0 0 0
          0 0 0
          0 0 0
          0 0 0
          0 0 0
          0 0 0
          0 0 0
          0 0 0
          0 0 0
          -0.00111291 -0.00210664 0
          -0.000863306 -0.00224454 0
          -0.000485975 -0.0012504 0
          -0.000102202 -0.00206566 0
          -5.38743e-05 -0.000654346 0
          -4.03159e-05 -0.00202978 0
          6.02685e-05 -0.000676858 0
          -0.000121337 -0.00147019 0
          -0.000386773 -0.000303224 0
          -0.000553834 -0.0010768 0
          -0.000736955 0.000771586 0
          -0.00138461 -0.000869265 0
          -0.00105817 0.00280582 0
          -0.00109104 0.000522736 0
          0 0 0
          0 0 0
          0.000283646 -0.00215399 0
          0.000629347 -0.00205802 0
          0.000212907 -0.00125323 0
          0.000614824 -0.00253255 0
          0.00109994 -0.000436016 0
          0.000860666 -0.00186064 0
          0.000813289 -0.000849764 0
          0.000811789 -0.00103036 0
          0.000551565 -0.00031879 0
          0.000598041 -0.00105334 0
          -7.09056e-05 0.00142372 0
          -0.000173963 -0.0013983 0
          0.000841353 0.00214581 0
          0.000110036 0.000537136 0
          0 0 0
          0 0 0
          -0.00107293 -0.00218753 0
          -0.000343068 -0.00243891 0
          0.000215571 -0.000854028 0
          -0.000191205 -0.00253058 0
          0.000117993 -0.00112101 0
          0.000794164 -0.00125041 0
          0.000140684 -0.000624048 0
          0.000220306 -0.00112835 0
          0.000359944 4.59222e-05 0
          -0.000546229 -0.000439576 0
          -0.000536914 0.00169976 0
          -0.000433821 -0.00189759 0
          -0.00104696 0.00306211 0
          -0.00176586 0.000259108 0
          0 0 0
          0 0 0
          -0.000126925 -0.00185095 0
          2.77743e-05 -0.00295278 0
          0.000379019 -0.00137741 0
          0.00141581 -0.00208607 0
          0.000573037 -0.00103038 0
          0.00088249 -0.00211979 0
          0.00172508 0.000164487 0
          0.0011476 -0.00135592 0
          0.000684975 0.000524705 0
          0.0008957 -0.000251558 0
          0.000916969 0.00145961 0
          6.45321e-06 -0.00141882 0
          0.000387126 0.00351008 0
          -0.000311685 -0.000278326 0
          0 0 0
          0 0 0
          -0.000224385 -0.00231329 0
          0.000697007 -0.00266887 0
          9.28949e-05 -0.00166144 0
          0.000838298 -0.00302773 0
          0.00179253 -5.25489e-05 0
          0.000836662 -0.00215588 0
          0.00129999 -0.00114808 0
          0.00170434 0.000459037 0
          0.000814823 0.000103639 0
          0.00146757 -0.000681075 0
          0.0005497 0.00300717 0
          8.82687e-05 -0.00206103 0
          0.00108768 0.00387771 0
          -0.000675876 0.000383634 0
          0 0 0
          0 0 0
          -0.000612932 -0.00255383 0
          0.000414161 -0.00343029 0
          0.000929214 -0.000984331 0
          0.000617384 -0.00352438 0
          0.00126621 -0.00133091 0
          0.00289523 -0.00107649 0
          0.000489156 -0.000429417 0
          0.00143838 -0.00145686 0
          0.00292897 0.00149096 0
          0.000476472 -0.00044627 0
          0.000872197 0.0033595 0
          0.000765228 -0.00258334 0
          0.000495007 0.00466482 0
          -0.000817746 0.000692327 0
          0 0 0
          0 0 0
          -6.59737e-05 -0.00297508 0
          0.000627486 -0.0038377 0
          0.00108504 -0.0019731 0
          0.00269351 -0.00300488 0
          0.00157037 -0.00175123 0
          0.00177881 -0.00201986 0
          0.00393422 0.000982184 0
          0.0022952 -0.00205803 0
          0.00209962 0.000732204 0
          0.0033153 0.00187589 0
          0.00170078 0.00245098 0
          0.00144665 -0.00191241 0
          0.00179486 0.00544468 0
          -0.000445457 0.00160242 0
          0 0 0
          0 0 0
          -0.000807957 -0.00335587 0
          0.000754571 -0.0045029 0
          0.000721541 -0.00241273 0
          0.0017277 -0.00435685 0
          0.00201751 0.00023987 0
          0.00144129 -0.00318041 0
          0.0028484 -0.00179791 0
          0.003764 0.00177332 0
          0.000418995 0.000103849 0
          0.00231133 -0.00077203 0
          0.00235927 0.00689336 0
          -0.000269906 -0.00467602 0
          0.000475861 0.00856578 0
          -0.00232347 0.000849679 0
          0 0 0
          0 0 0
          0.00132424 -0.00475418 0
          0.00279227 -0.00508233 0
          0.00269074 -0.00254533 0
          0.00278942 -0.00411973 0
          0.00426199 -0.00204167 0
          0.00719836 -0.0025127 0
          0.00315164 -0.000215137 0
          0.00486161 -0.00178687 0
          0.00840714 0.00397695 0
          0.00311533 -0.00115716 0
          0.0060905 0.00472239 0
          0.0060153 0.000196389 0
          0.00576263 0.00539642 0
          0.00473622 0.00561185 0
          0 0 0
          0 0 0
          -0.00210467 -0.00595695 0
          -0.000561187 -0.00559565 0
          -0.000852835 -0.00233361 0
          0.00241585 -0.00625005 0
          0.00300033 -0.00323589 0
          0.000971823 -0.00183836 0
          0.00306742 0.000622585 0
          0.000517268 -0.00209553 0
          0.000267574 9.60176e-05 0
          0.00385168 0.00422127 0
          -0.00476576 0.00377914 0
          0.000544037 -0.00593336 0
          -0.000730435 0.0143203 0
          -0.0103349 0.00249175 0
          0 0 0
          0 0 0
          0.00226495 -0.00695483 0
          0.00352023 -0.00581364 0
          0.00665351 -0.00598283 0
          0.00984094 -0.00782774 0
          0.00617768 0.000579512 0
          0.00835267 -0.0039286 0
          0.00960401 -0.000262383 0
          0.0119032 0.000778389 0
          0.00878878 0.00117705 0
          0.0103669 -0.000360676 0
          0.0179141 0.0118707 0
          0.00762595 -0.00828859 0
          0.01498 0.0142157 0
          0.0155398 0.0115514 0
          0 0 0
          0 0 0
          -0.00280101 -0.00810277 0
          0.00540021 -0.0117554 0
          0.00652569 -0.00681739 0
          0.00181983 -0.00415498 0
          0.00295103 -0.00247469 0
          0.00370813 -0.00386773 0
          0.000688386 -0.00129889 0
          -2.31701e-05 -0.00112736 0
          -0.00066162 0.0039153 0
          -0.00742551 -0.00121232 0
          -0.00918939 0.00348317 0
          -0.0045574 0.00245014 0
          -0.0229847 0.0113644 0
          -0.0236607 0.00640333 0
          0 0 0
          0 0 0
          0.014055 -0.0225225 0
          0.0169433 -0.00938571 0
          0.00605845 -0.00194529 0
          0.0122788 -0.00675344 0
          0.0116824 -0.000627182 0
          0.0124902 -0.003189 0
          0.0141231 0.00164573 0
          0.0150646 0.000738826 0
          0.0166422 0.00546661 0
          0.0212579 0.00582682 0
          0.0160987 0.00813962 0
          0.019255 -0.0026814 0
          0.028902 0.0331935 0
          0.0146955 0.0016834 0
          0 0 0
          0 0 0
          -0.0307366 -0.0161462 0
          -0.046773 -0.00183345 0
          -0.0454784 -0.00202722 0
          -0.0507046 -0.0080532 0
          -0.0539257 -0.000132345 0
          -0.0544089 -0.00638062 0
          -0.0562762 -0.000703723 0
          -0.0548444 -0.00384741 0
          -0.0533416 0.00031244 0
          -0.0504156 -0.00231295 0
          -0.0425382 0.00710857 0
          -0.0433881 -0.0108968 0
          -0.0353531 0.0190231 0
          -0.0161969 0.00732464 0
          0 0 0
          0.0256 0 0
          0.0256 0 0
          0.0256 0 0
          0.0256 0 0
          0.0256 0 0
          0.0256 0 0
          0.0256 0 0
          0.0256 0 0
          0.0256 0 0
          0.0256 0 0
          0.0256 0 0
          0.0256 0 0
          0.0256 0 0
          0.0256 0 0
          0.0256 0 0
          0.0256 0 0
        </DataArray>
      </PointData>
      <CellData>
      </CellData>
    </Piece>
  </ImageData>
</VTKFile>
