<?xml version="1.0"?>
<VTKFile type="ImageData" version="0.1" byte_order="LittleEndian">
  <ImageData WholeExtent="0 15 0 15 0 0" Origin="0 0 0" Spacing="1 1 1">
    <Piece Extent="0 15 0 15 0 0">
      <PointData>
        <DataArray type="Float32" Name="rho" format="ascii">
          0.97834
          0.967754
          0.969476
          0.964875
          0.968617
          0.962833
          0.965154
          0.959735
          0.960856
          0.960171
          0.962789
          0.97585
          0.973789
          1.0023
          1.01408
          0.996873
          0.984071
          0.986736
          0.986368
          0.986297
          0.985241
          0.985418
          0.984199
          0.984052
          0.983172
          0.982932
          0.982672
          0.982797
          0.982909
          0.983627
          0.984231
          0.986089
          0.986179
          0.986922
          0.986597
          0.98642
          0.986073
          0.985316
          0.985069
          0.984339
          0.983912
          0.983615
          0.983296
          0.983165
          0.983411
          0.983602
          0.983364
          0.984109
          0.9864
          0.987307
          0.98725
          0.986629
          0.986504
          0.98595
          0.985267
          0.984994
          0.984365
          0.984019
          0.983661
          0.983498
          0.983451
          0.983284
          0.983386
          0.98358
          0.987261
          0.987808
          0.98759
          0.987468
          0.986658
          0.986461
          0.985857
          0.98518
          0.984962
          0.98409
          0.984042
          0.983623
          0.983283
          0.983259
          0.983242
          0.982603
          0.988793
          0.98852
          0.988147
          0.987846
          0.987486
          0.986629
          0.98646
          0.985605
          0.984816
          0.984824
          0.983788
          0.983687
          0.983113
          0.983075
          0.982441
          0.982657
          0.988364
          0.989342
          0.989054
          0.988309
          0.987983
          0.987583
          0.986242
          0.986168
          0.985244
          0.98448
          0.984279
          0.983013
          0.98331
          0.98214
          0.983174
          0.980665
          0.992418
          0.989919
          0.989749
          0.989419
          0.988437
          0.987654
          0.987151
          0.985899
          0.985953
          0.984215
          0.983779
          0.983588
          0.981949
          0.982935
          0.979872
          0.981363
          0.987832
          0.991635
          0.990722
          0.990083
          0.988924
          0.988087
          0.987583
          0.986824
          0.98472
          0.985574
          0.983052
          0.98279
          0.98236
          0.979804
          0.983521
          0.976198
          1.00083
          0.992095
          0.991965
          0.990397
          0.98975
          0.989219
          0.987288
          0.986448
          0.986075
          0.983133
          0.984908
          0.980602
          0.981395
          0.981414
          0.974639
          0.979724
          0.983704
          0.99408
          0.992715
          0.991437
          0.990908
          0.988883
          0.987488
          0.98697
          0.985624
          0.985031
          0.981652
          0.983993
          0.978741
          0.977789
          0.983021
          0.967669
          1.01284
          0.994213
          0.993294
          0.992904
          0.988286
          0.989033
          0.987918
          0.987578
          0.984846
          0.984514
          0.98363
          0.975008
          0.982994
          0.975475
          0.962944
          0.979416
          0.978801
          0.99636
          0.992859
          0.985601
          0.989426
          0.988674
          0.988684
          0.987063
          0.986588
          0.98446
          0.981651
          0.980924
          0.977924
          0.971317
          0.984355
          0.961471
          1.02788
          1.00144
          0.992756
          0.988268
          0.990059
          0.988176
          0.987209
          0.988402
          0.984124
          0.985433
          0.975979
          0.97748
          0.979713
          0.959362
          0.959755
          0.996044
          0.993434
          1.01925
          0.993288
          0.995267
          0.988302
          0.991221
          0.987645
          0.989178
          0.987284
          0.983833
          0.982856
          0.978737
          0.975781
          0.960023
          0.979058
          0.975921
          0.949738
          1.00526
          0.997096
          0.992801
          0.991007
          0.986883
          0.989911
          0.984306
          0.987793
          0.981284
          0.983117
          0.981874
          0.972739
          0.975054
          0.97331
          0.906732
        </DataArray>
        <DataArray type="Float32" Name="ux" format="ascii">
          0
          0
          0
          0
          0
          0
          0
          0
          0
          0
          0
          0
          0
          0
          0
          0
          0
          -5.96659e-05
          0.00155754
          0.00180518
          0.00277868
          0.00302458
          0.00282725
          0.00248017
          0.0011381
          -0.000233012
          -0.00227655
          -0.00347357
          -0.00499097
          -0.00564512
          -0.00350464
          0
          0
          0.00079568
          0.00178498
          0.00256217
          0.00336966
          0.00393094
          0.00386217
          0.00329578
          0.00267934
          0.00133758
          0.000164184
          -0.00151831
          -0.00265868
          -0.00156331
          -0.000653117
          0
          0
          -0.00016456
          0.0013827
          0.00265053
          0.00297478
          0.00334785
          0.00388567
          0.00313535
          0.00287751
          0.0019711
          0.000370014
          -0.000234548
          -0.000782583
          -0.000894089
          -0.00132247
          0
          0
          0.00140991
          0.00252325
          0.00323779
          0.00511189
          0.0045763
          0.0051283
          0.00565829
          0.0044162
          0.00348572
          0.00279022
          0.00244114
          0.000909778
          0.000281971
          -0.000261627
          0
          0
          0.00118568
          0.00357272
          0.0040819
          0.0050785
          0.0070731
          0.006543
          0.00615057
          0.00637154
          0.0051448
          0.00568277
          0.00388008
          0.00247831
          0.00350871
          0.00111872
          0
          0
          0.00162896
          0.00398005
          0.00607167
          0.00725961
          0.00733459
          0.00890137
          0.00623904
          0.00764504
          0.00813353
          0.00491111
          0.00450214
          0.00318651
          0.00209911
          -0.000317816
          0
          0
          0.00299769
          0.00615529
          0.00826649
          0.0109701
          0.00945133
          0.00976244
          0.0129713
          0.0113318
          0.0107512
          0.0109549
          0.00971074
          0.00825093
          0.00796878
          0.00541108
          0
          0
          0.00371699
          0.00912966
          0.00965142
          0.00947083
          0.0117566
          0.0129795
          0.0112695
          0.0116724
          0.00593399
          0.00852896
          0.00516701
          0.00161871
          -0.00125772
          -0.00731547
          0
          0
          0.00627804
          0.0112333
          0.0134281
          0.0163288
          0.0191646
          0.022266
          0.0169242
          0.0184581
          0.0227929
          0.0175128
          0.0239712
          0.0195399
          0.0235727
          0.0230741
          0
          0
          0.00662756
          0.0154363
          0.0212246
          0.0242461
          0.0174799
          0.010786
          0.0114931
          0.0090837
          0.00519237
          0.00901678
          -0.00763663
          0.00129221
          -0.00914751
          -0.0247659
          0
          0
          0.0165323
          0.0379288
          0.0479931
          0.0393382
          0.0301908
          0.031094
          0.0287984
          0.0353911
          0.0315933
          0.0349286
          0.0441437
          0.027867
          0.0479412
          0.0464299
          0
          0
          0.0167437
          0.0348651
          0.0285978
          0.0198585
          0.0228787
          0.0180283
          0.00876414
          0.000470036
          -0.00697616
          -0.0200215
          -0.0335789
          -0.0216281
          -0.0579969
          -0.0522775
          0
          0
          0.00269447
          -0.0299477
          -0.0341476
          -0.0202511
          -0.0130236
          0.00140313
          0.00959066
          0.0265385
          0.0333147
          0.0591509
          0.060335
          0.0673554
          0.0974014
          0.0659177
          0
          0
          -0.0665983
          -0.119336
          -0.131202
          -0.14385
          -0.146811
          -0.150369
          -0.147985
          -0.145696
          -0.140991
          -0.131787
          -0.115251
          -0.0994193
          -0.0922435
          -0.0377768
          0
          0.0256
          0.0256
          0.0256
          0.0256
          0.0256
          0.0256
          0.0256
          0.0256
          0.0256
          0.0256
          0.0256
          0.0256
          0.0256
          0.0256
          0.0256
          0.0256
        </DataArray>
        <DataArray type="Float32" Name="uy" format="ascii">
          0
          0
          0
          0
          0
          0
          0
          0
          0
          0
          0
          0
          0
          0
          0
          0
          0
          -0.00688563
          -0.00685167
          -0.00640573
          -0.00720814
          -0.00592908
          -0.0074324
          -0.00607772
          -0.0071958
          -0.0052651
          -0.00547662
          -0.000872891
          -0.00172117
          0.00668313
          0.00748915
          0
          0
          -0.00854644
          -0.00758025
          -0.00701963
          -0.00814965
          -0.0057695
          -0.00710778
          -0.00526209
          -0.00565667
          -0.00364112
          -0.00361997
          0.000887495
          -0.00068033
          0.00564003
          0.00541924
          0
          0
          -0.00947067
          -0.00878798
          -0.00783819
          -0.00801727
          -0.00683046
          -0.00594264
          -0.00487248
          -0.00469949
          -0.00197342
          -0.00214002
          0.00255627
          -0.000654887
          0.00570443
          0.00519351
          0
          0
          -0.0108063
          -0.0099143
          -0.00910256
          -0.00849669
          -0.00636197
          -0.00713331
          -0.00344753
          -0.00431043
          -0.000319293
          -0.00117786
          0.00304834
          0.000616631
          0.0064618
          0.00480007
          0
          0
          -0.0130287
          -0.0106871
          -0.00986425
          -0.0100313
          -0.00633385
          -0.00670476
          -0.0041834
          -0.00168791
          -0.000530317
          -0.000368844
          0.00523306
          0.00139911
          0.00726687
          0.00658348
          0
          0
          -0.0153656
          -0.0129412
          -0.0106752
          -0.0109502
          -0.00828506
          -0.0051922
          -0.00308803
          -0.00380427
          0.00214931
          -0.000391022
          0.00795357
          0.000627474
          0.00944979
          0.00771593
          0
          0
          -0.0183657
          -0.0147998
          -0.0136902
          -0.0111164
          -0.00715877
          -0.00691792
          -0.00200636
          -0.00374446
          0.00230707
          0.00388142
          0.00647254
          0.00514128
          0.0089671
          0.0133194
          0
          0
          -0.0240039
          -0.0178362
          -0.0147494
          -0.0121545
          -0.00755511
          -0.00755706
          -0.00495299
          0.000986452
          0.00222878
          0.000934727
          0.0137268
          0.000759123
          0.0176881
          0.0102812
          0
          0
          -0.0298223
          -0.0212129
          -0.014142
          -0.0138872
          -0.0116555
          -0.0058305
          0.000105154
          -0.00233108
          0.00840694
          0.000551296
          0.0141005
          0.0112366
          0.0115398
          0.025033
          0
          0
          -0.0394551
          -0.0247768
          -0.0201601
          -0.0157753
          -0.0103584
          -0.00409911
          -0.0009471
          -0.00135269
          0.00153304
          0.00703417
          0.0116306
          0.00340589
          0.0243086
          0.0199125
          0
          0
          -0.0539544
          -0.0378149
          -0.023091
          -0.00638992
          -0.000939864
          -0.00166496
          -0.00017231
          0.00195036
          0.00867289
          0.00351191
          0.030639
          0.00133846
          0.0293984
          0.0421675
          0
          0
          -0.0821529
          -0.0546665
          -0.0125681
          -0.00176577
          -0.00234323
          4.47818e-05
          -0.000938926
          -0.000709945
          0.0073599
          0.0058754
          0.0147979
          0.0111978
          0.0226962
          0.0294164
          0
          0
          -0.0928083
          -0.0377324
          -0.0160574
          -0.000905173
          -0.00651658
          0.00808745
          0.00451855
          0.0100276
          0.0146038
          0.0194114
          0.0308037
          0.00592724
          0.057748
          0.03578
          0
          0
          -0.0382364
          -0.0135608
          -0.0221173
          -0.0100188
          -0.0183662
          -0.0119986
          -0.0153592
          -0.0164409
          -0.0105512
          -0.0181898
          0.0123661
          -0.0182888
          0.023156
          0.0624659
          0
          0
          0
          0
          0
          0
          0
          0
          0
          0
          0
          0
          0
          0
          0
          0
          0
        </DataArray>
        <DataArray type="Float32" Name="velocity" NumberOfComponents="3" format="ascii">
          0 0 0
          0 0 0
          0 0 0
          0 0 0
          0 0 0
          0 0 0
          0 0 0
          0 0 0
          0 0 0
          0 0 0
          0 0 0
          0 0 0
          0 0 0
          0 0 0
          0 0 0
          0 0 0
          0 0 0
          -5.96659e-05 -0.00688563 0
          0.00155754 -0.00685167 0
          0.00180518 -0.00640573 0
          0.00277868 -0.00720814 0
          0.00302458 -0.00592908 0
          0.00282725 -0.0074324 0
          0.00248017 -0.00607772 0
          0.0011381 -0.0071958 0
          -0.000233012 -0.0052651 0
          -0.00227655 -0.00547662 0
          -0.00347357 -0.000872891 0
          -0.00499097 -0.00172117 0
          -0.00564512 0.00668313 0
          -0.00350464 0.00748915 0
          0 0 0
          0 0 0
          0.00079568 -0.00854644 0
          0.00178498 -0.00758025 0
          0.00256217 -0.00701963 0
          0.00336966 -0.00814965 0
          0.00393094 -0.0057695 0
          0.00386217 -0.00710778 0
          0.00329578 -0.00526209 0
          0.00267934 -0.00565667 0
          0.00133758 -0.00364112 0
          0.000164184 -0.00361997 0
          -0.00151831 0.000887495 0
          -0.00265868 -0.00068033 0
          -0.00156331 0.00564003 0
          -0.000653117 0.00541924 0
          0 0 0
          0 0 0
          -0.00016456 -0.00947067 0
          0.0013827 -0.00878798 0
          0.00265053 -0.00783819 0
          0.00297478 -0.00801727 0
          0.00334785 -0.00683046 0
          0.00388567 -0.00594264 0
          0.00313535 -0.00487248 0
          0.00287751 -0.00469949 0
          0.0019711 -0.00197342 0
          0.000370014 -0.00214002 0
          -0.000234548 0.00255627 0
          -0.000782583 -0.000654887 0
          -0.000894089 0.00570443 0
          -0.00132247 0.00519351 0
          0 0 0
          0 0 0
          0.00140991 -0.0108063 0
          0.00252325 -0.0099143 0
          0.00323779 -0.00910256 0
          0.00511189 -0.00849669 0
          0.0045763 -0.00636197 0
          0.0051283 -0.00713331 0
          0.00565829 -0.00344753 0
          0.0044162 -0.00431043 0
          0.00348572 -0.000319293 0
          0.00279022 -0.00117786 0
          0.00244114 0.00304834 0
          0.000909778 0.000616631 0
          0.000281971 0.0064618 0
          -0.000261627 0.00480007 0
          0 0 0
          0 0 0
          0.00118568 -0.0130287 0
          0.00357272 -0.0106871 0
          0.0040819 -0.00986425 0
          0.0050785 -0.0100313 0
          0.0070731 -0.00633385 0
          0.006543 -0.00670476 0
          0.00615057 -0.0041834 0
          0.00637154 -0.00168791 0
          0.0051448 -0.000530317 0
          0.00568277 -0.000368844 0
          0.00388008 0.00523306 0
          0.00247831 0.00139911 0
          0.00350871 0.00726687 0
          0.00111872 0.00658348 0
          0 0 0
          0 0 0
          0.00162896 -0.0153656 0
          0.00398005 -0.0129412 0
          0.00607167 -0.0106752 0
          0.00725961 -0.0109502 0
          0.00733459 -0.00828506 0
          0.00890137 -0.0051922 0
          0.00623904 -0.00308803 0
          0.00764504 -0.00380427 0
          0.00813353 0.00214931 0
          0.00491111 -0.000391022 0
          0.00450214 0.00795357 0
          0.00318651 0.000627474 0
          0.00209911 0.00944979 0
          -0.000317816 0.00771593 0
          0 0 0
          0 0 0
          0.00299769 -0.0183657 0
          0.00615529 -0.0147998 0
          0.00826649 -0.0136902 0
          0.0109701 -0.0111164 0
          0.00945133 -0.00715877 0
          0.00976244 -0.00691792 0
          0.0129713 -0.00200636 0
          0.0113318 -0.00374446 0
          0.0107512 0.00230707 0
          0.0109549 0.00388142 0
          0.00971074 0.00647254 0
          0.00825093 0.00514128 0
          0.00796878 0.0089671 0
          0.00541108 0.0133194 0
          0 0 0
          0 0 0
          0.00371699 -0.0240039 0
          0.00912966 -0.0178362 0
          0.00965142 -0.0147494 0
          0.00947083 -0.0121545 0
          0.0117566 -0.00755511 0
          0.0129795 -0.00755706 0
          0.0112695 -0.00495299 0
          0.0116724 0.000986452 0
          0.00593399 0.00222878 0
          0.00852896 0.000934727 0
          0.00516701 0.0137268 0
          0.00161871 0.000759123 0
          -0.00125772 0.0176881 0
          -0.00731547 0.0102812 0
          0 0 0
          0 0 0
          0.00627804 -0.0298223 0
          0.0112333 -0.0212129 0
          0.0134281 -0.014142 0
          0.0163288 -0.0138872 0
          0.0191646 -0.0116555 0
          0.022266 -0.0058305 0
          0.0169242 0.000105154 0
          0.0184581 -0.00233108 0
          0.0227929 0.00840694 0
          0.0175128 0.000551296 0
          0.0239712 0.0141005 0
          0.0195399 0.0112366 0
          0.0235727 0.0115398 0
          0.0230741 0.025033 0
          0 0 0
          0 0 0
          0.00662756 -0.0394551 0
          0.0154363 -0.0247768 0
          0.0212246 -0.0201601 0
          0.0242461 -0.0157753 0
          0.0174799 -0.0103584 0
          0.010786 -0.00409911 0
          0.0114931 -0.0009471 0
          0.0090837 -0.00135269 0
          0.00519237 0.00153304 0
          0.00901678 0.00703417 0
          -0.00763663 0.0116306 0
          0.00129221 0.00340589 0
          -0.00914751 0.0243086 0
          -0.0247659 0.0199125 0
          0 0 0
          0 0 0
          0.0165323 -0.0539544 0
          0.0379288 -0.0378149 0
          0.0479931 -0.023091 0
          0.0393382 -0.00638992 0
          0.0301908 -0.000939864 0
          0.031094 -0.00166496 0
          0.0287984 -0.00017231 0
          0.0353911 0.00195036 0
          0.0315933 0.00867289 0
          0.0349286 0.00351191 0
          0.0441437 0.030639 0
          0.027867 0.00133846 0
          0.0479412 0.0293984 0
          0.0464299 0.0421675 0
          0 0 0
          0 0 0
          0.0167437 -0.0821529 0
          0.0348651 -0.0546665 0
          0.0285978 -0.0125681 0
          0.0198585 -0.00176577 0
          0.0228787 -0.00234323 0
          0.0180283 4.47818e-05 0
          0.00876414 -0.000938926 0
          0.000470036 -0.000709945 0
          -0.00697616 0.0073599 0
          -0.0200215 0.0058754 0
          -0.0335789 0.0147979 0
          -0.0216281 0.0111978 0
          -0.0579969 0.0226962 0
          -0.0522775 0.0294164 0
          0 0 0
          0 0 0
          0.00269447 -0.0928083 0
          -0.0299477 -0.0377324 0
          -0.0341476 -0.0160574 0
          -0.0202511 -0.000905173 0
          -0.0130236 -0.00651658 0
          0.00140313 0.00808745 0
          0.00959066 0.00451855 0
          0.0265385 0.0100276 0
          0.0333147 0.0146038 0
          0.0591509 0.0194114 0
          0.060335 0.0308037 0
          0.0673554 0.00592724 0
          0.0974014 0.057748 0
          0.0659177 0.03578 0
          0 0 0
          0 0 0
          -0.0665983 -0.0382364 0
          -0.119336 -0.0135608 0
          -0.131202 -0.0221173 0
          -0.14385 -0.0100188 0
          -0.146811 -0.0183662 0
          -0.150369 -0.0119986 0
          -0.147985 -0.0153592 0
          -0.145696 -0.0164409 0
          -0.140991 -0.0105512 0
          -0.131787 -0.0181898 0
          -0.115251 0.0123661 0
          -0.0994193 -0.0182888 0
          -0.0922435 0.023156 0
          -0.0377768 0.0624659 0
          0 0 0
          0.0256 0 0
          0.0256 0 0
          0.0256 0 0
          0.0256 0 0
          0.0256 0 0
          0.0256 0 0
          0.0256 0 0
          0.0256 0 0
          0.0256 0 0
          0.0256 0 0
          0.0256 0 0
          0.0256 0 0
          0.0256 0 0
          0.0256 0 0
          0.0256 0 0
          0.0256 0 0
        </DataArray>
      </PointData>
      <CellData>
      </CellData>
    </Piece>
  </ImageData>
</VTKFile>
