<?xml version="1.0"?>
<VTKFile type="ImageData" version="0.1" byte_order="LittleEndian">
  <ImageData WholeExtent="0 15 0 15 0 0" Origin="0 0 0" Spacing="1 1 1">
    <Piece Extent="0 15 0 15 0 0">
      <PointData>
        <DataArray type="Float32" Name="rho" format="ascii">
          0.998451
          1.00048
          0.997504
          1.00091
          0.997751
          0.998952
          0.997022
          0.996883
          0.99538
          0.995147
          0.99313
          0.994764
          0.988657
          0.99876
          0.988246
          0.99408
          0.997529
          0.997945
          0.998162
          0.998032
          0.997955
          0.997836
          0.997702
          0.997481
          0.997354
          0.997115
          0.997011
          0.996742
          0.996819
          0.99646
          0.997037
          0.996254
          0.997576
          0.998282
          0.998161
          0.998109
          0.997995
          0.997848
          0.997677
          0.99753
          0.997252
          0.997141
          0.996855
          0.996779
          0.996626
          0.996514
          0.996334
          0.997054
          0.997306
          0.998318
          0.99828
          0.998184
          0.998073
          0.997892
          0.997677
          0.997484
          0.997284
          0.99697
          0.996853
          0.996636
          0.996403
          0.996408
          0.996369
          0.996963
          0.997475
          0.998487
          0.998453
          0.998298
          0.998114
          0.99797
          0.997729
          0.997393
          0.99722
          0.996952
          0.996656
          0.99643
          0.996336
          0.996113
          0.996036
          0.996896
          0.997284
          0.998698
          0.998562
          0.998479
          0.998241
          0.997957
          0.997747
          0.997479
          0.997025
          0.996868
          0.996496
          0.996271
          0.996029
          0.995882
          0.995798
          0.99673
          0.997233
          0.998866
          0.998793
          0.998534
          0.998424
          0.998042
          0.997681
          0.997458
          0.997065
          0.996538
          0.996452
          0.995986
          0.995773
          0.99559
          0.995475
          0.996591
          0.997139
          0.99916
          0.998939
          0.998799
          0.998349
          0.998257
          0.997792
          0.997146
          0.997108
          0.996584
          0.995921
          0.995954
          0.995426
          0.995275
          0.995036
          0.996375
          0.996916
          0.999167
          0.99922
          0.998851
          0.998667
          0.998105
          0.997781
          0.9975
          0.996535
          0.996566
          0.99601
          0.995244
          0.995402
          0.99475
          0.99491
          0.996215
          0.996985
          0.999767
          0.99922
          0.9991
          0.998771
          0.998164
          0.997821
          0.997293
          0.996912
          0.995816
          0.996028
          0.995317
          0.994571
          0.994947
          0.993909
          0.995886
          0.995925
          0.999342
          0.999641
          0.999278
          0.998532
          0.998668
          0.997707
          0.997059
          0.996819
          0.996309
          0.994872
          0.995575
          0.994418
          0.993627
          0.994635
          0.995964
          0.997641
          1.00046
          0.999706
          0.999024
          0.999355
          0.998087
          0.997898
          0.9974
          0.996217
          0.996081
          0.995834
          0.993474
          0.995128
          0.993887
          0.992332
          0.995299
          0.991878
          0.999274
          0.999725
          1.00009
          0.998643
          0.998565
          0.99794
          0.997034
          0.99677
          0.995501
          0.995096
          0.995322
          0.992817
          0.99421
          0.994143
          0.995604
          0.996144
          1.00156
          0.999933
          0.999417
          0.999129
          0.998694
          0.997725
          0.997329
          0.996289
          0.996123
          0.994435
          0.994621
          0.994266
          0.991268
          0.989485
          0.997353
          0.976465
          0.998471
          1.00106
          0.999111
          0.999823
          0.998079
          0.9983
          0.996926
          0.996741
          0.995254
          0.995537
          0.993052
          0.994245
          0.989855
          0.999234
          0.99891
          0.942087
          0.990077
          0.99629
          0.999785
          0.998707
          0.998784
          0.997715
          0.997363
          0.996226
          0.995896
          0.994405
          0.99497
          0.991768
          0.997015
          0.990276
          1.02043
        </DataArray>
        <DataArray type="Float32" Name="ux" format="ascii">
          0
          0
          0
          0
          0
          0
          0
          0
          0
          0
          0
          0
          0
          0
          0
          0
          0
          -0.000645026
          -0.00077432
          -0.0007872
          -0.000563554
          -0.000692374
          -0.000613817
          -0.000548991
          -0.000557622
          -0.000548014
          -0.000663491
          -0.000345899
          -0.000971685
          -0.000613537
          -0.000219722
          0
          0
          -0.000407067
          -0.000141499
          -0.000652975
          -0.000666255
          -0.000476611
          -0.000658856
          -0.000613467
          -0.000541887
          -0.000634213
          -0.000321761
          -0.000759838
          -0.000536923
          0.000220641
          -0.000614016
          0
          0
          -0.000981934
          -0.000846044
          -0.000833302
          -0.00103204
          -0.0011226
          -0.00080676
          -0.00110052
          -0.00113777
          -0.00078577
          -0.00125206
          -0.000987635
          -0.000837199
          -0.00116119
          -0.00130806
          0
          0
          -0.00078778
          -0.00068501
          -0.000990568
          -0.000731796
          -0.00108931
          -0.00115171
          -0.000835664
          -0.000926496
          -0.00121612
          -0.000821017
          -0.000632675
          -0.00109023
          -0.000369212
          -0.000788974
          0
          0
          -0.00106709
          -0.000748871
          -0.00134185
          -0.00115969
          -0.00109121
          -0.0015286
          -0.00132974
          -0.0011285
          -0.00139114
          -0.00121596
          -0.00128427
          -0.00125289
          -0.000700334
          -0.00147371
          0
          0
          -0.0014086
          -0.00107204
          -0.00132981
          -0.00162738
          -0.00163003
          -0.00100355
          -0.0019449
          -0.00176424
          -0.000826639
          -0.00170194
          -0.00150984
          -0.00119852
          -0.000955695
          -0.00162549
          0
          0
          -0.00135422
          -0.00101264
          -0.00154868
          -0.00132516
          -0.00171619
          -0.00174041
          -0.00117707
          -0.00181805
          -0.00191971
          -0.000886312
          -0.00142073
          -0.00162215
          -0.000609263
          -0.00177553
          0
          0
          -0.00219893
          -0.00173408
          -0.00238845
          -0.00185469
          -0.00208706
          -0.00286452
          -0.00195963
          -0.00139541
          -0.00281133
          -0.00220878
          -0.00109591
          -0.00205381
          -0.00142472
          -0.0024557
          0
          0
          -0.00121688
          -0.000988249
          -0.00143982
          -0.00181294
          -0.00214893
          -0.000887639
          -0.00265494
          -0.00191704
          8.71378e-05
          -0.00255752
          -0.00158191
          -6.90562e-05
          -0.000320708
          -0.00170022
          0
          0
          -0.00435067
          -0.00315257
          -0.00392198
          -0.00421108
          -0.00328209
          -0.00389527
          -0.0031242
          -0.00419509
          -0.0037111
          -0.00113943
          -0.0048567
          -0.00343102
          -0.00109404
          -0.00532922
          0
          0
          0.000623926
          8.04824e-05
          -0.00182837
          0.000482686
          -0.00128939
          -0.00137526
          -0.000334503
          0.000330611
          -0.00153685
          -0.000164714
          0.00451595
          -0.000842133
          0.00287629
          0.00355658
          0
          0
          -0.00895238
          -0.00843779
          -0.00611485
          -0.00822855
          -0.0080244
          -0.00673506
          -0.00808945
          -0.00747758
          -0.00572095
          -0.00953349
          -0.00835535
          -0.00273826
          -0.0122684
          -0.0160373
          0
          0
          0.00179908
          0.00541251
          0.000525584
          0.00162783
          0.00256532
          0.00129968
          0.00233894
          0.00239202
          0.00259338
          0.00622364
          0.002749
          0.0051215
          0.0159944
          0.00638113
          0
          0
          -0.0133579
          -0.0149449
          -0.0128813
          -0.0110571
          -0.0122644
          -0.0111063
          -0.0119972
          -0.0127459
          -0.0136972
          -0.0160902
          -0.0140955
          -0.0218028
          -0.0216764
          -0.0140679
          0
          0.0256
          0.0256
          0.0256
          0.0256
          0.0256
          0.0256
          0.0256
          0.0256
          0.0256
          0.0256
          0.0256
          0.0256
          0.0256
          0.0256
          0.0256
          0.0256
        </DataArray>
        <DataArray type="Float32" Name="uy" format="ascii">
          0
          0
          0
          0
          0
          0
          0
          0
          0
          0
          0
          0
          0
          0
          0
          0
          0
          0.000576479
          3.00139e-05
          0.0005491
          3.83707e-05
          0.000325005
          -0.000261054
          -0.000182836
          -0.000562127
          -0.000614561
          -0.00102148
          -0.000977546
          -0.00149576
          -0.000416503
          -0.00179285
          0
          0
          0.000730997
          0.000206086
          0.000753741
          -0.000179192
          0.000490712
          -0.000253781
          -0.000282282
          -0.000479163
          -0.000571559
          -0.00127213
          -0.00047969
          -0.00191578
          -0.000745926
          -0.00176785
          0
          0
          0.000942381
          -7.37852e-05
          0.0011641
          -0.000243459
          0.00034951
          -0.000129604
          -9.28836e-05
          -0.000593406
          -0.000514244
          -0.000980931
          -0.000255634
          -0.0024921
          0.000291089
          -0.00219386
          0
          0
          0.00126036
          -7.15823e-05
          0.00106058
          7.44283e-05
          0.000355868
          -0.000318044
          0.000135783
          -0.000628531
          -0.000500652
          -0.00090827
          -0.000575799
          -0.00209661
          0.0001898
          -0.00245804
          0
          0
          0.00140383
          -9.82095e-06
          0.0013359
          -0.00035377
          0.000950614
          -0.000305439
          -0.000398993
          -4.36039e-05
          -0.000388748
          -0.00153638
          0.000296259
          -0.00272627
          0.000515722
          -0.0025191
          0
          0
          0.00174898
          -0.000158277
          0.00178697
          -0.000351355
          0.000703839
          -2.07496e-05
          -4.33235e-07
          -0.000811926
          -9.27474e-05
          -0.00110978
          -5.79111e-05
          -0.00303739
          0.00106358
          -0.00298342
          0
          0
          0.00200927
          -0.000246958
          0.00191908
          4.25143e-05
          0.000393706
          -0.00020844
          0.000698044
          -0.00101276
          -0.000727088
          -0.000465014
          -4.78213e-06
          -0.00358532
          0.00165256
          -0.00325746
          0
          0
          0.00263595
          -0.000459523
          0.00255647
          -0.000780645
          0.00162393
          -0.000482044
          -0.000523632
          0.000505083
          -0.000712749
          -0.00229249
          0.00168646
          -0.00466236
          0.00237098
          -0.00384312
          0
          0
          0.00264479
          -5.47188e-05
          0.00222693
          -0.000215773
          0.00131784
          -0.000381256
          -4.16236e-05
          -0.00123928
          0.000868555
          -0.00198181
          -0.000525375
          -0.00322644
          0.00232136
          -0.00371887
          0
          0
          0.0041285
          -0.0012157
          0.00373982
          -0.000153868
          0.000416159
          8.79676e-05
          0.000614031
          -0.00167272
          -0.00127486
          0.000437553
          -0.000162364
          -0.00769153
          0.0067075
          -0.00577518
          0
          0
          0.00357638
          -0.000298318
          0.00408413
          -0.00200357
          0.00233123
          -0.000996035
          -0.000181426
          -0.000251245
          -0.00131726
          -0.00349281
          0.00415553
          -0.00864192
          0.00379945
          -0.00187256
          0
          0
          0.00589573
          0.000171977
          0.00250971
          0.000430624
          0.00139107
          -0.00079058
          -0.000315694
          -0.00145631
          -9.13828e-06
          -0.00349475
          -0.00228644
          -0.0037311
          0.00563703
          -0.00705658
          0
          0
          0.00611235
          -0.00328499
          0.00608593
          -0.0015974
          0.00144882
          -0.00082655
          -3.38882e-05
          -0.00207453
          -0.0006118
          -0.00156759
          -0.000503604
          -0.0122455
          0.0190572
          -0.00823244
          0
          0
          0.00534785
          -0.000746616
          0.00623362
          -0.00263363
          0.00256941
          -0.00130762
          -0.000159669
          -0.00206891
          -0.00133228
          -0.00440092
          0.00192074
          -0.0151868
          0.00919039
          -0.00567264
          0
          0
          0
          0
          0
          0
          0
          0
          0
          0
          0
          0
          0
          0
          0
          0
          0
        </DataArray>
        <DataArray type="Float32" Name="velocity" NumberOfComponents="3" format="ascii">
          0 0 0
          0 0 0
          0 0 0
          0 0 0
          0 0 0
          0 0 0
          0 0 0
          0 0 0
          0 0 0
          0 0 0
          0 0 0
          0 0 0
          0 0 0
          0 0 0
          0 0 0
          0 0 0
          0 0 0
          -0.000645026 0.000576479 0
          -0.00077432 3.00139e-05 0
          -0.0007872 0.0005491 0
          -0.000563554 3.83707e-05 0
          -0.000692374 0.000325005 0
          -0.000613817 -0.000261054 0
          -0.000548991 -0.000182836 0
          -0.000557622 -0.000562127 0
          -0.000548014 -0.000614561 0
          -0.000663491 -0.00102148 0
          -0.000345899 -0.000977546 0
          -0.000971685 -0.00149576 0
          -0.000613537 -0.000416503 0
          -0.000219722 -0.00179285 0
          0 0 0
          0 0 0
          -0.000407067 0.000730997 0
          -0.000141499 0.000206086 0
          -0.000652975 0.000753741 0
          -0.000666255 -0.000179192 0
          -0.000476611 0.000490712 0
          -0.000658856 -0.000253781 0
          -0.000613467 -0.000282282 0
          -0.000541887 -0.000479163 0
          -0.000634213 -0.000571559 0
          -0.000321761 -0.00127213 0
          -0.000759838 -0.00047969 0
          -0.000536923 -0.00191578 0
          0.000220641 -0.000745926 0
          -0.000614016 -0.00176785 0
          0 0 0
          0 0 0
          -0.000981934 0.000942381 0
          -0.000846044 -7.37852e-05 0
          -0.000833302 0.0011641 0
          -0.00103204 -0.000243459 0
          -0.0011226 0.00034951 0
          -0.00080676 -0.000129604 0
          -0.00110052 -9.28836e-05 0
          -0.00113777 -0.000593406 0
          -0.00078577 -0.000514244 0
          -0.00125206 -0.000980931 0
          -0.000987635 -0.000255634 0
          -0.000837199 -0.0024921 0
          -0.00116119 0.000291089 0
          -0.00130806 -0.00219386 0
          0 0 0
          0 0 0
          -0.00078778 0.00126036 0
          -0.00068501 -7.15823e-05 0
          -0.000990568 0.00106058 0
          -0.000731796 7.44283e-05 0
          -0.00108931 0.000355868 0
          -0.00115171 -0.000318044 0
          -0.000835664 0.000135783 0
          -0.000926496 -0.000628531 0
          -0.00121612 -0.000500652 0
          -0.000821017 -0.00090827 0
          -0.000632675 -0.000575799 0
          -0.00109023 -0.00209661 0
          -0.000369212 0.0001898 0
          -0.000788974 -0.00245804 0
          0 0 0
          0 0 0
          -0.00106709 0.00140383 0
          -0.000748871 -9.82095e-06 0
          -0.00134185 0.0013359 0
          -0.00115969 -0.00035377 0
          -0.00109121 0.000950614 0
          -0.0015286 -0.000305439 0
          -0.00132974 -0.000398993 0
          -0.0011285 -4.36039e-05 0
          -0.00139114 -0.000388748 0
          -0.00121596 -0.00153638 0
          -0.00128427 0.000296259 0
          -0.00125289 -0.00272627 0
          -0.000700334 0.000515722 0
          -0.00147371 -0.0025191 0
          0 0 0
          0 0 0
          -0.0014086 0.00174898 0
          -0.00107204 -0.000158277 0
          -0.00132981 0.00178697 0
          -0.00162738 -0.000351355 0
          -0.00163003 0.000703839 0
          -0.00100355 -2.07496e-05 0
          -0.0019449 -4.33235e-07 0
          -0.00176424 -0.000811926 0
          -0.000826639 -9.27474e-05 0
          -0.00170194 -0.00110978 0
          -0.00150984 -5.79111e-05 0
          -0.00119852 -0.00303739 0
          -0.000955695 0.00106358 0
          -0.00162549 -0.00298342 0
          0 0 0
          0 0 0
          -0.00135422 0.00200927 0
          -0.00101264 -0.000246958 0
          -0.00154868 0.00191908 0
          -0.00132516 4.25143e-05 0
          -0.00171619 0.000393706 0
          -0.00174041 -0.00020844 0
          -0.00117707 0.000698044 0
          -0.00181805 -0.00101276 0
          -0.00191971 -0.000727088 0
          -0.000886312 -0.000465014 0
          -0.00142073 -4.78213e-06 0
          -0.00162215 -0.00358532 0
          -0.000609263 0.00165256 0
          -0.00177553 -0.00325746 0
          0 0 0
          0 0 0
          -0.00219893 0.00263595 0
          -0.00173408 -0.000459523 0
          -0.00238845 0.00255647 0
          -0.00185469 -0.000780645 0
          -0.00208706 0.00162393 0
          -0.00286452 -0.000482044 0
          -0.00195963 -0.000523632 0
          -0.00139541 0.000505083 0
          -0.00281133 -0.000712749 0
          -0.00220878 -0.00229249 0
          -0.00109591 0.00168646 0
          -0.00205381 -0.00466236 0
          -0.00142472 0.00237098 0
          -0.0024557 -0.00384312 0
          0 0 0
          0 0 0
          -0.00121688 0.00264479 0
          -0.000988249 -5.47188e-05 0
          -0.00143982 0.00222693 0
          -0.00181294 -0.000215773 0
          -0.00214893 0.00131784 0
          -0.000887639 -0.000381256 0
          -0.00265494 -4.16236e-05 0
          -0.00191704 -0.00123928 0
          8.71378e-05 0.000868555 0
          -0.00255752 -0.00198181 0
          -0.00158191 -0.000525375 0
          -6.90562e-05 -0.00322644 0
          -0.000320708 0.00232136 0
          -0.00170022 -0.00371887 0
          0 0 0
          0 0 0
          -0.00435067 0.0041285 0
          -0.00315257 -0.0012157 0
          -0.00392198 0.00373982 0
          -0.00421108 -0.000153868 0
          -0.00328209 0.000416159 0
          -0.00389527 8.79676e-05 0
          -0.0031242 0.000614031 0
          -0.00419509 -0.00167272 0
          -0.0037111 -0.00127486 0
          -0.00113943 0.000437553 0
          -0.0048567 -0.000162364 0
          -0.00343102 -0.00769153 0
          -0.00109404 0.0067075 0
          -0.00532922 -0.00577518 0
          0 0 0
          0 0 0
          0.000623926 0.00357638 0
          8.04824e-05 -0.000298318 0
          -0.00182837 0.00408413 0
          0.000482686 -0.00200357 0
          -0.00128939 0.00233123 0
          -0.00137526 -0.000996035 0
          -0.000334503 -0.000181426 0
          0.000330611 -0.000251245 0
          -0.00153685 -0.00131726 0
          -0.000164714 -0.00349281 0
          0.00451595 0.00415553 0
          -0.000842133 -0.00864192 0
          0.00287629 0.00379945 0
          0.00355658 -0.00187256 0
          0 0 0
          0 0 0
          -0.00895238 0.00589573 0
          -0.00843779 0.000171977 0
          -0.00611485 0.00250971 0
          -0.00822855 0.000430624 0
          -0.0080244 0.00139107 0
          -0.00673506 -0.00079058 0
          -0.00808945 -0.000315694 0
          -0.00747758 -0.00145631 0
          -0.00572095 -9.13828e-06 0
          -0.00953349 -0.00349475 0
          -0.00835535 -0.00228644 0
          -0.00273826 -0.0037311 0
          -0.0122684 0.00563703 0
          -0.0160373 -0.00705658 0
          0 0 0
          0 0 0
          0.00179908 0.00611235 0
          0.00541251 -0.00328499 0
          0.000525584 0.00608593 0
          0.00162783 -0.0015974 0
          0.00256532 0.00144882 0
          0.00129968 -0.00082655 0
          0.00233894 -3.38882e-05 0
          0.00239202 -0.00207453 0
          0.00259338 -0.0006118 0
          0.00622364 -0.00156759 0
          0.002749 -0.000503604 0
          0.0051215 -0.0122455 0
          0.0159944 0.0190572 0
          0.00638113 -0.00823244 0
          0 0 0
          0 0 0
          -0.0133579 0.00534785 0
          -0.0149449 -0.000746616 0
          -0.0128813 0.00623362 0
          -0.0110571 -0.00263363 0
          -0.0122644 0.00256941 0
          -0.0111063 -0.00130762 0
          -0.0119972 -0.000159669 0
          -0.0127459 -0.00206891 0
          -0.0136972 -0.00133228 0
          -0.0160902 -0.00440092 0
          -0.0140955 0.00192074 0
          -0.0218028 -0.0151868 0
          -0.0216764 0.00919039 0
          -0.0140679 -0.00567264 0
          0 0 0
          0.0256 0 0
          0.0256 0 0
          0.0256 0 0
          0.0256 0 0
          0.0256 0 0
          0.0256 0 0
          0.0256 0 0
          0.0256 0 0
          0.0256 0 0
          0.0256 0 0
          0.0256 0 0
          0.0256 0 0
          0.0256 0 0
          0.0256 0 0
          0.0256 0 0
          0.0256 0 0
        </DataArray>
      </PointData>
      <CellData>
      </CellData>
    </Piece>
  </ImageData>
</VTKFile>
