<?xml version="1.0"?>
<VTKFile type="ImageData" version="0.1" byte_order="LittleEndian">
  <ImageData WholeExtent="0 15 0 15 0 0" Origin="0 0 0" Spacing="1 1 1">
    <Piece Extent="0 15 0 15 0 0">
      <PointData>
        <DataArray type="Float32" Name="rho" format="ascii">
          0.991678
          0.992028
          0.991109
          0.994159
          0.991725
          0.993704
          0.992095
          0.992862
          0.991965
          0.992724
          0.991618
          0.994259
          0.989194
          1.00092
          0.990804
          0.995013
          0.991685
          0.992796
          0.993163
          0.993347
          0.993427
          0.99385
          0.994049
          0.99436
          0.994688
          0.995
          0.995248
          0.995564
          0.995786
          0.995813
          0.996521
          0.99598
          0.992199
          0.993184
          0.99315
          0.993382
          0.99363
          0.993768
          0.994139
          0.994417
          0.994657
          0.995011
          0.995242
          0.995497
          0.99575
          0.995873
          0.995805
          0.996592
          0.991779
          0.993165
          0.993311
          0.993401
          0.993693
          0.993912
          0.99409
          0.994468
          0.994719
          0.994947
          0.995284
          0.995476
          0.99564
          0.995841
          0.996017
          0.996661
          0.992091
          0.993246
          0.993422
          0.993555
          0.993643
          0.994012
          0.994232
          0.994352
          0.994808
          0.994987
          0.995207
          0.995476
          0.995655
          0.995797
          0.995826
          0.996647
          0.991923
          0.993398
          0.993415
          0.993675
          0.993818
          0.993903
          0.994311
          0.994567
          0.994609
          0.995102
          0.995203
          0.995431
          0.995637
          0.995733
          0.995856
          0.996659
          0.991836
          0.993459
          0.993605
          0.993595
          0.993967
          0.994087
          0.994172
          0.994653
          0.994802
          0.994862
          0.995396
          0.995341
          0.995622
          0.995725
          0.995833
          0.996749
          0.991848
          0.993642
          0.993627
          0.993859
          0.993797
          0.994285
          0.994413
          0.994276
          0.995077
          0.995032
          0.994994
          0.99569
          0.995424
          0.99579
          0.995601
          0.9968
          0.991569
          0.993517
          0.993822
          0.993837
          0.994128
          0.99404
          0.994427
          0.994886
          0.994392
          0.995358
          0.995257
          0.995073
          0.995891
          0.995298
          0.996072
          0.99683
          0.992129
          0.994035
          0.993741
          0.994005
          0.994135
          0.994216
          0.994482
          0.994644
          0.995115
          0.994514
          0.995687
          0.995355
          0.995197
          0.996228
          0.994975
          0.996782
          0.990163
          0.993523
          0.994102
          0.994037
          0.993961
          0.99471
          0.994379
          0.994545
          0.995043
          0.995337
          0.994503
          0.996146
          0.995119
          0.994918
          0.996569
          0.996962
          0.993568
          0.994653
          0.993901
          0.993939
          0.99471
          0.994007
          0.994691
          0.994935
          0.994514
          0.995272
          0.99577
          0.993777
          0.996622
          0.995314
          0.993808
          0.99683
          0.985493
          0.992833
          0.994322
          0.994812
          0.993856
          0.994682
          0.994713
          0.994602
          0.995239
          0.994789
          0.995146
          0.995957
          0.994376
          0.996051
          0.99694
          0.996869
          0.991397
          0.995978
          0.993971
          0.994118
          0.994478
          0.994672
          0.994513
          0.995031
          0.994766
          0.995405
          0.994521
          0.995746
          0.99553
          0.99328
          0.991163
          0.998463
          0.972167
          0.992616
          0.994853
          0.99404
          0.995054
          0.993964
          0.995244
          0.994485
          0.995308
          0.994622
          0.995647
          0.994129
          0.995739
          0.99208
          1.00262
          1.00107
          0.940445
          0.984865
          0.9912
          0.994549
          0.994435
          0.99484
          0.994736
          0.995039
          0.994764
          0.995126
          0.994523
          0.99567
          0.993201
          0.998804
          0.992531
          1.01536
        </DataArray>
        <DataArray type="Float32" Name="ux" format="ascii">
          0
          0
          0
          0
          0
          0
          0
          0
          0
          0
          0
          0
          0
          0
          0
          0
          0
          -0.00114264
          -0.00119843
          -0.00111222
          -0.000837054
          -0.000966489
          -0.000941571
          -0.000831881
          -0.000912977
          -0.00101653
          -0.00110058
          -0.000980381
          -0.00155804
          -0.00110364
          -0.000856485
          0
          0
          -0.000244711
          4.70748e-06
          -0.000652459
          -0.000577931
          -0.00025398
          -0.000531469
          -0.00056068
          -0.000487945
          -0.000629883
          -0.000381358
          -0.000884247
          -0.000737944
          0.000244922
          -0.000457075
          0
          0
          -0.00132269
          -0.000971496
          -0.000788256
          -0.0012338
          -0.0012035
          -0.000673323
          -0.00119496
          -0.00124107
          -0.000840611
          -0.00149283
          -0.0013139
          -0.00104154
          -0.00147054
          -0.0017968
          0
          0
          -0.000741824
          -0.000723204
          -0.000818386
          -0.000286729
          -0.000980236
          -0.000957063
          -0.00033527
          -0.000612329
          -0.00103819
          -0.000596497
          -0.000394243
          -0.000993905
          -0.000246666
          -0.000741588
          0
          0
          -0.000905329
          -0.000451286
          -0.00124214
          -0.000840915
          -0.000439224
          -0.00130483
          -0.000941135
          -0.000533615
          -0.00109736
          -0.000710956
          -0.00101481
          -0.00108575
          -0.00029199
          -0.00139469
          0
          0
          -0.0013438
          -0.000797309
          -0.000852481
          -0.00139113
          -0.00111864
          6.71691e-05
          -0.00168374
          -0.00126591
          0.000238675
          -0.00134838
          -0.00104045
          -0.00069364
          -0.000628156
          -0.00150327
          0
          0
          -0.000987082
          -0.000665662
          -0.000922631
          -0.00032894
          -0.00109777
          -0.00100828
          0.000247423
          -0.000920592
          -0.00111789
          0.000365601
          -0.00063318
          -0.000810927
          0.000198444
          -0.00147345
          0
          0
          -0.00196315
          -0.00126082
          -0.00186754
          -0.00106107
          -0.0011605
          -0.00225965
          -0.000784683
          0.000170048
          -0.00212848
          -0.000996271
          0.000164586
          -0.00145236
          -0.000536994
          -0.00214601
          0
          0
          -0.000280142
          3.39806e-05
          -0.000290922
          -0.000718503
          -0.000638204
          0.00149763
          -0.00140317
          -0.000103439
          0.00297369
          -0.00110192
          0.000579241
          0.00205474
          0.00144585
          4.5064e-05
          0
          0
          -0.0041173
          -0.00268729
          -0.00345935
          -0.00303649
          -0.00176749
          -0.0029235
          -0.00141199
          -0.00314696
          -0.00272565
          0.000953778
          -0.00472097
          -0.00187011
          -0.000143229
          -0.00665402
          0
          0
          0.00189285
          0.00100396
          -3.82484e-06
          0.00304209
          0.000351528
          0.00102499
          0.00239831
          0.00379225
          0.00163094
          0.00348045
          0.0101107
          0.00268758
          0.00773091
          0.00837624
          0
          0
          -0.00867186
          -0.00663885
          -0.00402949
          -0.00718458
          -0.00628154
          -0.00488558
          -0.00624077
          -0.00527995
          -0.00345406
          -0.0080196
          -0.00741417
          -0.00157421
          -0.0154196
          -0.0189105
          0
          0
          0.00637329
          0.0107151
          0.00386308
          0.00667117
          0.00722547
          0.00606699
          0.00721115
          0.00715401
          0.00736537
          0.0109208
          0.00656891
          0.00923917
          0.0192655
          0.00836285
          0
          0
          -0.0167818
          -0.0218898
          -0.0199481
          -0.0202892
          -0.0226137
          -0.0221815
          -0.0242307
          -0.0253101
          -0.0263711
          -0.0278637
          -0.0244622
          -0.0307066
          -0.0266617
          -0.0138879
          0
          0.0256
          0.0256
          0.0256
          0.0256
          0.0256
          0.0256
          0.0256
          0.0256
          0.0256
          0.0256
          0.0256
          0.0256
          0.0256
          0.0256
          0.0256
          0.0256
        </DataArray>
        <DataArray type="Float32" Name="uy" format="ascii">
          0
          0
          0
          0
          0
          0
          0
          0
          0
          0
          0
          0
          0
          0
          0
          0
          0
          -0.000300675
          -0.000826084
          4.99194e-05
          -0.000765945
          0.00015979
          -0.000946651
          -0.00029776
          -0.000932238
          -0.000479288
          -0.00117475
          -0.00029746
          -0.00143981
          0.00097836
          -0.000974235
          0
          0
          -0.000271344
          -0.00066528
          0.00013347
          -0.00118347
          0.000309552
          -0.000907752
          -0.00052256
          -0.000731442
          -0.000483273
          -0.00137465
          0.000309593
          -0.00197958
          0.000492602
          -0.00102977
          0
          0
          -0.000222591
          -0.00108305
          0.000574577
          -0.00125766
          -0.000198983
          -0.000593933
          -0.000308479
          -0.000911494
          -0.000399659
          -0.000867689
          0.000467966
          -0.0025235
          0.00150971
          -0.00150125
          0
          0
          0.000173322
          -0.00141596
          0.000269072
          -0.000850037
          -0.000196304
          -0.00119503
          0.000179226
          -0.00107486
          -0.00025079
          -0.000793898
          0.000169364
          -0.0021809
          0.00168329
          -0.00197824
          0
          0
          6.9284e-05
          -0.00121673
          0.000265799
          -0.00157218
          0.000665453
          -0.00117509
          -0.000941455
          7.99117e-05
          -0.000314285
          -0.00150802
          0.00133562
          -0.00289383
          0.00200036
          -0.00180799
          0
          0
          0.000254494
          -0.00162356
          0.000938781
          -0.00183189
          -3.41617e-05
          -0.000557406
          -0.000333785
          -0.00136049
          0.000367728
          -0.00101259
          0.00103531
          -0.00325792
          0.00266917
          -0.00208387
          0
          0
          0.000319994
          -0.00182759
          0.000666892
          -0.00116445
          -0.00065121
          -0.00111025
          0.000859112
          -0.00177811
          -0.000557233
          0.000264424
          0.000798433
          -0.00360353
          0.00349208
          -0.00205246
          0
          0
          0.000798794
          -0.00218176
          0.00107636
          -0.00237747
          0.00119052
          -0.00175211
          -0.00134493
          0.000920207
          -0.000794184
          -0.00225923
          0.00362336
          -0.00534901
          0.00483833
          -0.0023813
          0
          0
          0.000398645
          -0.00180506
          0.000591207
          -0.0017697
          0.000261413
          -0.00149726
          -0.000537881
          -0.00199747
          0.00183255
          -0.00205079
          0.000861803
          -0.00257969
          0.00378492
          -0.000738957
          0
          0
          0.0014763
          -0.00302047
          0.0021296
          -0.00221621
          -0.00108418
          -0.000850044
          0.00029427
          -0.00250712
          -0.00132363
          0.00174412
          0.000925159
          -0.00816008
          0.0103473
          -0.00312853
          0
          0
          0.000636777
          -0.00187547
          0.00140851
          -0.00434717
          0.00161469
          -0.00256077
          -0.000782465
          -0.000460802
          -0.00138922
          -0.00328168
          0.00672505
          -0.00967366
          0.00773251
          0.00347324
          0
          0
          0.00304217
          -0.00252033
          -0.000350826
          -0.0012007
          -3.99333e-05
          -0.00253606
          -0.00145185
          -0.00246409
          0.00027931
          -0.00395221
          -0.00111465
          -0.00197744
          0.00843363
          -0.0011592
          0
          0
          -0.000440703
          -0.0051066
          0.0038682
          -0.00389511
          0.000341295
          -0.00253044
          -0.00102803
          -0.00266727
          -5.54225e-05
          -0.000207132
          0.00129147
          -0.00929305
          0.0263614
          -0.00422531
          0
          0
          -0.000984038
          -0.00112293
          0.00402848
          -0.00477629
          0.00192997
          -0.00308254
          -0.000731636
          -0.00298082
          -0.00112704
          -0.00404022
          0.00328325
          -0.0139689
          0.0140366
          -0.00120829
          0
          0
          0
          0
          0
          0
          0
          0
          0
          0
          0
          0
          0
          0
          0
          0
          0
        </DataArray>
        <DataArray type="Float32" Name="velocity" NumberOfComponents="3" format="ascii">
          0 0 0
          0 0 0
          0 0 0
          0 0 0
          0 0 0
          0 0 0
          0 0 0
          0 0 0
          0 0 0
          0 0 0
          0 0 0
          0 0 0
          0 0 0
          0 0 0
          0 0 0
          0 0 0
          0 0 0
          -0.00114264 -0.000300675 0
          -0.00119843 -0.000826084 0
          -0.00111222 4.99194e-05 0
          -0.000837054 -0.000765945 0
          -0.000966489 0.00015979 0
          -0.000941571 -0.000946651 0
          -0.000831881 -0.00029776 0
          -0.000912977 -0.000932238 0
          -0.00101653 -0.000479288 0
          -0.00110058 -0.00117475 0
          -0.000980381 -0.00029746 0
          -0.00155804 -0.00143981 0
          -0.00110364 0.00097836 0
          -0.000856485 -0.000974235 0
          0 0 0
          0 0 0
          -0.000244711 -0.000271344 0
          4.70748e-06 -0.00066528 0
          -0.000652459 0.00013347 0
          -0.000577931 -0.00118347 0
          -0.00025398 0.000309552 0
          -0.000531469 -0.000907752 0
          -0.00056068 -0.00052256 0
          -0.000487945 -0.000731442 0
          -0.000629883 -0.000483273 0
          -0.000381358 -0.00137465 0
          -0.000884247 0.000309593 0
          -0.000737944 -0.00197958 0
          0.000244922 0.000492602 0
          -0.000457075 -0.00102977 0
          0 0 0
          0 0 0
          -0.00132269 -0.000222591 0
          -0.000971496 -0.00108305 0
          -0.000788256 0.000574577 0
          -0.0012338 -0.00125766 0
          -0.0012035 -0.000198983 0
          -0.000673323 -0.000593933 0
          -0.00119496 -0.000308479 0
          -0.00124107 -0.000911494 0
          -0.000840611 -0.000399659 0
          -0.00149283 -0.000867689 0
          -0.0013139 0.000467966 0
          -0.00104154 -0.0025235 0
          -0.00147054 0.00150971 0
          -0.0017968 -0.00150125 0
          0 0 0
          0 0 0
          -0.000741824 0.000173322 0
          -0.000723204 -0.00141596 0
          -0.000818386 0.000269072 0
          -0.000286729 -0.000850037 0
          -0.000980236 -0.000196304 0
          -0.000957063 -0.00119503 0
          -0.00033527 0.000179226 0
          -0.000612329 -0.00107486 0
          -0.00103819 -0.00025079 0
          -0.000596497 -0.000793898 0
          -0.000394243 0.000169364 0
          -0.000993905 -0.0021809 0
          -0.000246666 0.00168329 0
          -0.000741588 -0.00197824 0
          0 0 0
          0 0 0
          -0.000905329 6.9284e-05 0
          -0.000451286 -0.00121673 0
          -0.00124214 0.000265799 0
          -0.000840915 -0.00157218 0
          -0.000439224 0.000665453 0
          -0.00130483 -0.00117509 0
          -0.000941135 -0.000941455 0
          -0.000533615 7.99117e-05 0
          -0.00109736 -0.000314285 0
          -0.000710956 -0.00150802 0
          -0.00101481 0.00133562 0
          -0.00108575 -0.00289383 0
          -0.00029199 0.00200036 0
          -0.00139469 -0.00180799 0
          0 0 0
          0 0 0
          -0.0013438 0.000254494 0
          -0.000797309 -0.00162356 0
          -0.000852481 0.000938781 0
          -0.00139113 -0.00183189 0
          -0.00111864 -3.41617e-05 0
          6.71691e-05 -0.000557406 0
          -0.00168374 -0.000333785 0
          -0.00126591 -0.00136049 0
          0.000238675 0.000367728 0
          -0.00134838 -0.00101259 0
          -0.00104045 0.00103531 0
          -0.00069364 -0.00325792 0
          -0.000628156 0.00266917 0
          -0.00150327 -0.00208387 0
          0 0 0
          0 0 0
          -0.000987082 0.000319994 0
          -0.000665662 -0.00182759 0
          -0.000922631 0.000666892 0
          -0.00032894 -0.00116445 0
          -0.00109777 -0.00065121 0
          -0.00100828 -0.00111025 0
          0.000247423 0.000859112 0
          -0.000920592 -0.00177811 0
          -0.00111789 -0.000557233 0
          0.000365601 0.000264424 0
          -0.00063318 0.000798433 0
          -0.000810927 -0.00360353 0
          0.000198444 0.00349208 0
          -0.00147345 -0.00205246 0
          0 0 0
          0 0 0
          -0.00196315 0.000798794 0
          -0.00126082 -0.00218176 0
          -0.00186754 0.00107636 0
          -0.00106107 -0.00237747 0
          -0.0011605 0.00119052 0
          -0.00225965 -0.00175211 0
          -0.000784683 -0.00134493 0
          0.000170048 0.000920207 0
          -0.00212848 -0.000794184 0
          -0.000996271 -0.00225923 0
          0.000164586 0.00362336 0
          -0.00145236 -0.00534901 0
          -0.000536994 0.00483833 0
          -0.00214601 -0.0023813 0
          0 0 0
          0 0 0
          -0.000280142 0.000398645 0
          3.39806e-05 -0.00180506 0
          -0.000290922 0.000591207 0
          -0.000718503 -0.0017697 0
          -0.000638204 0.000261413 0
          0.00149763 -0.00149726 0
          -0.00140317 -0.000537881 0
          -0.000103439 -0.00199747 0
          0.00297369 0.00183255 0
          -0.00110192 -0.00205079 0
          0.000579241 0.000861803 0
          0.00205474 -0.00257969 0
          0.00144585 0.00378492 0
          4.5064e-05 -0.000738957 0
          0 0 0
          0 0 0
          -0.0041173 0.0014763 0
          -0.00268729 -0.00302047 0
          -0.00345935 0.0021296 0
          -0.00303649 -0.00221621 0
          -0.00176749 -0.00108418 0
          -0.0029235 -0.000850044 0
          -0.00141199 0.00029427 0
          -0.00314696 -0.00250712 0
          -0.00272565 -0.00132363 0
          0.000953778 0.00174412 0
          -0.00472097 0.000925159 0
          -0.00187011 -0.00816008 0
          -0.000143229 0.0103473 0
          -0.00665402 -0.00312853 0
          0 0 0
          0 0 0
          0.00189285 0.000636777 0
          0.00100396 -0.00187547 0
          -3.82484e-06 0.00140851 0
          0.00304209 -0.00434717 0
          0.000351528 0.00161469 0
          0.00102499 -0.00256077 0
          0.00239831 -0.000782465 0
          0.00379225 -0.000460802 0
          0.00163094 -0.00138922 0
          0.00348045 -0.00328168 0
          0.0101107 0.00672505 0
          0.00268758 -0.00967366 0
          0.00773091 0.00773251 0
          0.00837624 0.00347324 0
          0 0 0
          0 0 0
          -0.00867186 0.00304217 0
          -0.00663885 -0.00252033 0
          -0.00402949 -0.000350826 0
          -0.00718458 -0.0012007 0
          -0.00628154 -3.99333e-05 0
          -0.00488558 -0.00253606 0
          -0.00624077 -0.00145185 0
          -0.00527995 -0.00246409 0
          -0.00345406 0.00027931 0
          -0.0080196 -0.00395221 0
          -0.00741417 -0.00111465 0
          -0.00157421 -0.00197744 0
          -0.0154196 0.00843363 0
          -0.0189105 -0.0011592 0
          0 0 0
          0 0 0
          0.00637329 -0.000440703 0
          0.0107151 -0.0051066 0
          0.00386308 0.0038682 0
          0.00667117 -0.00389511 0
          0.00722547 0.000341295 0
          0.00606699 -0.00253044 0
          0.00721115 -0.00102803 0
          0.00715401 -0.00266727 0
          0.00736537 -5.54225e-05 0
          0.0109208 -0.000207132 0
          0.00656891 0.00129147 0
          0.00923917 -0.00929305 0
          0.0192655 0.0263614 0
          0.00836285 -0.00422531 0
          0 0 0
          0 0 0
          -0.0167818 -0.000984038 0
          -0.0218898 -0.00112293 0
          -0.0199481 0.00402848 0
          -0.0202892 -0.00477629 0
          -0.0226137 0.00192997 0
          -0.0221815 -0.00308254 0
          -0.0242307 -0.000731636 0
          -0.0253101 -0.00298082 0
          -0.0263711 -0.00112704 0
          -0.0278637 -0.00404022 0
          -0.0244622 0.00328325 0
          -0.0307066 -0.0139689 0
          -0.0266617 0.0140366 0
          -0.0138879 -0.00120829 0
          0 0 0
          0.0256 0 0
          0.0256 0 0
          0.0256 0 0
          0.0256 0 0
          0.0256 0 0
          0.0256 0 0
          0.0256 0 0
          0.0256 0 0
          0.0256 0 0
          0.0256 0 0
          0.0256 0 0
          0.0256 0 0
          0.0256 0 0
          0.0256 0 0
          0.0256 0 0
          0.0256 0 0
        </DataArray>
      </PointData>
      <CellData>
      </CellData>
    </Piece>
  </ImageData>
</VTKFile>
