<?xml version="1.0"?>
<VTKFile type="ImageData" version="0.1" byte_order="LittleEndian">
  <ImageData WholeExtent="0 15 0 15 0 0" Origin="0 0 0" Spacing="1 1 1">
    <Piece Extent="0 15 0 15 0 0">
      <PointData>
        <DataArray type="Float32" Name="rho" format="ascii">
          1.00382
          1.00816
          1.00306
          1.00398
          1.00194
          1.00109
          0.999942
          0.999298
          0.998543
          0.997885
          0.996209
          0.99596
          0.991742
          0.994898
          0.982713
          0.991605
          1.00189
          1.00141
          1.00144
          1.00105
          1.00074
          1.00011
          0.99955
          0.999148
          0.998863
          0.998469
          0.998245
          0.997863
          0.998102
          0.997664
          0.998148
          0.996187
          1.00154
          1.00127
          1.00128
          1.00101
          1.00067
          1.00012
          0.999579
          0.999183
          0.998868
          0.998498
          0.998213
          0.998099
          0.998086
          0.997905
          0.998079
          0.997597
          1.00098
          1.00101
          1.00091
          1.00083
          1.00055
          1.00012
          0.999625
          0.999209
          0.99886
          0.998559
          0.998395
          0.9984
          0.998339
          0.99857
          0.998405
          0.997995
          1.00037
          1.0003
          1.00032
          1.00032
          1.00025
          1.00002
          0.999646
          0.999248
          0.998951
          0.998833
          0.99893
          0.999115
          0.999366
          0.999427
          0.999406
          0.998851
          0.999235
          0.998996
          0.999055
          0.999216
          0.999445
          0.999562
          0.999497
          0.999352
          0.999346
          0.999612
          1.00011
          1.00063
          1.00101
          1.00118
          1.00117
          1.00025
          0.997685
          0.997117
          0.99718
          0.997465
          0.997931
          0.998465
          0.999001
          0.999567
          1.00026
          1.00107
          1.00191
          1.00258
          1.00302
          1.00326
          1.00325
          1.0023
          0.995878
          0.995153
          0.995268
          0.995561
          0.996067
          0.996906
          0.998189
          0.999817
          1.00147
          1.00278
          1.00363
          1.00411
          1.00443
          1.00464
          1.00485
          1.00448
          0.994019
          0.993777
          0.994031
          0.994311
          0.994764
          0.995708
          0.997518
          0.999986
          1.00238
          1.00399
          1.00472
          1.00496
          1.00517
          1.0054
          1.00581
          1.00617
          0.992523
          0.992956
          0.993357
          0.993711
          0.994286
          0.995358
          0.997381
          1.00004
          1.0026
          1.00443
          1.00533
          1.00568
          1.00596
          1.00619
          1.00647
          1.00759
          0.990624
          0.992412
          0.992829
          0.993255
          0.99411
          0.995501
          0.997649
          0.999985
          1.00225
          1.00428
          1.00562
          1.00626
          1.00664
          1.00661
          1.00727
          1.00826
          0.989583
          0.992336
          0.992709
          0.993074
          0.994058
          0.995782
          0.998015
          0.999909
          1.00174
          1.00394
          1.0057
          1.00636
          1.00696
          1.00677
          1.00657
          1.00955
          0.985881
          0.992563
          0.99253
          0.993049
          0.994035
          0.995822
          0.998145
          0.999857
          1.00146
          1.00377
          1.00577
          1.00674
          1.00628
          1.00737
          1.00703
          1.00947
          0.984002
          0.992695
          0.993532
          0.993034
          0.993999
          0.995741
          0.998078
          0.999767
          1.00142
          1.00376
          1.0056
          1.0065
          1.00728
          1.00493
          1.00566
          1.01397
          0.963637
          0.991171
          0.993152
          0.992825
          0.993841
          0.995284
          0.997677
          0.999705
          1.00175
          1.00402
          1.00625
          1.00622
          1.00722
          1.00544
          1.01037
          1.01803
          0.91862
          0.97977
          0.987074
          0.991767
          0.992311
          0.99438
          0.996675
          0.999684
          1.00254
          1.00526
          1.00641
          1.00813
          1.00632
          1.01192
          1.00693
          1.06082
        </DataArray>
        <DataArray type="Float32" Name="ux" format="ascii">
          0
          0
          0
          0
          0
          0
          0
          0
          0
          0
          0
          0
          0
          0
          0
          0
          0
          0.000430221
          0.000740189
          0.000664214
          0.000914059
          0.00101028
          0.0011848
          0.00131132
          0.00137558
          0.00148706
          0.00149137
          0.00177581
          0.00144731
          0.00182559
          0.00139099
          0
          0
          0.000237106
          0.000475195
          0.000569871
          0.000670071
          0.000836647
          0.00100027
          0.00112069
          0.00116913
          0.00120143
          0.00126558
          0.0012557
          0.00138374
          0.00140532
          0.00062952
          0
          0
          5.28513e-05
          0.000216431
          0.000327112
          0.000478637
          0.000642063
          0.000820341
          0.000932621
          0.000954237
          0.000939805
          0.000902399
          0.000930491
          0.000801999
          0.000526225
          0.000145505
          0
          0
          1.10347e-05
          8.20551e-05
          0.000135665
          0.000249341
          0.000409561
          0.000586494
          0.00069273
          0.000689477
          0.000639401
          0.000587064
          0.000572598
          0.000440844
          0.000445155
          0.000281993
          0
          0
          -5.08081e-05
          -0.00010252
          -0.000123821
          -5.2977e-05
          9.44011e-05
          0.000267953
          0.000362899
          0.00032749
          0.000218914
          0.000108538
          5.40797e-05
          3.80711e-05
          0.000110959
          0.000116859
          0
          0
          -7.27916e-05
          -0.000311106
          -0.000472413
          -0.000501997
          -0.000405328
          -0.000258348
          -0.000182348
          -0.000243371
          -0.000384284
          -0.000505898
          -0.000506753
          -0.000418238
          -0.00019418
          2.94978e-05
          0
          0
          -0.00013596
          -0.000580409
          -0.000915054
          -0.00109496
          -0.00113105
          -0.00108749
          -0.00106099
          -0.00109574
          -0.00116259
          -0.00119546
          -0.00110045
          -0.000924186
          -0.000537397
          -0.000187024
          0
          0
          -0.000342037
          -0.000935952
          -0.0014264
          -0.00175667
          -0.00199904
          -0.00217496
          -0.00225122
          -0.00218978
          -0.00205285
          -0.00191698
          -0.00171954
          -0.0015227
          -0.00105705
          -0.000704108
          0
          0
          -0.000824638
          -0.00150236
          -0.00206712
          -0.00248117
          -0.00293814
          -0.00336411
          -0.00356034
          -0.00336384
          -0.00296355
          -0.00263075
          -0.00233419
          -0.0020932
          -0.00144956
          -0.00110915
          0
          0
          -0.00155884
          -0.00227821
          -0.00294144
          -0.00341191
          -0.00398913
          -0.00456797
          -0.00484485
          -0.00457936
          -0.00403565
          -0.00362788
          -0.00339108
          -0.00319097
          -0.00247548
          -0.0023392
          0
          0
          -0.00224346
          -0.00290205
          -0.00388716
          -0.00443207
          -0.00503803
          -0.00561904
          -0.00589385
          -0.00556323
          -0.00490582
          -0.0042959
          -0.003777
          -0.00369968
          -0.00195364
          -0.00181453
          0
          0
          -0.00509036
          -0.00567254
          -0.00594877
          -0.00594756
          -0.00627989
          -0.00676182
          -0.00694274
          -0.00667659
          -0.00614548
          -0.0059552
          -0.0058832
          -0.00615108
          -0.00732495
          -0.00806743
          0
          0
          -0.00505816
          -0.00526896
          -0.00617349
          -0.00656784
          -0.00700452
          -0.00738651
          -0.00754061
          -0.00722561
          -0.00659044
          -0.005729
          -0.00580449
          -0.00477329
          -0.00121093
          -0.00284142
          0
          0
          -0.0152597
          -0.0112655
          -0.00957171
          -0.00805857
          -0.00799352
          -0.00804763
          -0.00809297
          -0.00784057
          -0.00738028
          -0.0077319
          -0.00740858
          -0.0107539
          -0.0128943
          -0.0179413
          0
          0.0256
          0.0256
          0.0256
          0.0256
          0.0256
          0.0256
          0.0256
          0.0256
          0.0256
          0.0256
          0.0256
          0.0256
          0.0256
          0.0256
          0.0256
          0.0256
        </DataArray>
        <DataArray type="Float32" Name="uy" format="ascii">
          0
          0
          0
          0
          0
          0
          0
          0
          0
          0
          0
          0
          0
          0
          0
          0
          0
          0.00144118
          0.000888361
          0.000650206
          0.000497587
          0.000266232
          0.000149416
          -2.16233e-05
          -0.000152073
          -0.000412205
          -0.000565396
          -0.00110009
          -0.00126983
          -0.00204975
          -0.0034152
          0
          0
          0.00102866
          0.000978592
          0.000615571
          0.000499759
          0.000250952
          8.97092e-05
          -0.000112764
          -0.000278945
          -0.000586655
          -0.000745416
          -0.00130489
          -0.00138271
          -0.00240772
          -0.00246542
          0
          0
          0.00100752
          0.000808219
          0.000663765
          0.00045403
          0.000237002
          3.74178e-05
          -0.000180145
          -0.000393957
          -0.000673344
          -0.000936803
          -0.00130509
          -0.00177134
          -0.00188583
          -0.00240667
          0
          0
          0.00112316
          0.000941744
          0.000779075
          0.000528051
          0.00027416
          1.43978e-05
          -0.000250863
          -0.000525357
          -0.000859396
          -0.00120803
          -0.00166629
          -0.00202952
          -0.00227683
          -0.00269966
          0
          0
          0.00161237
          0.00141526
          0.00120569
          0.000857816
          0.000480222
          8.26536e-05
          -0.000322428
          -0.000746714
          -0.00122542
          -0.00174093
          -0.00228244
          -0.00276547
          -0.00310075
          -0.00337895
          0
          0
          0.00249917
          0.0022691
          0.00200565
          0.00152164
          0.000956564
          0.000311138
          -0.000372709
          -0.00107676
          -0.00178075
          -0.00247299
          -0.00309303
          -0.0036962
          -0.00399179
          -0.00440728
          0
          0
          0.00355467
          0.00320991
          0.00289848
          0.00230605
          0.00158707
          0.000680472
          -0.000342689
          -0.00137653
          -0.00228982
          -0.00308371
          -0.00369612
          -0.00434781
          -0.00465955
          -0.00522236
          0
          0
          0.00447155
          0.00393853
          0.00353519
          0.0028661
          0.00208325
          0.00102898
          -0.000216126
          -0.00146708
          -0.00249285
          -0.00334092
          -0.00391761
          -0.00468296
          -0.00501354
          -0.0057888
          0
          0
          0.00538286
          0.0045218
          0.00401454
          0.00317369
          0.00233203
          0.0012179
          -4.92167e-05
          -0.00132974
          -0.0023868
          -0.00334309
          -0.00395083
          -0.0049384
          -0.00521335
          -0.00626017
          0
          0
          0.00639015
          0.00512093
          0.00444887
          0.00337927
          0.00238849
          0.00123645
          7.90202e-05
          -0.00109751
          -0.00213387
          -0.00324441
          -0.00383941
          -0.00539385
          -0.00506127
          -0.00728726
          0
          0
          0.00738873
          0.00554839
          0.00491438
          0.00338538
          0.00229852
          0.00115271
          0.000157656
          -0.000864604
          -0.0018125
          -0.00307901
          -0.00349203
          -0.00564293
          -0.00549943
          -0.00735305
          0
          0
          0.00884723
          0.00579279
          0.00500084
          0.00307703
          0.00210291
          0.00102225
          0.00014288
          -0.000769892
          -0.00157351
          -0.00285918
          -0.00334302
          -0.00581614
          -0.0046433
          -0.0103694
          0
          0
          0.0109162
          0.00437286
          0.00481395
          0.00213458
          0.00170957
          0.000773305
          0.000163191
          -0.000573045
          -0.00103107
          -0.00220254
          -0.0015293
          -0.00707467
          -0.000649361
          -0.0127412
          0
          0
          0.0129955
          0.00370071
          0.00411013
          0.00156604
          0.00120043
          0.000515606
          6.04625e-05
          -0.000571162
          -0.00086801
          -0.00209481
          -0.00131632
          -0.00766554
          -0.00169715
          -0.0161879
          0
          0
          0
          0
          0
          0
          0
          0
          0
          0
          0
          0
          0
          0
          0
          0
          0
        </DataArray>
        <DataArray type="Float32" Name="velocity" NumberOfComponents="3" format="ascii">
          0 0 0
          0 0 0
          0 0 0
          0 0 0
          0 0 0
          0 0 0
          0 0 0
          0 0 0
          0 0 0
          0 0 0
          0 0 0
          0 0 0
          0 0 0
          0 0 0
          0 0 0
          0 0 0
          0 0 0
          0.000430221 0.00144118 0
          0.000740189 0.000888361 0
          0.000664214 0.000650206 0
          0.000914059 0.000497587 0
          0.00101028 0.000266232 0
          0.0011848 0.000149416 0
          0.00131132 -2.16233e-05 0
          0.00137558 -0.000152073 0
          0.00148706 -0.000412205 0
          0.00149137 -0.000565396 0
          0.00177581 -0.00110009 0
          0.00144731 -0.00126983 0
          0.00182559 -0.00204975 0
          0.00139099 -0.0034152 0
          0 0 0
          0 0 0
          0.000237106 0.00102866 0
          0.000475195 0.000978592 0
          0.000569871 0.000615571 0
          0.000670071 0.000499759 0
          0.000836647 0.000250952 0
          0.00100027 8.97092e-05 0
          0.00112069 -0.000112764 0
          0.00116913 -0.000278945 0
          0.00120143 -0.000586655 0
          0.00126558 -0.000745416 0
          0.0012557 -0.00130489 0
          0.00138374 -0.00138271 0
          0.00140532 -0.00240772 0
          0.00062952 -0.00246542 0
          0 0 0
          0 0 0
          5.28513e-05 0.00100752 0
          0.000216431 0.000808219 0
          0.000327112 0.000663765 0
          0.000478637 0.00045403 0
          0.000642063 0.000237002 0
          0.000820341 3.74178e-05 0
          0.000932621 -0.000180145 0
          0.000954237 -0.000393957 0
          0.000939805 -0.000673344 0
          0.000902399 -0.000936803 0
          0.000930491 -0.00130509 0
          0.000801999 -0.00177134 0
          0.000526225 -0.00188583 0
          0.000145505 -0.00240667 0
          0 0 0
          0 0 0
          1.10347e-05 0.00112316 0
          8.20551e-05 0.000941744 0
          0.000135665 0.000779075 0
          0.000249341 0.000528051 0
          0.000409561 0.00027416 0
          0.000586494 1.43978e-05 0
          0.00069273 -0.000250863 0
          0.000689477 -0.000525357 0
          0.000639401 -0.000859396 0
          0.000587064 -0.00120803 0
          0.000572598 -0.00166629 0
          0.000440844 -0.00202952 0
          0.000445155 -0.00227683 0
          0.000281993 -0.00269966 0
          0 0 0
          0 0 0
          -5.08081e-05 0.00161237 0
          -0.00010252 0.00141526 0
          -0.000123821 0.00120569 0
          -5.2977e-05 0.000857816 0
          9.44011e-05 0.000480222 0
          0.000267953 8.26536e-05 0
          0.000362899 -0.000322428 0
          0.00032749 -0.000746714 0
          0.000218914 -0.00122542 0
          0.000108538 -0.00174093 0
          5.40797e-05 -0.00228244 0
          3.80711e-05 -0.00276547 0
          0.000110959 -0.00310075 0
          0.000116859 -0.00337895 0
          0 0 0
          0 0 0
          -7.27916e-05 0.00249917 0
          -0.000311106 0.0022691 0
          -0.000472413 0.00200565 0
          -0.000501997 0.00152164 0
          -0.000405328 0.000956564 0
          -0.000258348 0.000311138 0
          -0.000182348 -0.000372709 0
          -0.000243371 -0.00107676 0
          -0.000384284 -0.00178075 0
          -0.000505898 -0.00247299 0
          -0.000506753 -0.00309303 0
          -0.000418238 -0.0036962 0
          -0.00019418 -0.00399179 0
          2.94978e-05 -0.00440728 0
          0 0 0
          0 0 0
          -0.00013596 0.00355467 0
          -0.000580409 0.00320991 0
          -0.000915054 0.00289848 0
          -0.00109496 0.00230605 0
          -0.00113105 0.00158707 0
          -0.00108749 0.000680472 0
          -0.00106099 -0.000342689 0
          -0.00109574 -0.00137653 0
          -0.00116259 -0.00228982 0
          -0.00119546 -0.00308371 0
          -0.00110045 -0.00369612 0
          -0.000924186 -0.00434781 0
          -0.000537397 -0.00465955 0
          -0.000187024 -0.00522236 0
          0 0 0
          0 0 0
          -0.000342037 0.00447155 0
          -0.000935952 0.00393853 0
          -0.0014264 0.00353519 0
          -0.00175667 0.0028661 0
          -0.00199904 0.00208325 0
          -0.00217496 0.00102898 0
          -0.00225122 -0.000216126 0
          -0.00218978 -0.00146708 0
          -0.00205285 -0.00249285 0
          -0.00191698 -0.00334092 0
          -0.00171954 -0.00391761 0
          -0.0015227 -0.00468296 0
          -0.00105705 -0.00501354 0
          -0.000704108 -0.0057888 0
          0 0 0
          0 0 0
          -0.000824638 0.00538286 0
          -0.00150236 0.0045218 0
          -0.00206712 0.00401454 0
          -0.00248117 0.00317369 0
          -0.00293814 0.00233203 0
          -0.00336411 0.0012179 0
          -0.00356034 -4.92167e-05 0
          -0.00336384 -0.00132974 0
          -0.00296355 -0.0023868 0
          -0.00263075 -0.00334309 0
          -0.00233419 -0.00395083 0
          -0.0020932 -0.0049384 0
          -0.00144956 -0.00521335 0
          -0.00110915 -0.00626017 0
          0 0 0
          0 0 0
          -0.00155884 0.00639015 0
          -0.00227821 0.00512093 0
          -0.00294144 0.00444887 0
          -0.00341191 0.00337927 0
          -0.00398913 0.00238849 0
          -0.00456797 0.00123645 0
          -0.00484485 7.90202e-05 0
          -0.00457936 -0.00109751 0
          -0.00403565 -0.00213387 0
          -0.00362788 -0.00324441 0
          -0.00339108 -0.00383941 0
          -0.00319097 -0.00539385 0
          -0.00247548 -0.00506127 0
          -0.0023392 -0.00728726 0
          0 0 0
          0 0 0
          -0.00224346 0.00738873 0
          -0.00290205 0.00554839 0
          -0.00388716 0.00491438 0
          -0.00443207 0.00338538 0
          -0.00503803 0.00229852 0
          -0.00561904 0.00115271 0
          -0.00589385 0.000157656 0
          -0.00556323 -0.000864604 0
          -0.00490582 -0.0018125 0
          -0.0042959 -0.00307901 0
          -0.003777 -0.00349203 0
          -0.00369968 -0.00564293 0
          -0.00195364 -0.00549943 0
          -0.00181453 -0.00735305 0
          0 0 0
          0 0 0
          -0.00509036 0.00884723 0
          -0.00567254 0.00579279 0
          -0.00594877 0.00500084 0
          -0.00594756 0.00307703 0
          -0.00627989 0.00210291 0
          -0.00676182 0.00102225 0
          -0.00694274 0.00014288 0
          -0.00667659 -0.000769892 0
          -0.00614548 -0.00157351 0
          -0.0059552 -0.00285918 0
          -0.0058832 -0.00334302 0
          -0.00615108 -0.00581614 0
          -0.00732495 -0.0046433 0
          -0.00806743 -0.0103694 0
          0 0 0
          0 0 0
          -0.00505816 0.0109162 0
          -0.00526896 0.00437286 0
          -0.00617349 0.00481395 0
          -0.00656784 0.00213458 0
          -0.00700452 0.00170957 0
          -0.00738651 0.000773305 0
          -0.00754061 0.000163191 0
          -0.00722561 -0.000573045 0
          -0.00659044 -0.00103107 0
          -0.005729 -0.00220254 0
          -0.00580449 -0.0015293 0
          -0.00477329 -0.00707467 0
          -0.00121093 -0.000649361 0
          -0.00284142 -0.0127412 0
          0 0 0
          0 0 0
          -0.0152597 0.0129955 0
          -0.0112655 0.00370071 0
          -0.00957171 0.00411013 0
          -0.00805857 0.00156604 0
          -0.00799352 0.00120043 0
          -0.00804763 0.000515606 0
          -0.00809297 6.04625e-05 0
          -0.00784057 -0.000571162 0
          -0.00738028 -0.00086801 0
          -0.0077319 -0.00209481 0
          -0.00740858 -0.00131632 0
          -0.0107539 -0.00766554 0
          -0.0128943 -0.00169715 0
          -0.0179413 -0.0161879 0
          0 0 0
          0.0256 0 0
          0.0256 0 0
          0.0256 0 0
          0.0256 0 0
          0.0256 0 0
          0.0256 0 0
          0.0256 0 0
          0.0256 0 0
          0.0256 0 0
          0.0256 0 0
          0.0256 0 0
          0.0256 0 0
          0.0256 0 0
          0.0256 0 0
          0.0256 0 0
          0.0256 0 0
        </DataArray>
      </PointData>
      <CellData>
      </CellData>
    </Piece>
  </ImageData>
</VTKFile>
