<?xml version="1.0"?>
<VTKFile type="ImageData" version="0.1" byte_order="LittleEndian">
  <ImageData WholeExtent="0 15 0 15 0 0" Origin="0 0 0" Spacing="1 1 1">
    <Piece Extent="0 15 0 15 0 0">
      <PointData>
        <DataArray type="Float32" Name="rho" format="ascii">
          0.993192
          0.993354
          0.99208
          0.995153
          0.992555
          0.994396
          0.99268
          0.993264
          0.992229
          0.992793
          0.991511
          0.99398
          0.988743
          1.00028
          0.990092
          0.994173
          0.992603
          0.993025
          0.993377
          0.993542
          0.993626
          0.994026
          0.994228
          0.994528
          0.994856
          0.99516
          0.995416
          0.995714
          0.99595
          0.995956
          0.996652
          0.99566
          0.992978
          0.993413
          0.993379
          0.993594
          0.993828
          0.993968
          0.994319
          0.994598
          0.99483
          0.995183
          0.995405
          0.995664
          0.995906
          0.996023
          0.995954
          0.996344
          0.992565
          0.993432
          0.993566
          0.99365
          0.993922
          0.994129
          0.994301
          0.994659
          0.994907
          0.99512
          0.995452
          0.995637
          0.995788
          0.995983
          0.996148
          0.996419
          0.992872
          0.993571
          0.993729
          0.993844
          0.993922
          0.994265
          0.994467
          0.994573
          0.995
          0.995171
          0.99537
          0.995619
          0.995795
          0.995913
          0.995937
          0.996408
          0.992721
          0.993792
          0.993795
          0.99403
          0.994145
          0.994212
          0.994578
          0.994808
          0.994827
          0.995279
          0.995363
          0.995564
          0.995744
          0.995826
          0.995932
          0.996404
          0.992672
          0.993936
          0.99406
          0.994027
          0.994359
          0.994437
          0.994491
          0.994918
          0.99503
          0.995048
          0.995538
          0.995459
          0.995699
          0.99578
          0.995863
          0.996474
          0.992705
          0.994211
          0.994168
          0.994363
          0.994258
          0.994696
          0.994768
          0.994582
          0.995308
          0.995227
          0.995128
          0.995765
          0.995482
          0.995788
          0.995602
          0.996486
          0.992487
          0.994175
          0.994452
          0.994418
          0.994655
          0.994517
          0.994824
          0.995207
          0.994661
          0.995528
          0.995388
          0.995135
          0.995888
          0.99529
          0.995979
          0.996504
          0.993008
          0.994791
          0.99445
          0.994667
          0.994741
          0.99473
          0.994925
          0.995005
          0.995377
          0.994712
          0.995774
          0.995404
          0.995166
          0.996119
          0.994892
          0.996402
          0.991243
          0.994345
          0.994893
          0.994786
          0.994608
          0.995285
          0.994867
          0.994922
          0.995327
          0.99552
          0.994598
          0.996125
          0.99508
          0.99479
          0.996364
          0.996596
          0.994459
          0.995561
          0.994786
          0.994717
          0.995428
          0.99464
          0.9952
          0.995344
          0.99481
          0.995445
          0.995847
          0.993783
          0.99648
          0.995172
          0.993663
          0.996344
          0.986716
          0.993854
          0.995202
          0.995676
          0.99463
          0.995328
          0.995261
          0.995028
          0.995542
          0.994964
          0.995206
          0.995936
          0.994213
          0.995856
          0.996583
          0.996462
          0.992456
          0.996952
          0.994954
          0.995016
          0.995274
          0.995367
          0.995086
          0.995468
          0.995079
          0.995603
          0.994589
          0.995658
          0.995391
          0.993041
          0.990949
          0.998014
          0.9732
          0.993644
          0.995943
          0.99492
          0.995894
          0.994694
          0.995813
          0.994956
          0.995625
          0.994811
          0.995708
          0.994037
          0.995578
          0.991772
          1.00219
          1.00041
          0.94133
          0.986072
          0.992371
          0.995684
          0.995373
          0.995664
          0.995353
          0.995484
          0.995009
          0.995186
          0.994386
          0.995371
          0.992745
          0.998229
          0.991888
          1.01544
        </DataArray>
        <DataArray type="Float32" Name="ux" format="ascii">
          0
          0
          0
          0
          0
          0
          0
          0
          0
          0
          0
          0
          0
          0
          0
          0
          0
          -0.000758678
          -0.000611561
          -0.000348243
          8.14024e-05
          7.74533e-05
          0.000193586
          0.00034385
          0.000266549
          0.00012486
          -5.71771e-05
          -5.12356e-05
          -0.00080573
          -0.000561674
          -0.000517738
          0
          0
          5.2768e-05
          0.000513692
          4.9026e-05
          0.000268228
          0.000699873
          0.000512117
          0.000530872
          0.000601902
          0.00041806
          0.00058662
          -4.0891e-05
          -5.21889e-05
          0.000715763
          -0.0002154
          0
          0
          -0.000991005
          -0.000465057
          -0.000124642
          -0.000395281
          -0.000261049
          0.000330958
          -0.00012995
          -0.000182991
          0.000176185
          -0.000545244
          -0.00048415
          -0.000376806
          -0.000980379
          -0.00148852
          0
          0
          -0.000473112
          -0.000250566
          -0.000199512
          0.000445661
          -9.86602e-05
          -1.06181e-05
          0.000619347
          0.00036233
          -0.00010042
          0.000260402
          0.000344983
          -0.000390295
          0.000181556
          -0.00050352
          0
          0
          -0.000665906
          -4.31814e-05
          -0.000652611
          -0.000132047
          0.000339319
          -0.000412381
          -2.58293e-05
          0.000362408
          -0.000211532
          6.63609e-05
          -0.000319258
          -0.000516742
          7.36565e-05
          -0.00117587
          0
          0
          -0.00111839
          -0.000416053
          -0.000338239
          -0.000719641
          -0.00036993
          0.000833596
          -0.000800805
          -0.000417431
          0.00100381
          -0.000581612
          -0.000402513
          -0.000187395
          -0.000265905
          -0.00129755
          0
          0
          -0.000807928
          -0.00031298
          -0.00045026
          0.000223062
          -0.000401866
          -0.000248295
          0.000961205
          -0.000157183
          -0.000388688
          0.000995544
          -5.40444e-05
          -0.000374839
          0.000494049
          -0.00129466
          0
          0
          -0.00180078
          -0.000957944
          -0.0014323
          -0.000519364
          -0.000535339
          -0.00155744
          -8.94164e-05
          0.000831933
          -0.00141373
          -0.000417487
          0.000672683
          -0.000987895
          -0.000254571
          -0.0019583
          0
          0
          -0.000190013
          0.000257817
          6.33249e-05
          -0.000238503
          -0.000131915
          0.00198046
          -0.000774819
          0.000472123
          0.00342157
          -0.000585269
          0.000901613
          0.00230758
          0.00157417
          -7.89884e-06
          0
          0
          -0.0040139
          -0.00243669
          -0.00305751
          -0.00264086
          -0.00128941
          -0.00230825
          -0.000842871
          -0.00251098
          -0.00210259
          0.00143465
          -0.00411298
          -0.00157798
          0.00016769
          -0.0062305
          0
          0
          0.00197949
          0.00126815
          0.000220437
          0.00332352
          0.000821949
          0.00144116
          0.00281337
          0.00411062
          0.00194044
          0.00368878
          0.0100657
          0.00277757
          0.00752258
          0.00801402
          0
          0
          -0.00864451
          -0.0067244
          -0.003971
          -0.00690206
          -0.0059944
          -0.00453483
          -0.00585175
          -0.0048868
          -0.00302774
          -0.00755326
          -0.00690256
          -0.00107919
          -0.0145853
          -0.0183653
          0
          0
          0.00594723
          0.010404
          0.00396131
          0.00667543
          0.00740068
          0.00626696
          0.00745174
          0.00739874
          0.00755233
          0.0110742
          0.00671167
          0.00919573
          0.0192364
          0.00833699
          0
          0
          -0.0159716
          -0.0204003
          -0.0182768
          -0.01818
          -0.0202574
          -0.0196485
          -0.021538
          -0.022624
          -0.023779
          -0.0255204
          -0.0224908
          -0.0291582
          -0.0257356
          -0.0136205
          0
          0.0256
          0.0256
          0.0256
          0.0256
          0.0256
          0.0256
          0.0256
          0.0256
          0.0256
          0.0256
          0.0256
          0.0256
          0.0256
          0.0256
          0.0256
          0.0256
        </DataArray>
        <DataArray type="Float32" Name="uy" format="ascii">
          0
          0
          0
          0
          0
          0
          0
          0
          0
          0
          0
          0
          0
          0
          0
          0
          0
          6.49133e-05
          -0.000501405
          0.000324516
          -0.000501109
          0.000329693
          -0.000765758
          -0.000218529
          -0.000868369
          -0.000513167
          -0.00122274
          -0.000469679
          -0.00157922
          0.00068485
          -0.00122444
          0
          0
          0.000145588
          -0.000302417
          0.000461324
          -0.000865898
          0.000515298
          -0.000701636
          -0.000405324
          -0.00065516
          -0.000487292
          -0.00140919
          0.000154826
          -0.00208658
          0.000245499
          -0.00125755
          0
          0
          0.000244527
          -0.00067192
          0.000931941
          -0.000909985
          7.06908e-05
          -0.000382883
          -0.000166973
          -0.000807999
          -0.000391131
          -0.00089691
          0.000337359
          -0.00261251
          0.00128489
          -0.00171545
          0
          0
          0.000660295
          -0.000948845
          0.000674451
          -0.000487491
          9.23787e-05
          -0.000920245
          0.000314548
          -0.000938223
          -0.000240706
          -0.000805988
          5.57286e-05
          -0.00224876
          0.0014509
          -0.00215631
          0
          0
          0.000599811
          -0.000750889
          0.000718555
          -0.00116533
          0.000946623
          -0.000884557
          -0.000737928
          0.000172165
          -0.000261762
          -0.00150408
          0.00120486
          -0.00293807
          0.00179077
          -0.00200527
          0
          0
          0.000811696
          -0.00112338
          0.00137722
          -0.00139294
          0.000308264
          -0.000296233
          -0.000140008
          -0.00119117
          0.000382752
          -0.000987387
          0.000896298
          -0.00327752
          0.0024697
          -0.00230054
          0
          0
          0.000894442
          -0.00132094
          0.00114725
          -0.000745385
          -0.000293236
          -0.000807373
          0.00101601
          -0.00158227
          -0.000514227
          0.000219998
          0.000718675
          -0.00364917
          0.0032888
          -0.00230072
          0
          0
          0.00138351
          -0.00168217
          0.00158478
          -0.00193897
          0.00148736
          -0.00141309
          -0.00109679
          0.00100228
          -0.000715924
          -0.00224097
          0.00341626
          -0.00529402
          0.00455633
          -0.00262781
          0
          0
          0.0009958
          -0.00130851
          0.0010769
          -0.00135542
          0.000630908
          -0.00119108
          -0.000343577
          -0.00181083
          0.00180302
          -0.0019991
          0.000682939
          -0.00268325
          0.00367638
          -0.00118275
          0
          0
          0.00212
          -0.00258025
          0.00259588
          -0.00173859
          -0.000713909
          -0.000573781
          0.000467113
          -0.00233332
          -0.00125989
          0.00165315
          0.000814407
          -0.00815884
          0.0100045
          -0.00349488
          0
          0
          0.00123884
          -0.00149996
          0.00199734
          -0.00390918
          0.00187109
          -0.00224996
          -0.000604759
          -0.000354296
          -0.00135589
          -0.00330653
          0.00645306
          -0.00959748
          0.00728521
          0.0028627
          0
          0
          0.00360516
          -0.00198569
          0.000186288
          -0.000863317
          0.000284863
          -0.00221778
          -0.00122397
          -0.00230012
          0.00026417
          -0.00391323
          -0.00131034
          -0.00222918
          0.00823663
          -0.0017846
          0
          0
          0.000636745
          -0.00481683
          0.00428083
          -0.00353993
          0.000558165
          -0.00226376
          -0.000894412
          -0.00261972
          -0.000166326
          -0.000427868
          0.000979141
          -0.00975139
          0.0257046
          -0.00455785
          0
          0
          -0.000148968
          -0.00111719
          0.00436178
          -0.00451876
          0.00205996
          -0.00282839
          -0.000637792
          -0.00284067
          -0.00112751
          -0.00408164
          0.00314705
          -0.014128
          0.013606
          -0.00155676
          0
          0
          0
          0
          0
          0
          0
          0
          0
          0
          0
          0
          0
          0
          0
          0
          0
        </DataArray>
        <DataArray type="Float32" Name="velocity" NumberOfComponents="3" format="ascii">
          0 0 0
          0 0 0
          0 0 0
          0 0 0
          0 0 0
          0 0 0
          0 0 0
          0 0 0
          0 0 0
          0 0 0
          0 0 0
          0 0 0
          0 0 0
          0 0 0
          0 0 0
          0 0 0
          0 0 0
          -0.000758678 6.49133e-05 0
          -0.000611561 -0.000501405 0
          -0.000348243 0.000324516 0
          8.14024e-05 -0.000501109 0
          7.74533e-05 0.000329693 0
          0.000193586 -0.000765758 0
          0.00034385 -0.000218529 0
          0.000266549 -0.000868369 0
          0.00012486 -0.000513167 0
          -5.71771e-05 -0.00122274 0
          -5.12356e-05 -0.000469679 0
          -0.00080573 -0.00157922 0
          -0.000561674 0.00068485 0
          -0.000517738 -0.00122444 0
          0 0 0
          0 0 0
          5.2768e-05 0.000145588 0
          0.000513692 -0.000302417 0
          4.9026e-05 0.000461324 0
          0.000268228 -0.000865898 0
          0.000699873 0.000515298 0
          0.000512117 -0.000701636 0
          0.000530872 -0.000405324 0
          0.000601902 -0.00065516 0
          0.00041806 -0.000487292 0
          0.00058662 -0.00140919 0
          -4.0891e-05 0.000154826 0
          -5.21889e-05 -0.00208658 0
          0.000715763 0.000245499 0
          -0.0002154 -0.00125755 0
          0 0 0
          0 0 0
          -0.000991005 0.000244527 0
          -0.000465057 -0.00067192 0
          -0.000124642 0.000931941 0
          -0.000395281 -0.000909985 0
          -0.000261049 7.06908e-05 0
          0.000330958 -0.000382883 0
          -0.00012995 -0.000166973 0
          -0.000182991 -0.000807999 0
          0.000176185 -0.000391131 0
          -0.000545244 -0.00089691 0
          -0.00048415 0.000337359 0
          -0.000376806 -0.00261251 0
          -0.000980379 0.00128489 0
          -0.00148852 -0.00171545 0
          0 0 0
          0 0 0
          -0.000473112 0.000660295 0
          -0.000250566 -0.000948845 0
          -0.000199512 0.000674451 0
          0.000445661 -0.000487491 0
          -9.86602e-05 9.23787e-05 0
          -1.06181e-05 -0.000920245 0
          0.000619347 0.000314548 0
          0.00036233 -0.000938223 0
          -0.00010042 -0.000240706 0
          0.000260402 -0.000805988 0
          0.000344983 5.57286e-05 0
          -0.000390295 -0.00224876 0
          0.000181556 0.0014509 0
          -0.00050352 -0.00215631 0
          0 0 0
          0 0 0
          -0.000665906 0.000599811 0
          -4.31814e-05 -0.000750889 0
          -0.000652611 0.000718555 0
          -0.000132047 -0.00116533 0
          0.000339319 0.000946623 0
          -0.000412381 -0.000884557 0
          -2.58293e-05 -0.000737928 0
          0.000362408 0.000172165 0
          -0.000211532 -0.000261762 0
          6.63609e-05 -0.00150408 0
          -0.000319258 0.00120486 0
          -0.000516742 -0.00293807 0
          7.36565e-05 0.00179077 0
          -0.00117587 -0.00200527 0
          0 0 0
          0 0 0
          -0.00111839 0.000811696 0
          -0.000416053 -0.00112338 0
          -0.000338239 0.00137722 0
          -0.000719641 -0.00139294 0
          -0.00036993 0.000308264 0
          0.000833596 -0.000296233 0
          -0.000800805 -0.000140008 0
          -0.000417431 -0.00119117 0
          0.00100381 0.000382752 0
          -0.000581612 -0.000987387 0
          -0.000402513 0.000896298 0
          -0.000187395 -0.00327752 0
          -0.000265905 0.0024697 0
          -0.00129755 -0.00230054 0
          0 0 0
          0 0 0
          -0.000807928 0.000894442 0
          -0.00031298 -0.00132094 0
          -0.00045026 0.00114725 0
          0.000223062 -0.000745385 0
          -0.000401866 -0.000293236 0
          -0.000248295 -0.000807373 0
          0.000961205 0.00101601 0
          -0.000157183 -0.00158227 0
          -0.000388688 -0.000514227 0
          0.000995544 0.000219998 0
          -5.40444e-05 0.000718675 0
          -0.000374839 -0.00364917 0
          0.000494049 0.0032888 0
          -0.00129466 -0.00230072 0
          0 0 0
          0 0 0
          -0.00180078 0.00138351 0
          -0.000957944 -0.00168217 0
          -0.0014323 0.00158478 0
          -0.000519364 -0.00193897 0
          -0.000535339 0.00148736 0
          -0.00155744 -0.00141309 0
          -8.94164e-05 -0.00109679 0
          0.000831933 0.00100228 0
          -0.00141373 -0.000715924 0
          -0.000417487 -0.00224097 0
          0.000672683 0.00341626 0
          -0.000987895 -0.00529402 0
          -0.000254571 0.00455633 0
          -0.0019583 -0.00262781 0
          0 0 0
          0 0 0
          -0.000190013 0.0009958 0
          0.000257817 -0.00130851 0
          6.33249e-05 0.0010769 0
          -0.000238503 -0.00135542 0
          -0.000131915 0.000630908 0
          0.00198046 -0.00119108 0
          -0.000774819 -0.000343577 0
          0.000472123 -0.00181083 0
          0.00342157 0.00180302 0
          -0.000585269 -0.0019991 0
          0.000901613 0.000682939 0
          0.00230758 -0.00268325 0
          0.00157417 0.00367638 0
          -7.89884e-06 -0.00118275 0
          0 0 0
          0 0 0
          -0.0040139 0.00212 0
          -0.00243669 -0.00258025 0
          -0.00305751 0.00259588 0
          -0.00264086 -0.00173859 0
          -0.00128941 -0.000713909 0
          -0.00230825 -0.000573781 0
          -0.000842871 0.000467113 0
          -0.00251098 -0.00233332 0
          -0.00210259 -0.00125989 0
          0.00143465 0.00165315 0
          -0.00411298 0.000814407 0
          -0.00157798 -0.00815884 0
          0.00016769 0.0100045 0
          -0.0062305 -0.00349488 0
          0 0 0
          0 0 0
          0.00197949 0.00123884 0
          0.00126815 -0.00149996 0
          0.000220437 0.00199734 0
          0.00332352 -0.00390918 0
          0.000821949 0.00187109 0
          0.00144116 -0.00224996 0
          0.00281337 -0.000604759 0
          0.00411062 -0.000354296 0
          0.00194044 -0.00135589 0
          0.00368878 -0.00330653 0
          0.0100657 0.00645306 0
          0.00277757 -0.00959748 0
          0.00752258 0.00728521 0
          0.00801402 0.0028627 0
          0 0 0
          0 0 0
          -0.00864451 0.00360516 0
          -0.0067244 -0.00198569 0
          -0.003971 0.000186288 0
          -0.00690206 -0.000863317 0
          -0.0059944 0.000284863 0
          -0.00453483 -0.00221778 0
          -0.00585175 -0.00122397 0
          -0.0048868 -0.00230012 0
          -0.00302774 0.00026417 0
          -0.00755326 -0.00391323 0
          -0.00690256 -0.00131034 0
          -0.00107919 -0.00222918 0
          -0.0145853 0.00823663 0
          -0.0183653 -0.0017846 0
          0 0 0
          0 0 0
          0.00594723 0.000636745 0
          0.010404 -0.00481683 0
          0.00396131 0.00428083 0
          0.00667543 -0.00353993 0
          0.00740068 0.000558165 0
          0.00626696 -0.00226376 0
          0.00745174 -0.000894412 0
          0.00739874 -0.00261972 0
          0.00755233 -0.000166326 0
          0.0110742 -0.000427868 0
          0.00671167 0.000979141 0
          0.00919573 -0.00975139 0
          0.0192364 0.0257046 0
          0.00833699 -0.00455785 0
          0 0 0
          0 0 0
          -0.0159716 -0.000148968 0
          -0.0204003 -0.00111719 0
          -0.0182768 0.00436178 0
          -0.01818 -0.00451876 0
          -0.0202574 0.00205996 0
          -0.0196485 -0.00282839 0
          -0.021538 -0.000637792 0
          -0.022624 -0.00284067 0
          -0.023779 -0.00112751 0
          -0.0255204 -0.00408164 0
          -0.0224908 0.00314705 0
          -0.0291582 -0.014128 0
          -0.0257356 0.013606 0
          -0.0136205 -0.00155676 0
          0 0 0
          0.0256 0 0
          0.0256 0 0
          0.0256 0 0
          0.0256 0 0
          0.0256 0 0
          0.0256 0 0
          0.0256 0 0
          0.0256 0 0
          0.0256 0 0
          0.0256 0 0
          0.0256 0 0
          0.0256 0 0
          0.0256 0 0
          0.0256 0 0
          0.0256 0 0
          0.0256 0 0
        </DataArray>
      </PointData>
      <CellData>
      </CellData>
    </Piece>
  </ImageData>
</VTKFile>
