<?xml version="1.0"?>
<VTKFile type="ImageData" version="0.1" byte_order="LittleEndian">
  <ImageData WholeExtent="0 15 0 15 0 0" Origin="0 0 0" Spacing="1 1 1">
    <Piece Extent="0 15 0 15 0 0">
      <PointData>
        <DataArray type="Float32" Name="rho" format="ascii">
          0.976885
          0.966418
          0.961657
          0.957626
          0.956894
          0.951002
          0.947817
          0.932573
          0.932179
          0.905945
          0.917698
          0.910941
          0.913896
          0.979989
          1.03055
          0.999272
          0.982701
          0.984859
          0.98436
          0.983559
          0.982035
          0.981293
          0.978798
          0.977726
          0.974524
          0.973362
          0.970879
          0.970059
          0.969953
          0.972466
          0.974362
          0.980043
          0.984529
          0.985227
          0.984808
          0.984066
          0.983203
          0.981519
          0.980419
          0.978511
          0.976829
          0.975541
          0.973894
          0.973309
          0.97353
          0.974193
          0.974136
          0.97593
          0.985974
          0.98614
          0.985808
          0.984864
          0.984014
          0.982834
          0.981259
          0.980003
          0.97857
          0.977039
          0.976099
          0.975307
          0.974998
          0.974832
          0.974966
          0.975526
          0.987331
          0.98736
          0.986814
          0.986275
          0.984879
          0.983992
          0.982595
          0.981122
          0.979985
          0.978298
          0.977595
          0.97652
          0.975762
          0.975507
          0.975665
          0.974288
          0.991056
          0.988808
          0.988276
          0.987383
          0.986533
          0.98495
          0.983965
          0.982327
          0.980678
          0.979966
          0.978039
          0.977367
          0.976028
          0.975865
          0.974351
          0.975129
          0.990217
          0.99089
          0.990178
          0.988949
          0.987799
          0.986756
          0.984531
          0.983729
          0.981951
          0.980273
          0.979282
          0.976926
          0.976727
          0.974475
          0.976292
          0.971061
          1.0003
          0.992421
          0.992122
          0.991077
          0.989216
          0.987536
          0.986473
          0.984187
          0.983452
          0.980552
          0.979134
          0.977876
          0.974688
          0.975524
          0.969381
          0.97373
          0.989658
          0.996342
          0.99459
          0.992599
          0.990795
          0.989163
          0.987505
          0.986298
          0.982731
          0.983203
          0.978738
          0.977471
          0.975104
          0.970238
          0.976413
          0.961607
          1.02048
          0.997027
          0.996759
          0.995001
          0.992517
          0.991015
          0.988156
          0.986485
          0.985594
          0.980264
          0.982331
          0.972824
          0.973837
          0.970222
          0.955021
          0.973145
          0.982177
          1.00185
          0.999508
          0.995718
          0.994288
          0.990712
          0.989694
          0.988342
          0.986138
          0.985162
          0.978173
          0.980931
          0.969193
          0.964468
          0.970826
          0.942614
          1.05112
          1.00128
          0.998505
          0.994389
          0.990396
          0.99206
          0.990415
          0.991612
          0.985464
          0.987402
          0.981754
          0.961879
          0.977708
          0.945039
          0.923542
          0.980032
          0.982295
          1.00802
          0.994062
          0.985201
          0.992347
          0.992549
          0.993706
          0.990558
          0.993423
          0.986921
          0.982675
          0.97777
          0.973286
          0.940546
          0.959617
          0.936875
          1.1059
          1.02433
          1.0035
          0.995001
          0.995189
          0.992849
          0.997016
          0.994459
          0.9933
          0.994167
          0.961488
          0.978146
          0.965411
          0.885697
          0.908818
          1.01524
          0.995113
          1.04782
          1.01327
          1.00486
          0.996916
          0.997908
          0.995339
          0.997252
          0.991945
          0.991221
          0.979188
          0.98906
          0.962674
          0.896633
          0.941301
          0.904131
          0.966433
          1.02723
          1.01453
          1.00513
          0.996478
          0.993906
          0.99353
          0.98707
          0.992423
          0.971948
          0.991104
          0.969711
          0.961643
          0.944268
          0.966782
          0.767186
        </DataArray>
        <DataArray type="Float32" Name="ux" format="ascii">
          0
          0
          0
          0
          0
          0
          0
          0
          0
          0
          0
          0
          0
          0
          0
          0
          0
          0.00181351
          0.00518338
          0.0064238
          0.00876663
          0.00996403
          0.0111724
          0.0106337
          0.00963285
          0.00630686
          0.00116199
          -0.00250876
          -0.00982715
          -0.0135761
          -0.00758257
          0
          0
          0.00165933
          0.00431154
          0.0066999
          0.00828902
          0.00985295
          0.0104335
          0.0100559
          0.00915889
          0.00644341
          0.00344915
          -0.000875996
          -0.00517016
          -0.00544938
          -0.00254228
          0
          0
          0.00118088
          0.00413116
          0.00658648
          0.00815457
          0.00898714
          0.0100688
          0.00943866
          0.00876767
          0.00698773
          0.00403933
          0.00198328
          -0.000161078
          -0.000508322
          -0.000751433
          0
          0
          0.00306615
          0.00573098
          0.00731684
          0.0101818
          0.0105467
          0.0114827
          0.0118359
          0.010327
          0.0087088
          0.00686144
          0.00559025
          0.00283188
          0.000735821
          -0.000119661
          0
          0
          0.00258197
          0.00672139
          0.0089823
          0.0105868
          0.0134197
          0.0134658
          0.0127065
          0.0130195
          0.0115121
          0.0114553
          0.00904286
          0.00630275
          0.00649726
          0.00344321
          0
          0
          0.00399566
          0.00838317
          0.011964
          0.0142174
          0.0139473
          0.0156709
          0.0133368
          0.0146379
          0.0146155
          0.0108609
          0.00920254
          0.00672278
          0.00336897
          -0.000449005
          0
          0
          0.00560964
          0.0118009
          0.015596
          0.0182466
          0.0177457
          0.0182587
          0.0219846
          0.0210613
          0.0206588
          0.0207762
          0.0205942
          0.0177861
          0.0173889
          0.0138826
          0
          0
          0.0072258
          0.0158969
          0.0179819
          0.0176607
          0.0207042
          0.0224438
          0.0192305
          0.0196431
          0.0124604
          0.0151878
          0.00906342
          0.00453755
          -0.00478129
          -0.0142143
          0
          0
          0.010591
          0.021033
          0.0280953
          0.0303345
          0.0309889
          0.0330566
          0.0288939
          0.031287
          0.0379178
          0.0344815
          0.0462412
          0.0391529
          0.0496405
          0.0482053
          0
          0
          0.0162498
          0.0385944
          0.0461693
          0.0409882
          0.0291625
          0.0167675
          0.0174827
          0.0158651
          0.0100797
          0.0158797
          -0.00904885
          0.000150701
          -0.0267484
          -0.0495012
          0
          0
          0.0277613
          0.0554497
          0.065931
          0.0526391
          0.0427465
          0.0421779
          0.0405205
          0.0515915
          0.0509493
          0.064724
          0.0802805
          0.0635987
          0.110312
          0.0999959
          0
          0
          0.0141354
          0.0235098
          0.0156013
          0.0184184
          0.0316565
          0.0271113
          0.0237647
          0.00855873
          0.00145115
          -0.0247837
          -0.060327
          -0.0415373
          -0.114175
          -0.0996973
          0
          0
          -0.0105449
          -0.0680578
          -0.072718
          -0.0607004
          -0.0477541
          -0.0357953
          -0.0168124
          -0.00196803
          0.0144989
          0.0714879
          0.0659618
          0.114267
          0.194423
          0.145446
          0
          0
          -0.0779923
          -0.148728
          -0.177464
          -0.202655
          -0.212997
          -0.224376
          -0.231836
          -0.237381
          -0.241206
          -0.240613
          -0.209637
          -0.189055
          -0.197095
          -0.0580311
          0
          0.0256
          0.0256
          0.0256
          0.0256
          0.0256
          0.0256
          0.0256
          0.0256
          0.0256
          0.0256
          0.0256
          0.0256
          0.0256
          0.0256
          0.0256
          0.0256
        </DataArray>
        <DataArray type="Float32" Name="uy" format="ascii">
          0
          0
          0
          0
          0
          0
          0
          0
          0
          0
          0
          0
          0
          0
          0
          0
          0
          -0.00867713
          -0.0089814
          -0.00908547
          -0.0105329
          -0.00931545
          -0.012147
          -0.0119748
          -0.014873
          -0.0155545
          -0.0160692
          -0.0125802
          -0.0121546
          0.00500523
          0.0121914
          0
          0
          -0.0122785
          -0.011013
          -0.0108716
          -0.0121274
          -0.0102697
          -0.0119631
          -0.0107594
          -0.0124629
          -0.0105158
          -0.0114189
          -0.00590322
          -0.00572873
          0.00450631
          0.0066252
          0
          0
          -0.0144203
          -0.0138361
          -0.012767
          -0.0126406
          -0.0118697
          -0.0107805
          -0.0103095
          -0.00992941
          -0.00745719
          -0.00731482
          -0.00136624
          -0.00336932
          0.00463868
          0.00634583
          0
          0
          -0.0176664
          -0.015934
          -0.0150318
          -0.0141638
          -0.0115452
          -0.0123127
          -0.00823993
          -0.00887982
          -0.00423634
          -0.00480157
          0.000888431
          -0.000455013
          0.00626311
          0.00663183
          0
          0
          -0.0214809
          -0.018288
          -0.0166543
          -0.0163398
          -0.0125659
          -0.0114285
          -0.00870339
          -0.00572688
          -0.00346915
          -0.00268457
          0.00422656
          0.00257011
          0.00800053
          0.0101738
          0
          0
          -0.0260757
          -0.0223798
          -0.019096
          -0.017637
          -0.0147481
          -0.0103102
          -0.00728401
          -0.00791746
          6.21057e-05
          -0.00237288
          0.00882864
          0.0025445
          0.0124023
          0.0118515
          0
          0
          -0.0315569
          -0.0264935
          -0.0228593
          -0.0183336
          -0.0133758
          -0.0123175
          -0.00673879
          -0.00721787
          0.0004173
          0.00341764
          0.00732705
          0.0111135
          0.011406
          0.0237044
          0
          0
          -0.0416423
          -0.0323908
          -0.0246407
          -0.0196467
          -0.0158021
          -0.0124237
          -0.0103694
          -0.00306127
          0.000591676
          -0.0011105
          0.0164894
          0.00540883
          0.0260645
          0.0185902
          0
          0
          -0.0504684
          -0.0396159
          -0.0256795
          -0.0207998
          -0.0190054
          -0.0109854
          -0.00367181
          -0.00668574
          0.00799145
          -0.00104269
          0.0183935
          0.023028
          0.0180644
          0.0484219
          0
          0
          -0.0707271
          -0.0522598
          -0.0307842
          -0.0189642
          -0.0146467
          -0.00841028
          -0.00916484
          -0.00580141
          -0.00533206
          0.00381531
          0.0119252
          0.0118337
          0.0371509
          0.0384108
          0
          0
          -0.099052
          -0.0720003
          -0.0279839
          -0.00157006
          -0.00189251
          -0.0016889
          -0.00901896
          -0.00251812
          0.0044615
          -0.00235269
          0.0477824
          0.0112848
          0.0560519
          0.0863679
          0
          0
          -0.130661
          -0.0861434
          -0.0202445
          -0.0043147
          -0.0049016
          -0.0056688
          -0.0115827
          -0.0124209
          -0.00757325
          0.00096961
          0.0103359
          0.0134749
          0.0367214
          0.0739003
          0
          0
          -0.114181
          -0.06486
          -0.0288169
          -0.0147528
          -0.0129887
          0.00103904
          -0.0106603
          0.0141948
          -0.00602425
          0.046422
          0.0444394
          0.0105098
          0.121326
          0.0894494
          0
          0
          -0.034959
          -0.0257766
          -0.0271804
          -0.0189008
          -0.02483
          -0.0190722
          -0.0367074
          -0.0224785
          -0.0551164
          -0.0391867
          -0.0115067
          -0.0722048
          0.0184536
          0.139438
          0
          0
          0
          0
          0
          0
          0
          0
          0
          0
          0
          0
          0
          0
          0
          0
          0
        </DataArray>
        <DataArray type="Float32" Name="velocity" NumberOfComponents="3" format="ascii">
          0 0 0
          0 0 0
          0 0 0
          0 0 0
          0 0 0
          0 0 0
          0 0 0
          0 0 0
          0 0 0
          0 0 0
          0 0 0
          0 0 0
          0 0 0
          0 0 0
          0 0 0
          0 0 0
          0 0 0
          0.00181351 -0.00867713 0
          0.00518338 -0.0089814 0
          0.0064238 -0.00908547 0
          0.00876663 -0.0105329 0
          0.00996403 -0.00931545 0
          0.0111724 -0.012147 0
          0.0106337 -0.0119748 0
          0.00963285 -0.014873 0
          0.00630686 -0.0155545 0
          0.00116199 -0.0160692 0
          -0.00250876 -0.0125802 0
          -0.00982715 -0.0121546 0
          -0.0135761 0.00500523 0
          -0.00758257 0.0121914 0
          0 0 0
          0 0 0
          0.00165933 -0.0122785 0
          0.00431154 -0.011013 0
          0.0066999 -0.0108716 0
          0.00828902 -0.0121274 0
          0.00985295 -0.0102697 0
          0.0104335 -0.0119631 0
          0.0100559 -0.0107594 0
          0.00915889 -0.0124629 0
          0.00644341 -0.0105158 0
          0.00344915 -0.0114189 0
          -0.000875996 -0.00590322 0
          -0.00517016 -0.00572873 0
          -0.00544938 0.00450631 0
          -0.00254228 0.0066252 0
          0 0 0
          0 0 0
          0.00118088 -0.0144203 0
          0.00413116 -0.0138361 0
          0.00658648 -0.012767 0
          0.00815457 -0.0126406 0
          0.00898714 -0.0118697 0
          0.0100688 -0.0107805 0
          0.00943866 -0.0103095 0
          0.00876767 -0.00992941 0
          0.00698773 -0.00745719 0
          0.00403933 -0.00731482 0
          0.00198328 -0.00136624 0
          -0.000161078 -0.00336932 0
          -0.000508322 0.00463868 0
          -0.000751433 0.00634583 0
          0 0 0
          0 0 0
          0.00306615 -0.0176664 0
          0.00573098 -0.015934 0
          0.00731684 -0.0150318 0
          0.0101818 -0.0141638 0
          0.0105467 -0.0115452 0
          0.0114827 -0.0123127 0
          0.0118359 -0.00823993 0
          0.010327 -0.00887982 0
          0.0087088 -0.00423634 0
          0.00686144 -0.00480157 0
          0.00559025 0.000888431 0
          0.00283188 -0.000455013 0
          0.000735821 0.00626311 0
          -0.000119661 0.00663183 0
          0 0 0
          0 0 0
          0.00258197 -0.0214809 0
          0.00672139 -0.018288 0
          0.0089823 -0.0166543 0
          0.0105868 -0.0163398 0
          0.0134197 -0.0125659 0
          0.0134658 -0.0114285 0
          0.0127065 -0.00870339 0
          0.0130195 -0.00572688 0
          0.0115121 -0.00346915 0
          0.0114553 -0.00268457 0
          0.00904286 0.00422656 0
          0.00630275 0.00257011 0
          0.00649726 0.00800053 0
          0.00344321 0.0101738 0
          0 0 0
          0 0 0
          0.00399566 -0.0260757 0
          0.00838317 -0.0223798 0
          0.011964 -0.019096 0
          0.0142174 -0.017637 0
          0.0139473 -0.0147481 0
          0.0156709 -0.0103102 0
          0.0133368 -0.00728401 0
          0.0146379 -0.00791746 0
          0.0146155 6.21057e-05 0
          0.0108609 -0.00237288 0
          0.00920254 0.00882864 0
          0.00672278 0.0025445 0
          0.00336897 0.0124023 0
          -0.000449005 0.0118515 0
          0 0 0
          0 0 0
          0.00560964 -0.0315569 0
          0.0118009 -0.0264935 0
          0.015596 -0.0228593 0
          0.0182466 -0.0183336 0
          0.0177457 -0.0133758 0
          0.0182587 -0.0123175 0
          0.0219846 -0.00673879 0
          0.0210613 -0.00721787 0
          0.0206588 0.0004173 0
          0.0207762 0.00341764 0
          0.0205942 0.00732705 0
          0.0177861 0.0111135 0
          0.0173889 0.011406 0
          0.0138826 0.0237044 0
          0 0 0
          0 0 0
          0.0072258 -0.0416423 0
          0.0158969 -0.0323908 0
          0.0179819 -0.0246407 0
          0.0176607 -0.0196467 0
          0.0207042 -0.0158021 0
          0.0224438 -0.0124237 0
          0.0192305 -0.0103694 0
          0.0196431 -0.00306127 0
          0.0124604 0.000591676 0
          0.0151878 -0.0011105 0
          0.00906342 0.0164894 0
          0.00453755 0.00540883 0
          -0.00478129 0.0260645 0
          -0.0142143 0.0185902 0
          0 0 0
          0 0 0
          0.010591 -0.0504684 0
          0.021033 -0.0396159 0
          0.0280953 -0.0256795 0
          0.0303345 -0.0207998 0
          0.0309889 -0.0190054 0
          0.0330566 -0.0109854 0
          0.0288939 -0.00367181 0
          0.031287 -0.00668574 0
          0.0379178 0.00799145 0
          0.0344815 -0.00104269 0
          0.0462412 0.0183935 0
          0.0391529 0.023028 0
          0.0496405 0.0180644 0
          0.0482053 0.0484219 0
          0 0 0
          0 0 0
          0.0162498 -0.0707271 0
          0.0385944 -0.0522598 0
          0.0461693 -0.0307842 0
          0.0409882 -0.0189642 0
          0.0291625 -0.0146467 0
          0.0167675 -0.00841028 0
          0.0174827 -0.00916484 0
          0.0158651 -0.00580141 0
          0.0100797 -0.00533206 0
          0.0158797 0.00381531 0
          -0.00904885 0.0119252 0
          0.000150701 0.0118337 0
          -0.0267484 0.0371509 0
          -0.0495012 0.0384108 0
          0 0 0
          0 0 0
          0.0277613 -0.099052 0
          0.0554497 -0.0720003 0
          0.065931 -0.0279839 0
          0.0526391 -0.00157006 0
          0.0427465 -0.00189251 0
          0.0421779 -0.0016889 0
          0.0405205 -0.00901896 0
          0.0515915 -0.00251812 0
          0.0509493 0.0044615 0
          0.064724 -0.00235269 0
          0.0802805 0.0477824 0
          0.0635987 0.0112848 0
          0.110312 0.0560519 0
          0.0999959 0.0863679 0
          0 0 0
          0 0 0
          0.0141354 -0.130661 0
          0.0235098 -0.0861434 0
          0.0156013 -0.0202445 0
          0.0184184 -0.0043147 0
          0.0316565 -0.0049016 0
          0.0271113 -0.0056688 0
          0.0237647 -0.0115827 0
          0.00855873 -0.0124209 0
          0.00145115 -0.00757325 0
          -0.0247837 0.00096961 0
          -0.060327 0.0103359 0
          -0.0415373 0.0134749 0
          -0.114175 0.0367214 0
          -0.0996973 0.0739003 0
          0 0 0
          0 0 0
          -0.0105449 -0.114181 0
          -0.0680578 -0.06486 0
          -0.072718 -0.0288169 0
          -0.0607004 -0.0147528 0
          -0.0477541 -0.0129887 0
          -0.0357953 0.00103904 0
          -0.0168124 -0.0106603 0
          -0.00196803 0.0141948 0
          0.0144989 -0.00602425 0
          0.0714879 0.046422 0
          0.0659618 0.0444394 0
          0.114267 0.0105098 0
          0.194423 0.121326 0
          0.145446 0.0894494 0
          0 0 0
          0 0 0
          -0.0779923 -0.034959 0
          -0.148728 -0.0257766 0
          -0.177464 -0.0271804 0
          -0.202655 -0.0189008 0
          -0.212997 -0.02483 0
          -0.224376 -0.0190722 0
          -0.231836 -0.0367074 0
          -0.237381 -0.0224785 0
          -0.241206 -0.0551164 0
          -0.240613 -0.0391867 0
          -0.209637 -0.0115067 0
          -0.189055 -0.0722048 0
          -0.197095 0.0184536 0
          -0.0580311 0.139438 0
          0 0 0
          0.0256 0 0
          0.0256 0 0
          0.0256 0 0
          0.0256 0 0
          0.0256 0 0
          0.0256 0 0
          0.0256 0 0
          0.0256 0 0
          0.0256 0 0
          0.0256 0 0
          0.0256 0 0
          0.0256 0 0
          0.0256 0 0
          0.0256 0 0
          0.0256 0 0
          0.0256 0 0
        </DataArray>
      </PointData>
      <CellData>
      </CellData>
    </Piece>
  </ImageData>
</VTKFile>
