<?xml version="1.0"?>
<VTKFile type="ImageData" version="0.1" byte_order="LittleEndian">
  <ImageData WholeExtent="0 15 0 15 0 0" Origin="0 0 0" Spacing="1 1 1">
    <Piece Extent="0 15 0 15 0 0">
      <PointData>
        <DataArray type="Float32" Name="rho" format="ascii">
          nan
          nan
          nan
          nan
          nan
          nan
          nan
          nan
          nan
          5.6388e+32
          nan
          nan
          nan
          nan
          nan
          nan
          nan
          nan
          nan
          nan
          nan
          nan
          nan
          nan
          nan
          -2.01864e+32
          nan
          nan
          nan
          nan
          nan
          nan
          nan
          nan
          nan
          nan
          nan
          nan
          nan
          nan
          nan
          -2.18099e+34
          nan
          nan
          nan
          nan
          nan
          nan
          nan
          nan
          nan
          nan
          nan
          nan
          nan
          nan
          nan
          9.10061e+33
          nan
          nan
          nan
          nan
          nan
          nan
          nan
          nan
          nan
          nan
          nan
          nan
          nan
          nan
          nan
          6.42564e+35
          2.48593e+35
          7.51698e+34
          nan
          nan
          nan
          nan
          nan
          nan
          nan
          nan
          nan
          nan
          nan
          nan
          nan
          -1.57938e+35
          -2.97625e+34
          2.47883e+35
          nan
          nan
          nan
          nan
          nan
          nan
          nan
          nan
          nan
          -2.7076e+38
          -1.8754e+38
          -9.2035e+37
          -4.81264e+37
          -1.49259e+37
          -1.56862e+35
          6.42552e+35
          8.92556e+33
          -2.19612e+34
          -2.31772e+32
          8.26026e+32
          nan
          nan
          nan
          nan
          nan
          nan
          nan
          nan
          nan
          -4.00793e+37
          nan
          nan
          nan
          nan
          nan
          nan
          nan
          nan
          nan
          nan
          nan
          nan
          nan
          nan
          nan
          -9.46049e+37
          nan
          nan
          nan
          nan
          nan
          nan
          nan
          nan
          nan
          nan
          nan
          nan
          nan
          nan
          nan
          -1.77575e+38
          nan
          nan
          nan
          nan
          nan
          nan
          nan
          nan
          nan
          nan
          nan
          nan
          nan
          nan
          nan
          -2.84126e+38
          nan
          nan
          nan
          nan
          nan
          nan
          nan
          nan
          nan
          nan
          nan
          nan
          nan
          nan
          nan
          nan
          nan
          nan
          nan
          nan
          nan
          nan
          nan
          nan
          nan
          nan
          nan
          nan
          nan
          nan
          nan
          nan
          nan
          nan
          nan
          nan
          nan
          nan
          nan
          nan
          nan
          nan
          nan
          nan
          nan
          nan
          nan
          nan
          nan
          nan
          nan
          nan
          nan
          nan
          nan
          nan
          nan
          nan
          nan
          nan
          nan
          nan
          nan
          nan
          nan
          nan
          nan
          nan
          nan
          nan
          nan
          nan
          nan
          nan
          nan
          nan
          nan
          nan
          nan
          -2.6712e+38
          nan
          nan
          nan
          nan
          nan
          nan
        </DataArray>
        <DataArray type="Float32" Name="ux" format="ascii">
          0
          0
          0
          0
          0
          0
          0
          0
          0
          0
          0
          0
          0
          0
          0
          0
          0
          nan
          nan
          nan
          nan
          nan
          nan
          nan
          nan
          -0.318578
          nan
          nan
          nan
          nan
          nan
          0
          0
          nan
          nan
          nan
          nan
          nan
          nan
          nan
          nan
          0.448136
          nan
          nan
          nan
          nan
          nan
          0
          0
          nan
          nan
          nan
          nan
          nan
          nan
          nan
          nan
          -0.446509
          nan
          nan
          nan
          nan
          nan
          0
          0
          nan
          nan
          nan
          nan
          nan
          nan
          nan
          nan
          0.58045
          0.673548
          1.1521
          nan
          nan
          nan
          0
          0
          nan
          nan
          nan
          nan
          nan
          nan
          nan
          nan
          -0.975815
          -1.47441
          1.0144
          nan
          nan
          nan
          0
          0
          nan
          nan
          nan
          nan
          0.331371
          0.412241
          0.567648
          0.701428
          1.02405
          0.288803
          1.00918
          0.183553
          1.00542
          0.216779
          0
          0
          nan
          nan
          nan
          nan
          nan
          nan
          nan
          nan
          1.01336
          nan
          nan
          nan
          nan
          nan
          0
          0
          nan
          nan
          nan
          nan
          nan
          nan
          nan
          nan
          1.00723
          nan
          nan
          nan
          nan
          nan
          0
          0
          nan
          nan
          nan
          nan
          nan
          nan
          nan
          nan
          1.00594
          nan
          nan
          nan
          nan
          nan
          0
          0
          nan
          nan
          nan
          nan
          nan
          nan
          nan
          nan
          1.00519
          nan
          nan
          nan
          nan
          nan
          0
          0
          nan
          nan
          nan
          nan
          nan
          nan
          nan
          nan
          nan
          nan
          nan
          nan
          nan
          nan
          0
          0
          nan
          nan
          nan
          nan
          nan
          nan
          nan
          nan
          nan
          nan
          nan
          nan
          nan
          nan
          0
          0
          nan
          nan
          nan
          nan
          nan
          nan
          nan
          nan
          nan
          nan
          nan
          nan
          nan
          nan
          0
          0
          nan
          nan
          nan
          nan
          nan
          nan
          nan
          nan
          nan
          nan
          nan
          nan
          nan
          nan
          0
          0.0256
          0.0256
          0.0256
          0.0256
          0.0256
          0.0256
          0.0256
          0.0256
          0.0256
          0.0256
          0.0256
          0.0256
          0.0256
          0.0256
          0.0256
          0.0256
        </DataArray>
        <DataArray type="Float32" Name="uy" format="ascii">
          0
          0
          0
          0
          0
          0
          0
          0
          0
          0
          0
          0
          0
          0
          0
          0
          0
          nan
          nan
          nan
          nan
          nan
          nan
          nan
          nan
          -0.21212
          nan
          nan
          nan
          nan
          nan
          0
          0
          nan
          nan
          nan
          nan
          nan
          nan
          nan
          nan
          -1.00701
          nan
          nan
          nan
          nan
          nan
          0
          0
          nan
          nan
          nan
          nan
          nan
          nan
          nan
          nan
          -0.167813
          nan
          nan
          nan
          nan
          nan
          0
          0
          nan
          nan
          nan
          nan
          nan
          nan
          nan
          nan
          -1.01008
          -1.01383
          -1.15503
          nan
          nan
          nan
          0
          0
          nan
          nan
          nan
          nan
          nan
          nan
          nan
          nan
          -0.282998
          1.45745
          -0.671378
          nan
          nan
          nan
          0
          0
          nan
          nan
          nan
          nan
          -0.955055
          -0.968266
          -1.05497
          -0.907687
          -1.02403
          0.981496
          -0.579495
          0.468441
          -0.448965
          0.214518
          0
          0
          nan
          nan
          nan
          nan
          nan
          nan
          nan
          nan
          -0.641445
          nan
          nan
          nan
          nan
          nan
          0
          0
          nan
          nan
          nan
          nan
          nan
          nan
          nan
          nan
          -0.533374
          nan
          nan
          nan
          nan
          nan
          0
          0
          nan
          nan
          nan
          nan
          nan
          nan
          nan
          nan
          -0.400606
          nan
          nan
          nan
          nan
          nan
          0
          0
          nan
          nan
          nan
          nan
          nan
          nan
          nan
          nan
          -0.299282
          nan
          nan
          nan
          nan
          nan
          0
          0
          nan
          nan
          nan
          nan
          nan
          nan
          nan
          nan
          nan
          nan
          nan
          nan
          nan
          nan
          0
          0
          nan
          nan
          nan
          nan
          nan
          nan
          nan
          nan
          nan
          nan
          nan
          nan
          nan
          nan
          0
          0
          nan
          nan
          nan
          nan
          nan
          nan
          nan
          nan
          nan
          nan
          nan
          nan
          nan
          nan
          0
          0
          nan
          nan
          nan
          nan
          nan
          nan
          nan
          nan
          nan
          nan
          nan
          nan
          nan
          nan
          0
          0
          0
          0
          0
          0
          0
          0
          0
          0
          0
          0
          0
          0
          0
          0
          0
        </DataArray>
        <DataArray type="Float32" Name="velocity" NumberOfComponents="3" format="ascii">
          0 0 0
          0 0 0
          0 0 0
          0 0 0
          0 0 0
          0 0 0
          0 0 0
          0 0 0
          0 0 0
          0 0 0
          0 0 0
          0 0 0
          0 0 0
          0 0 0
          0 0 0
          0 0 0
          0 0 0
          nan nan 0
          nan nan 0
          nan nan 0
          nan nan 0
          nan nan 0
          nan nan 0
          nan nan 0
          nan nan 0
          -0.318578 -0.21212 0
          nan nan 0
          nan nan 0
          nan nan 0
          nan nan 0
          nan nan 0
          0 0 0
          0 0 0
          nan nan 0
          nan nan 0
          nan nan 0
          nan nan 0
          nan nan 0
          nan nan 0
          nan nan 0
          nan nan 0
          0.448136 -1.00701 0
          nan nan 0
          nan nan 0
          nan nan 0
          nan nan 0
          nan nan 0
          0 0 0
          0 0 0
          nan nan 0
          nan nan 0
          nan nan 0
          nan nan 0
          nan nan 0
          nan nan 0
          nan nan 0
          nan nan 0
          -0.446509 -0.167813 0
          nan nan 0
          nan nan 0
          nan nan 0
          nan nan 0
          nan nan 0
          0 0 0
          0 0 0
          nan nan 0
          nan nan 0
          nan nan 0
          nan nan 0
          nan nan 0
          nan nan 0
          nan nan 0
          nan nan 0
          0.58045 -1.01008 0
          0.673548 -1.01383 0
          1.1521 -1.15503 0
          nan nan 0
          nan nan 0
          nan nan 0
          0 0 0
          0 0 0
          nan nan 0
          nan nan 0
          nan nan 0
          nan nan 0
          nan nan 0
          nan nan 0
          nan nan 0
          nan nan 0
          -0.975815 -0.282998 0
          -1.47441 1.45745 0
          1.0144 -0.671378 0
          nan nan 0
          nan nan 0
          nan nan 0
          0 0 0
          0 0 0
          nan nan 0
          nan nan 0
          nan nan 0
          nan nan 0
          0.331371 -0.955055 0
          0.412241 -0.968266 0
          0.567648 -1.05497 0
          0.701428 -0.907687 0
          1.02405 -1.02403 0
          0.288803 0.981496 0
          1.00918 -0.579495 0
          0.183553 0.468441 0
          1.00542 -0.448965 0
          0.216779 0.214518 0
          0 0 0
          0 0 0
          nan nan 0
          nan nan 0
          nan nan 0
          nan nan 0
          nan nan 0
          nan nan 0
          nan nan 0
          nan nan 0
          1.01336 -0.641445 0
          nan nan 0
          nan nan 0
          nan nan 0
          nan nan 0
          nan nan 0
          0 0 0
          0 0 0
          nan nan 0
          nan nan 0
          nan nan 0
          nan nan 0
          nan nan 0
          nan nan 0
          nan nan 0
          nan nan 0
          1.00723 -0.533374 0
          nan nan 0
          nan nan 0
          nan nan 0
          nan nan 0
          nan nan 0
          0 0 0
          0 0 0
          nan nan 0
          nan nan 0
          nan nan 0
          nan nan 0
          nan nan 0
          nan nan 0
          nan nan 0
          nan nan 0
          1.00594 -0.400606 0
          nan nan 0
          nan nan 0
          nan nan 0
          nan nan 0
          nan nan 0
          0 0 0
          0 0 0
          nan nan 0
          nan nan 0
          nan nan 0
          nan nan 0
          nan nan 0
          nan nan 0
          nan nan 0
          nan nan 0
          1.00519 -0.299282 0
          nan nan 0
          nan nan 0
          nan nan 0
          nan nan 0
          nan nan 0
          0 0 0
          0 0 0
          nan nan 0
          nan nan 0
          nan nan 0
          nan nan 0
          nan nan 0
          nan nan 0
          nan nan 0
          nan nan 0
          nan nan 0
          nan nan 0
          nan nan 0
          nan nan 0
          nan nan 0
          nan nan 0
          0 0 0
          0 0 0
          nan nan 0
          nan nan 0
          nan nan 0
          nan nan 0
          nan nan 0
          nan nan 0
          nan nan 0
          nan nan 0
          nan nan 0
          nan nan 0
          nan nan 0
          nan nan 0
          nan nan 0
          nan nan 0
          0 0 0
          0 0 0
          nan nan 0
          nan nan 0
          nan nan 0
          nan nan 0
          nan nan 0
          nan nan 0
          nan nan 0
          nan nan 0
          nan nan 0
          nan nan 0
          nan nan 0
          nan nan 0
          nan nan 0
          nan nan 0
          0 0 0
          0 0 0
          nan nan 0
          nan nan 0
          nan nan 0
          nan nan 0
          nan nan 0
          nan nan 0
          nan nan 0
          nan nan 0
          nan nan 0
          nan nan 0
          nan nan 0
          nan nan 0
          nan nan 0
          nan nan 0
          0 0 0
          0.0256 0 0
          0.0256 0 0
          0.0256 0 0
          0.0256 0 0
          0.0256 0 0
          0.0256 0 0
          0.0256 0 0
          0.0256 0 0
          0.0256 0 0
          0.0256 0 0
          0.0256 0 0
          0.0256 0 0
          0.0256 0 0
          0.0256 0 0
          0.0256 0 0
          0.0256 0 0
        </DataArray>
      </PointData>
      <CellData>
      </CellData>
    </Piece>
  </ImageData>
</VTKFile>
