<?xml version="1.0"?>
<VTKFile type="ImageData" version="0.1" byte_order="LittleEndian">
  <ImageData WholeExtent="0 15 0 15 0 0" Origin="0 0 0" Spacing="1 1 1">
    <Piece Extent="0 15 0 15 0 0">
      <PointData>
        <DataArray type="Float32" Name="rho" format="ascii">
          1.00565
          1.00966
          1.00589
          1.00841
          1.00536
          1.00487
          1.00243
          1.00068
          0.997997
          0.996132
          0.992982
          0.992775
          0.987016
          0.993057
          0.982285
          0.991032
          1.00528
          1.00594
          1.00581
          1.00514
          1.00469
          1.00368
          1.00256
          1.00088
          0.999139
          0.997239
          0.995932
          0.994531
          0.994231
          0.993308
          0.993584
          0.993494
          1.00495
          1.00563
          1.0053
          1.00482
          1.00419
          1.00335
          1.00214
          1.00069
          0.999072
          0.99752
          0.996083
          0.995159
          0.994441
          0.993916
          0.993585
          0.994704
          1.00425
          1.00503
          1.00471
          1.0044
          1.00368
          1.00281
          1.00167
          1.00041
          0.999089
          0.997765
          0.996598
          0.995668
          0.994826
          0.994619
          0.994198
          0.995251
          1.00364
          1.00435
          1.00414
          1.00367
          1.00308
          1.00215
          1.00112
          1.00006
          0.999047
          0.998049
          0.997057
          0.996064
          0.995567
          0.995006
          0.994842
          0.99603
          1.00271
          1.00363
          1.00341
          1.00298
          1.00235
          1.00154
          1.00062
          0.999779
          0.999053
          0.998324
          0.997483
          0.996714
          0.996063
          0.99569
          0.995598
          0.996833
          1.00176
          1.00288
          1.00268
          1.00233
          1.00176
          1.00103
          1.00028
          0.99962
          0.999096
          0.998533
          0.997958
          0.997269
          0.996698
          0.996455
          0.996395
          0.997611
          1.0008
          1.00211
          1.00205
          1.00177
          1.00132
          1.00073
          1.00009
          0.999523
          0.99912
          0.998722
          0.9982
          0.99775
          0.997385
          0.997092
          0.997165
          0.998293
          0.999748
          1.00134
          1.00142
          1.00124
          1.00098
          1.00046
          0.999987
          0.999556
          0.999159
          0.998886
          0.99856
          0.998091
          0.998
          0.997719
          0.997862
          0.998692
          0.999015
          1.0009
          1.0008
          1.00088
          1.00058
          1.00021
          0.999925
          0.999632
          0.99936
          0.998994
          0.998955
          0.998674
          0.998196
          0.998368
          0.997963
          0.998989
          0.99786
          1.00036
          1.00072
          1.00057
          1.00024
          1.00016
          0.999875
          0.999654
          0.99955
          0.999371
          0.998901
          0.999141
          0.998633
          0.997913
          0.998612
          0.99876
          0.998112
          1.00095
          1.0007
          1.00025
          1.00048
          0.999902
          0.999837
          0.999723
          0.999398
          0.999363
          0.999337
          0.998196
          0.998967
          0.997967
          0.996848
          0.998642
          0.994279
          1.00065
          1.00044
          1.00117
          1.00013
          1.00002
          0.999827
          0.999582
          0.999398
          0.9989
          0.998871
          0.998954
          0.996713
          0.998157
          0.997519
          0.998182
          0.995529
          1.00166
          1.00142
          1.00057
          1.00049
          1.00027
          0.9997
          0.999446
          0.999113
          0.998957
          0.998023
          0.998036
          0.998051
          0.995024
          0.994487
          1.00059
          0.975857
          0.999368
          1.00189
          1.00055
          1.00118
          0.999912
          0.999997
          0.999322
          0.999105
          0.998337
          0.998696
          0.996541
          0.997584
          0.994305
          1.00094
          1.00243
          0.936098
          0.990521
          0.997774
          1.00202
          1.00109
          1.00139
          1.00032
          0.99994
          0.998822
          0.998457
          0.996787
          0.997229
          0.994058
          0.999252
          0.993553
          1.03493
        </DataArray>
        <DataArray type="Float32" Name="ux" format="ascii">
          0
          0
          0
          0
          0
          0
          0
          0
          0
          0
          0
          0
          0
          0
          0
          0
          0
          -0.000274799
          -0.000569577
          -0.000730038
          -0.00059096
          -0.00076403
          -0.000706259
          -0.000703222
          -0.000690733
          -0.000590342
          -0.000699374
          -0.000252609
          -0.000664759
          -0.000165953
          0.000325381
          0
          0
          -0.000433739
          -0.000387672
          -0.000689791
          -0.000893535
          -0.000880849
          -0.000935142
          -0.000880654
          -0.000836165
          -0.000829043
          -0.000656576
          -0.00079954
          -0.000407148
          7.32884e-05
          -0.000500916
          0
          0
          -0.00059795
          -0.000759111
          -0.000887264
          -0.00100047
          -0.00111232
          -0.00101127
          -0.000953557
          -0.000910504
          -0.000879553
          -0.0010925
          -0.000887188
          -0.000833858
          -0.000929906
          -0.000864579
          0
          0
          -0.000510557
          -0.000723707
          -0.00104119
          -0.0010711
          -0.00115686
          -0.00110385
          -0.000986376
          -0.000920781
          -0.000971826
          -0.000972921
          -0.000875452
          -0.0010912
          -0.000626504
          -0.000534102
          0
          0
          -0.000740357
          -0.000881059
          -0.00119728
          -0.00125306
          -0.00126377
          -0.00118796
          -0.00109371
          -0.00104196
          -0.00103611
          -0.00109599
          -0.00117312
          -0.00119212
          -0.000843803
          -0.000951485
          0
          0
          -0.000908578
          -0.00104391
          -0.00134455
          -0.00136081
          -0.00136151
          -0.00123227
          -0.00116527
          -0.00110722
          -0.00106611
          -0.00121065
          -0.001194
          -0.0012466
          -0.000951242
          -0.00107889
          0
          0
          -0.00105351
          -0.00111467
          -0.0015287
          -0.00148338
          -0.00142931
          -0.00130406
          -0.00121776
          -0.00120373
          -0.00117637
          -0.00113309
          -0.00120333
          -0.00136861
          -0.000827227
          -0.00111376
          0
          0
          -0.00138903
          -0.00142073
          -0.00183087
          -0.00167195
          -0.00161802
          -0.00151678
          -0.00140916
          -0.0013372
          -0.00138794
          -0.00135057
          -0.00122307
          -0.00157949
          -0.00120016
          -0.00159356
          0
          0
          -0.00154892
          -0.00140233
          -0.00181694
          -0.00171058
          -0.00168832
          -0.00143886
          -0.0014175
          -0.00131687
          -0.00110419
          -0.00138492
          -0.00121501
          -0.00111008
          -0.000786972
          -0.00161667
          0
          0
          -0.00270149
          -0.00217609
          -0.00261658
          -0.00264405
          -0.00227164
          -0.0020698
          -0.00194496
          -0.00203917
          -0.00185539
          -0.00158507
          -0.00247944
          -0.00226997
          -0.00142499
          -0.00325303
          0
          0
          -0.00130312
          -0.00113717
          -0.00240631
          -0.00157477
          -0.00162275
          -0.00149372
          -0.0011882
          -0.000948598
          -0.00121057
          -0.000817491
          0.000184853
          -0.00188042
          0.000203834
          -0.000177171
          0
          0
          -0.00684336
          -0.0064277
          -0.00487134
          -0.00454137
          -0.00403225
          -0.00308882
          -0.00307776
          -0.00304477
          -0.00279099
          -0.00456639
          -0.00474447
          -0.00382634
          -0.00843674
          -0.0109195
          0
          0
          -0.00196481
          0.000200661
          -0.00198897
          -0.00215018
          -0.00132305
          -0.00153101
          -0.00120484
          -0.000990298
          -0.000729672
          0.000872626
          -0.000721816
          0.00115673
          0.0078739
          0.00185652
          0
          0
          -0.0120802
          -0.0103038
          -0.00831374
          -0.00513834
          -0.00478478
          -0.00337287
          -0.00297663
          -0.00300025
          -0.00339696
          -0.00530878
          -0.00466951
          -0.010794
          -0.0128894
          -0.0137443
          0
          0.0256
          0.0256
          0.0256
          0.0256
          0.0256
          0.0256
          0.0256
          0.0256
          0.0256
          0.0256
          0.0256
          0.0256
          0.0256
          0.0256
          0.0256
          0.0256
        </DataArray>
        <DataArray type="Float32" Name="uy" format="ascii">
          0
          0
          0
          0
          0
          0
          0
          0
          0
          0
          0
          0
          0
          0
          0
          0
          0
          0.000675715
          0.000391129
          0.000329177
          0.000299953
          -1.00196e-05
          -6.74379e-05
          -0.000276269
          -0.000227291
          -0.000482295
          -0.000421658
          -0.00104861
          -0.000884832
          -0.00135343
          -0.00230258
          0
          0
          0.000479405
          0.000469977
          0.000211306
          0.000185552
          -8.12206e-05
          -0.000118758
          -0.000334696
          -0.000279416
          -0.000537158
          -0.000482905
          -0.00091699
          -0.000837981
          -0.00158786
          -0.00153718
          0
          0
          0.000534661
          0.000120315
          0.000370456
          3.00456e-06
          -5.57435e-05
          -0.00016971
          -0.000266892
          -0.000330973
          -0.000429708
          -0.000481175
          -0.000538342
          -0.00119671
          -0.000497193
          -0.00145909
          0
          0
          0.000579232
          0.000197336
          0.000237458
          8.04458e-05
          -5.7449e-05
          -0.000128912
          -0.000225512
          -0.000283001
          -0.000370846
          -0.000389132
          -0.000631344
          -0.000665242
          -0.000549949
          -0.00123812
          0
          0
          0.000653942
          0.000256117
          0.000325553
          2.78984e-05
          4.53862e-05
          -8.7395e-05
          -0.000141821
          -0.000196923
          -0.000247786
          -0.000449406
          -0.000255594
          -0.000658502
          -0.000415361
          -0.000923002
          0
          0
          0.000866856
          0.000284887
          0.000515357
          8.75765e-05
          0.00014832
          -1.38952e-05
          -3.7513e-05
          -0.000163457
          -0.000173033
          -0.000360196
          -0.000143137
          -0.000748431
          -1.72702e-05
          -0.000930849
          0
          0
          0.00114006
          0.000340765
          0.000796319
          0.000197307
          0.000296988
          6.07877e-05
          5.37518e-05
          -0.000139348
          -0.000165784
          -0.000352053
          -1.70574e-05
          -0.000915388
          0.000251791
          -0.000926032
          0
          0
          0.00153561
          0.000464306
          0.00113675
          0.000226606
          0.000524286
          0.00012633
          7.63577e-05
          -7.70069e-05
          -0.000107567
          -0.000629409
          0.00029033
          -0.00122539
          0.000411475
          -0.00125543
          0
          0
          0.00206234
          0.000583873
          0.00136479
          0.000369625
          0.000686844
          0.000181852
          0.000167048
          -0.000122823
          0.0001079
          -0.000576238
          2.06189e-05
          -0.00118022
          0.000591786
          -0.00179597
          0
          0
          0.00331853
          0.000243994
          0.00223007
          0.000411482
          0.000749676
          0.000219475
          0.000286565
          -0.0001092
          -0.000124032
          -0.00031972
          0.000277556
          -0.00310378
          0.00211823
          -0.00365521
          0
          0
          0.00371334
          0.000949174
          0.00299734
          0.000116183
          0.00115144
          0.000149747
          0.000220563
          -1.20753e-05
          -8.69683e-05
          -0.00134059
          0.00130154
          -0.00384396
          0.000462907
          -0.00307076
          0
          0
          0.00624145
          0.00135462
          0.00285069
          0.000806417
          0.00102481
          0.000153106
          0.000132665
          -0.00036139
          -5.11412e-05
          -0.00136927
          -0.000910635
          -0.0029327
          0.00153273
          -0.00831476
          0
          0
          0.00834154
          -0.00119696
          0.00481342
          -0.000313795
          0.00104153
          -6.48451e-05
          0.000315405
          -0.000543243
          -6.67337e-06
          -0.0010067
          0.000688678
          -0.00827871
          0.00860056
          -0.0105655
          0
          0
          0.00923762
          0.000412784
          0.00538888
          -0.000104686
          0.00156847
          3.59585e-05
          8.34435e-05
          -0.000928878
          -0.000914028
          -0.00280453
          0.000341244
          -0.0107887
          0.00334791
          -0.0112058
          0
          0
          0
          0
          0
          0
          0
          0
          0
          0
          0
          0
          0
          0
          0
          0
          0
        </DataArray>
        <DataArray type="Float32" Name="velocity" NumberOfComponents="3" format="ascii">
          0 0 0
          0 0 0
          0 0 0
          0 0 0
          0 0 0
          0 0 0
          0 0 0
          0 0 0
          0 0 0
          0 0 0
          0 0 0
          0 0 0
          0 0 0
          0 0 0
          0 0 0
          0 0 0
          0 0 0
          -0.000274799 0.000675715 0
          -0.000569577 0.000391129 0
          -0.000730038 0.000329177 0
          -0.00059096 0.000299953 0
          -0.00076403 -1.00196e-05 0
          -0.000706259 -6.74379e-05 0
          -0.000703222 -0.000276269 0
          -0.000690733 -0.000227291 0
          -0.000590342 -0.000482295 0
          -0.000699374 -0.000421658 0
          -0.000252609 -0.00104861 0
          -0.000664759 -0.000884832 0
          -0.000165953 -0.00135343 0
          0.000325381 -0.00230258 0
          0 0 0
          0 0 0
          -0.000433739 0.000479405 0
          -0.000387672 0.000469977 0
          -0.000689791 0.000211306 0
          -0.000893535 0.000185552 0
          -0.000880849 -8.12206e-05 0
          -0.000935142 -0.000118758 0
          -0.000880654 -0.000334696 0
          -0.000836165 -0.000279416 0
          -0.000829043 -0.000537158 0
          -0.000656576 -0.000482905 0
          -0.00079954 -0.00091699 0
          -0.000407148 -0.000837981 0
          7.32884e-05 -0.00158786 0
          -0.000500916 -0.00153718 0
          0 0 0
          0 0 0
          -0.00059795 0.000534661 0
          -0.000759111 0.000120315 0
          -0.000887264 0.000370456 0
          -0.00100047 3.00456e-06 0
          -0.00111232 -5.57435e-05 0
          -0.00101127 -0.00016971 0
          -0.000953557 -0.000266892 0
          -0.000910504 -0.000330973 0
          -0.000879553 -0.000429708 0
          -0.0010925 -0.000481175 0
          -0.000887188 -0.000538342 0
          -0.000833858 -0.00119671 0
          -0.000929906 -0.000497193 0
          -0.000864579 -0.00145909 0
          0 0 0
          0 0 0
          -0.000510557 0.000579232 0
          -0.000723707 0.000197336 0
          -0.00104119 0.000237458 0
          -0.0010711 8.04458e-05 0
          -0.00115686 -5.7449e-05 0
          -0.00110385 -0.000128912 0
          -0.000986376 -0.000225512 0
          -0.000920781 -0.000283001 0
          -0.000971826 -0.000370846 0
          -0.000972921 -0.000389132 0
          -0.000875452 -0.000631344 0
          -0.0010912 -0.000665242 0
          -0.000626504 -0.000549949 0
          -0.000534102 -0.00123812 0
          0 0 0
          0 0 0
          -0.000740357 0.000653942 0
          -0.000881059 0.000256117 0
          -0.00119728 0.000325553 0
          -0.00125306 2.78984e-05 0
          -0.00126377 4.53862e-05 0
          -0.00118796 -8.7395e-05 0
          -0.00109371 -0.000141821 0
          -0.00104196 -0.000196923 0
          -0.00103611 -0.000247786 0
          -0.00109599 -0.000449406 0
          -0.00117312 -0.000255594 0
          -0.00119212 -0.000658502 0
          -0.000843803 -0.000415361 0
          -0.000951485 -0.000923002 0
          0 0 0
          0 0 0
          -0.000908578 0.000866856 0
          -0.00104391 0.000284887 0
          -0.00134455 0.000515357 0
          -0.00136081 8.75765e-05 0
          -0.00136151 0.00014832 0
          -0.00123227 -1.38952e-05 0
          -0.00116527 -3.7513e-05 0
          -0.00110722 -0.000163457 0
          -0.00106611 -0.000173033 0
          -0.00121065 -0.000360196 0
          -0.001194 -0.000143137 0
          -0.0012466 -0.000748431 0
          -0.000951242 -1.72702e-05 0
          -0.00107889 -0.000930849 0
          0 0 0
          0 0 0
          -0.00105351 0.00114006 0
          -0.00111467 0.000340765 0
          -0.0015287 0.000796319 0
          -0.00148338 0.000197307 0
          -0.00142931 0.000296988 0
          -0.00130406 6.07877e-05 0
          -0.00121776 5.37518e-05 0
          -0.00120373 -0.000139348 0
          -0.00117637 -0.000165784 0
          -0.00113309 -0.000352053 0
          -0.00120333 -1.70574e-05 0
          -0.00136861 -0.000915388 0
          -0.000827227 0.000251791 0
          -0.00111376 -0.000926032 0
          0 0 0
          0 0 0
          -0.00138903 0.00153561 0
          -0.00142073 0.000464306 0
          -0.00183087 0.00113675 0
          -0.00167195 0.000226606 0
          -0.00161802 0.000524286 0
          -0.00151678 0.00012633 0
          -0.00140916 7.63577e-05 0
          -0.0013372 -7.70069e-05 0
          -0.00138794 -0.000107567 0
          -0.00135057 -0.000629409 0
          -0.00122307 0.00029033 0
          -0.00157949 -0.00122539 0
          -0.00120016 0.000411475 0
          -0.00159356 -0.00125543 0
          0 0 0
          0 0 0
          -0.00154892 0.00206234 0
          -0.00140233 0.000583873 0
          -0.00181694 0.00136479 0
          -0.00171058 0.000369625 0
          -0.00168832 0.000686844 0
          -0.00143886 0.000181852 0
          -0.0014175 0.000167048 0
          -0.00131687 -0.000122823 0
          -0.00110419 0.0001079 0
          -0.00138492 -0.000576238 0
          -0.00121501 2.06189e-05 0
          -0.00111008 -0.00118022 0
          -0.000786972 0.000591786 0
          -0.00161667 -0.00179597 0
          0 0 0
          0 0 0
          -0.00270149 0.00331853 0
          -0.00217609 0.000243994 0
          -0.00261658 0.00223007 0
          -0.00264405 0.000411482 0
          -0.00227164 0.000749676 0
          -0.0020698 0.000219475 0
          -0.00194496 0.000286565 0
          -0.00203917 -0.0001092 0
          -0.00185539 -0.000124032 0
          -0.00158507 -0.00031972 0
          -0.00247944 0.000277556 0
          -0.00226997 -0.00310378 0
          -0.00142499 0.00211823 0
          -0.00325303 -0.00365521 0
          0 0 0
          0 0 0
          -0.00130312 0.00371334 0
          -0.00113717 0.000949174 0
          -0.00240631 0.00299734 0
          -0.00157477 0.000116183 0
          -0.00162275 0.00115144 0
          -0.00149372 0.000149747 0
          -0.0011882 0.000220563 0
          -0.000948598 -1.20753e-05 0
          -0.00121057 -8.69683e-05 0
          -0.000817491 -0.00134059 0
          0.000184853 0.00130154 0
          -0.00188042 -0.00384396 0
          0.000203834 0.000462907 0
          -0.000177171 -0.00307076 0
          0 0 0
          0 0 0
          -0.00684336 0.00624145 0
          -0.0064277 0.00135462 0
          -0.00487134 0.00285069 0
          -0.00454137 0.000806417 0
          -0.00403225 0.00102481 0
          -0.00308882 0.000153106 0
          -0.00307776 0.000132665 0
          -0.00304477 -0.00036139 0
          -0.00279099 -5.11412e-05 0
          -0.00456639 -0.00136927 0
          -0.00474447 -0.000910635 0
          -0.00382634 -0.0029327 0
          -0.00843674 0.00153273 0
          -0.0109195 -0.00831476 0
          0 0 0
          0 0 0
          -0.00196481 0.00834154 0
          0.000200661 -0.00119696 0
          -0.00198897 0.00481342 0
          -0.00215018 -0.000313795 0
          -0.00132305 0.00104153 0
          -0.00153101 -6.48451e-05 0
          -0.00120484 0.000315405 0
          -0.000990298 -0.000543243 0
          -0.000729672 -6.67337e-06 0
          0.000872626 -0.0010067 0
          -0.000721816 0.000688678 0
          0.00115673 -0.00827871 0
          0.0078739 0.00860056 0
          0.00185652 -0.0105655 0
          0 0 0
          0 0 0
          -0.0120802 0.00923762 0
          -0.0103038 0.000412784 0
          -0.00831374 0.00538888 0
          -0.00513834 -0.000104686 0
          -0.00478478 0.00156847 0
          -0.00337287 3.59585e-05 0
          -0.00297663 8.34435e-05 0
          -0.00300025 -0.000928878 0
          -0.00339696 -0.000914028 0
          -0.00530878 -0.00280453 0
          -0.00466951 0.000341244 0
          -0.010794 -0.0107887 0
          -0.0128894 0.00334791 0
          -0.0137443 -0.0112058 0
          0 0 0
          0.0256 0 0
          0.0256 0 0
          0.0256 0 0
          0.0256 0 0
          0.0256 0 0
          0.0256 0 0
          0.0256 0 0
          0.0256 0 0
          0.0256 0 0
          0.0256 0 0
          0.0256 0 0
          0.0256 0 0
          0.0256 0 0
          0.0256 0 0
          0.0256 0 0
          0.0256 0 0
        </DataArray>
      </PointData>
      <CellData>
      </CellData>
    </Piece>
  </ImageData>
</VTKFile>
