<?xml version="1.0"?>
<VTKFile type="ImageData" version="0.1" byte_order="LittleEndian">
  <ImageData WholeExtent="0 15 0 15 0 0" Origin="0 0 0" Spacing="1 1 1">
    <Piece Extent="0 15 0 15 0 0">
      <PointData>
        <DataArray type="Float32" Name="rho" format="ascii">
          1.00132
          1.00366
          0.998732
          1.00095
          0.999249
          0.999735
          0.99946
          0.999902
          0.999907
          1.00034
          0.999385
          1.00021
          0.995952
          1.00069
          0.988603
          0.995305
          0.997446
          0.995082
          0.995376
          0.995643
          0.996505
          0.997419
          0.998792
          1.00021
          1.00169
          1.00288
          1.00401
          1.00443
          1.00525
          1.00506
          1.0055
          1.00165
          0.996446
          0.994782
          0.995145
          0.995686
          0.99651
          0.997573
          0.998808
          1.00008
          1.00132
          1.00245
          1.00334
          1.00409
          1.00458
          1.00476
          1.00496
          1.00355
          0.995667
          0.994753
          0.995272
          0.996228
          0.997155
          0.998149
          0.999044
          0.999835
          1.00059
          1.00142
          1.00231
          1.00321
          1.00377
          1.00445
          1.00455
          1.00393
          0.99537
          0.995012
          0.995848
          0.996923
          0.998023
          0.99882
          0.999326
          0.999615
          0.999936
          1.00048
          1.00133
          1.00229
          1.00335
          1.00387
          1.0042
          1.00416
          0.995203
          0.99558
          0.996503
          0.997606
          0.998555
          0.999123
          0.999379
          0.999484
          0.999629
          0.999945
          1.00055
          1.00148
          1.00247
          1.00324
          1.00373
          1.00413
          0.995371
          0.996572
          0.997441
          0.998328
          0.99891
          0.999164
          0.999291
          0.999414
          0.999552
          0.999679
          0.999952
          1.0005
          1.00132
          1.00225
          1.00293
          1.00393
          0.99575
          0.997824
          0.998547
          0.999039
          0.999225
          0.999229
          0.999266
          0.999369
          0.999484
          0.9995
          0.999514
          0.999713
          1.00034
          1.00119
          1.00208
          1.00364
          0.996053
          0.999057
          0.999462
          0.99954
          0.999478
          0.999391
          0.999346
          0.999313
          0.999293
          0.999224
          0.999164
          0.999138
          0.999545
          1.00029
          1.00124
          1.00328
          0.996413
          1.00018
          1.0002
          0.999971
          0.999771
          0.999667
          0.999518
          0.999294
          0.999078
          0.998869
          0.998806
          0.99874
          0.998792
          0.999537
          1.00024
          1.00324
          0.995998
          1.00089
          1.00088
          1.00035
          1.00011
          0.999968
          0.999677
          0.999269
          0.998912
          0.998584
          0.998382
          0.998477
          0.998476
          0.998601
          1.00004
          1.003
          0.996187
          1.00182
          1.00139
          1.00067
          1.00059
          1.00028
          0.99978
          0.99924
          0.998747
          0.998316
          0.998193
          0.997839
          0.998514
          0.998424
          0.998479
          1.00361
          0.992897
          1.00198
          1.0013
          1.0014
          1.00082
          1.00051
          0.999861
          0.999273
          0.998746
          0.998081
          0.997938
          0.998282
          0.997117
          0.998963
          0.999133
          1.0036
          0.992398
          1.00239
          1.00245
          1.00113
          1.00112
          1.00077
          0.999987
          0.999319
          0.998777
          0.998182
          0.997551
          0.997824
          0.99852
          0.996372
          0.99734
          1.00744
          0.972429
          1.00007
          1.00227
          1.00115
          1.00152
          1.00057
          1.00021
          0.999452
          0.998908
          0.998066
          0.998277
          0.996992
          0.998383
          0.996683
          1.00334
          1.01105
          0.928938
          0.988359
          0.995665
          1.0004
          0.999955
          1.00054
          0.999934
          0.999761
          0.999147
          0.999203
          0.998486
          0.999831
          0.998076
          1.00457
          1.00006
          1.05001
        </DataArray>
        <DataArray type="Float32" Name="ux" format="ascii">
          0
          0
          0
          0
          0
          0
          0
          0
          0
          0
          0
          0
          0
          0
          0
          0
          0
          0.00106465
          0.00111088
          0.000912059
          0.000986539
          0.000741281
          0.000636816
          0.000558021
          0.000586647
          0.000796116
          0.000884305
          0.00138182
          0.0011517
          0.00169717
          0.00182756
          0
          0
          0.000708329
          0.000885524
          0.000691843
          0.000379516
          0.000143349
          -9.85788e-05
          -0.000186368
          -0.000104366
          0.000120196
          0.000480779
          0.000653243
          0.00110809
          0.0014193
          0.000793694
          0
          0
          0.000342943
          0.000254572
          -5.06688e-07
          -0.000339277
          -0.000713425
          -0.000943268
          -0.00102969
          -0.000939398
          -0.000683941
          -0.000428116
          2.75756e-05
          0.00025564
          0.000219737
          0.000115605
          0
          0
          0.000107568
          -0.000218038
          -0.000714844
          -0.00113672
          -0.00150257
          -0.00170502
          -0.00176932
          -0.00171262
          -0.00152254
          -0.00119233
          -0.000717298
          -0.000457088
          8.44238e-06
          0.000132164
          0
          0
          -0.000364615
          -0.000894873
          -0.00151319
          -0.00197922
          -0.00227817
          -0.00241365
          -0.00246836
          -0.00246744
          -0.00236051
          -0.00211757
          -0.00170061
          -0.00120918
          -0.000637077
          -0.000395607
          0
          0
          -0.000864231
          -0.00159972
          -0.00229726
          -0.00274299
          -0.0030074
          -0.00312437
          -0.00318458
          -0.0031956
          -0.00312522
          -0.00295182
          -0.00252492
          -0.00200611
          -0.00128039
          -0.000811805
          0
          0
          -0.00142467
          -0.00229632
          -0.00304319
          -0.00344935
          -0.00372164
          -0.00387305
          -0.00395946
          -0.00395296
          -0.00386038
          -0.00368546
          -0.00331967
          -0.00284785
          -0.00189029
          -0.00124153
          0
          0
          -0.00204444
          -0.00300457
          -0.00379215
          -0.00416336
          -0.00446916
          -0.0046761
          -0.00478757
          -0.00476007
          -0.00464585
          -0.00447381
          -0.00412262
          -0.003753
          -0.00273647
          -0.0019936
          0
          0
          -0.00266336
          -0.00363976
          -0.00449837
          -0.00487205
          -0.00522749
          -0.00542778
          -0.00552643
          -0.00548782
          -0.00534686
          -0.00519354
          -0.00480956
          -0.00436073
          -0.00319024
          -0.00250996
          0
          0
          -0.00368311
          -0.00459303
          -0.00551715
          -0.00595252
          -0.00623491
          -0.00634269
          -0.00641221
          -0.0064624
          -0.00640776
          -0.00625128
          -0.00618194
          -0.0056914
          -0.00437818
          -0.00412807
          0
          0
          -0.00362343
          -0.00452809
          -0.00614201
          -0.00649686
          -0.00681881
          -0.00691141
          -0.00695162
          -0.00691772
          -0.00689398
          -0.00653993
          -0.00577714
          -0.00603166
          -0.00346538
          -0.00277287
          0
          0
          -0.00768162
          -0.00854924
          -0.00856778
          -0.00846993
          -0.00839109
          -0.00817353
          -0.00813149
          -0.00822695
          -0.00830816
          -0.00900821
          -0.00897304
          -0.00860402
          -0.010513
          -0.0110248
          0
          0
          -0.00531407
          -0.00534001
          -0.00743441
          -0.00819842
          -0.00819284
          -0.00830107
          -0.00830639
          -0.00827532
          -0.00813447
          -0.007206
          -0.00762146
          -0.00566129
          -3.32608e-05
          -0.0025101
          0
          0
          -0.0155887
          -0.013406
          -0.0122373
          -0.0101575
          -0.00995887
          -0.00924322
          -0.00906897
          -0.00918276
          -0.00944943
          -0.0106734
          -0.0100316
          -0.0141559
          -0.0154704
          -0.0178878
          0
          0.0256
          0.0256
          0.0256
          0.0256
          0.0256
          0.0256
          0.0256
          0.0256
          0.0256
          0.0256
          0.0256
          0.0256
          0.0256
          0.0256
          0.0256
          0.0256
        </DataArray>
        <DataArray type="Float32" Name="uy" format="ascii">
          0
          0
          0
          0
          0
          0
          0
          0
          0
          0
          0
          0
          0
          0
          0
          0
          0
          0.00286723
          0.0022594
          0.00191728
          0.00157441
          0.000955223
          0.000415016
          -0.000279376
          -0.000820279
          -0.00150625
          -0.00187064
          -0.00264502
          -0.00279664
          -0.00356807
          -0.00489752
          0
          0
          0.00341711
          0.0032473
          0.00259209
          0.00213752
          0.00130127
          0.000559914
          -0.000361806
          -0.00111844
          -0.00203204
          -0.0025643
          -0.00347677
          -0.00370554
          -0.00488005
          -0.00504704
          0
          0
          0.00391207
          0.00336475
          0.00294126
          0.00214116
          0.00133697
          0.000532445
          -0.000298762
          -0.00109104
          -0.00195037
          -0.00272343
          -0.00351408
          -0.0044396
          -0.00456478
          -0.00546209
          0
          0
          0.00409883
          0.00349875
          0.00285119
          0.00204334
          0.00121314
          0.000477344
          -0.000243171
          -0.000950116
          -0.00177484
          -0.00260002
          -0.00360585
          -0.00429686
          -0.00486527
          -0.00557156
          0
          0
          0.00416391
          0.003543
          0.00281787
          0.00198988
          0.00121374
          0.000498471
          -0.000194082
          -0.000890755
          -0.00166561
          -0.00251507
          -0.00338156
          -0.00423782
          -0.0049288
          -0.00546103
          0
          0
          0.00418566
          0.00348408
          0.00281571
          0.00201477
          0.00131253
          0.00057597
          -0.000163588
          -0.000918989
          -0.00165366
          -0.00244131
          -0.00318179
          -0.00415976
          -0.0046954
          -0.0054859
          0
          0
          0.00423209
          0.00342659
          0.00286058
          0.00206538
          0.00140677
          0.000633161
          -0.00014431
          -0.000954878
          -0.00167404
          -0.00246516
          -0.00308688
          -0.00414681
          -0.00457512
          -0.00551187
          0
          0
          0.00440769
          0.00351236
          0.00302971
          0.00213907
          0.00147305
          0.000654637
          -0.000120939
          -0.00094861
          -0.00167181
          -0.0025866
          -0.00306615
          -0.00432365
          -0.00455482
          -0.00575216
          0
          0
          0.00480312
          0.00362981
          0.00330065
          0.00219995
          0.00153911
          0.000642166
          -0.000108922
          -0.000943985
          -0.00165033
          -0.00269881
          -0.00316709
          -0.00453323
          -0.00446898
          -0.00612076
          0
          0
          0.00561262
          0.00366469
          0.00369654
          0.00225542
          0.00159216
          0.000598432
          -0.000114195
          -0.000964964
          -0.00169675
          -0.00278517
          -0.00307013
          -0.00549565
          -0.00373192
          -0.00736485
          0
          0
          0.00614034
          0.00397831
          0.00422419
          0.00218648
          0.00165293
          0.000570427
          -0.00011362
          -0.000949395
          -0.00162716
          -0.00303911
          -0.00260592
          -0.0059267
          -0.00447211
          -0.00697631
          0
          0
          0.00807788
          0.00410743
          0.00435191
          0.00216782
          0.00161681
          0.000540246
          -0.000157262
          -0.00103644
          -0.00157501
          -0.00293849
          -0.00316423
          -0.00575474
          -0.00323464
          -0.0108206
          0
          0
          0.0101914
          0.00207438
          0.00505107
          0.0011175
          0.00145089
          0.000319332
          -1.35973e-05
          -0.000850278
          -0.00107381
          -0.00236122
          -0.00119903
          -0.00852712
          0.00229921
          -0.0129407
          0
          0
          0.0120789
          0.00262828
          0.00515904
          0.00123745
          0.00151579
          0.000376496
          -1.65866e-06
          -0.000888576
          -0.0012627
          -0.00296213
          -0.00136822
          -0.0098619
          -0.000396621
          -0.0151019
          0
          0
          0
          0
          0
          0
          0
          0
          0
          0
          0
          0
          0
          0
          0
          0
          0
        </DataArray>
        <DataArray type="Float32" Name="velocity" NumberOfComponents="3" format="ascii">
          0 0 0
          0 0 0
          0 0 0
          0 0 0
          0 0 0
          0 0 0
          0 0 0
          0 0 0
          0 0 0
          0 0 0
          0 0 0
          0 0 0
          0 0 0
          0 0 0
          0 0 0
          0 0 0
          0 0 0
          0.00106465 0.00286723 0
          0.00111088 0.0022594 0
          0.000912059 0.00191728 0
          0.000986539 0.00157441 0
          0.000741281 0.000955223 0
          0.000636816 0.000415016 0
          0.000558021 -0.000279376 0
          0.000586647 -0.000820279 0
          0.000796116 -0.00150625 0
          0.000884305 -0.00187064 0
          0.00138182 -0.00264502 0
          0.0011517 -0.00279664 0
          0.00169717 -0.00356807 0
          0.00182756 -0.00489752 0
          0 0 0
          0 0 0
          0.000708329 0.00341711 0
          0.000885524 0.0032473 0
          0.000691843 0.00259209 0
          0.000379516 0.00213752 0
          0.000143349 0.00130127 0
          -9.85788e-05 0.000559914 0
          -0.000186368 -0.000361806 0
          -0.000104366 -0.00111844 0
          0.000120196 -0.00203204 0
          0.000480779 -0.0025643 0
          0.000653243 -0.00347677 0
          0.00110809 -0.00370554 0
          0.0014193 -0.00488005 0
          0.000793694 -0.00504704 0
          0 0 0
          0 0 0
          0.000342943 0.00391207 0
          0.000254572 0.00336475 0
          -5.06688e-07 0.00294126 0
          -0.000339277 0.00214116 0
          -0.000713425 0.00133697 0
          -0.000943268 0.000532445 0
          -0.00102969 -0.000298762 0
          -0.000939398 -0.00109104 0
          -0.000683941 -0.00195037 0
          -0.000428116 -0.00272343 0
          2.75756e-05 -0.00351408 0
          0.00025564 -0.0044396 0
          0.000219737 -0.00456478 0
          0.000115605 -0.00546209 0
          0 0 0
          0 0 0
          0.000107568 0.00409883 0
          -0.000218038 0.00349875 0
          -0.000714844 0.00285119 0
          -0.00113672 0.00204334 0
          -0.00150257 0.00121314 0
          -0.00170502 0.000477344 0
          -0.00176932 -0.000243171 0
          -0.00171262 -0.000950116 0
          -0.00152254 -0.00177484 0
          -0.00119233 -0.00260002 0
          -0.000717298 -0.00360585 0
          -0.000457088 -0.00429686 0
          8.44238e-06 -0.00486527 0
          0.000132164 -0.00557156 0
          0 0 0
          0 0 0
          -0.000364615 0.00416391 0
          -0.000894873 0.003543 0
          -0.00151319 0.00281787 0
          -0.00197922 0.00198988 0
          -0.00227817 0.00121374 0
          -0.00241365 0.000498471 0
          -0.00246836 -0.000194082 0
          -0.00246744 -0.000890755 0
          -0.00236051 -0.00166561 0
          -0.00211757 -0.00251507 0
          -0.00170061 -0.00338156 0
          -0.00120918 -0.00423782 0
          -0.000637077 -0.0049288 0
          -0.000395607 -0.00546103 0
          0 0 0
          0 0 0
          -0.000864231 0.00418566 0
          -0.00159972 0.00348408 0
          -0.00229726 0.00281571 0
          -0.00274299 0.00201477 0
          -0.0030074 0.00131253 0
          -0.00312437 0.00057597 0
          -0.00318458 -0.000163588 0
          -0.0031956 -0.000918989 0
          -0.00312522 -0.00165366 0
          -0.00295182 -0.00244131 0
          -0.00252492 -0.00318179 0
          -0.00200611 -0.00415976 0
          -0.00128039 -0.0046954 0
          -0.000811805 -0.0054859 0
          0 0 0
          0 0 0
          -0.00142467 0.00423209 0
          -0.00229632 0.00342659 0
          -0.00304319 0.00286058 0
          -0.00344935 0.00206538 0
          -0.00372164 0.00140677 0
          -0.00387305 0.000633161 0
          -0.00395946 -0.00014431 0
          -0.00395296 -0.000954878 0
          -0.00386038 -0.00167404 0
          -0.00368546 -0.00246516 0
          -0.00331967 -0.00308688 0
          -0.00284785 -0.00414681 0
          -0.00189029 -0.00457512 0
          -0.00124153 -0.00551187 0
          0 0 0
          0 0 0
          -0.00204444 0.00440769 0
          -0.00300457 0.00351236 0
          -0.00379215 0.00302971 0
          -0.00416336 0.00213907 0
          -0.00446916 0.00147305 0
          -0.0046761 0.000654637 0
          -0.00478757 -0.000120939 0
          -0.00476007 -0.00094861 0
          -0.00464585 -0.00167181 0
          -0.00447381 -0.0025866 0
          -0.00412262 -0.00306615 0
          -0.003753 -0.00432365 0
          -0.00273647 -0.00455482 0
          -0.0019936 -0.00575216 0
          0 0 0
          0 0 0
          -0.00266336 0.00480312 0
          -0.00363976 0.00362981 0
          -0.00449837 0.00330065 0
          -0.00487205 0.00219995 0
          -0.00522749 0.00153911 0
          -0.00542778 0.000642166 0
          -0.00552643 -0.000108922 0
          -0.00548782 -0.000943985 0
          -0.00534686 -0.00165033 0
          -0.00519354 -0.00269881 0
          -0.00480956 -0.00316709 0
          -0.00436073 -0.00453323 0
          -0.00319024 -0.00446898 0
          -0.00250996 -0.00612076 0
          0 0 0
          0 0 0
          -0.00368311 0.00561262 0
          -0.00459303 0.00366469 0
          -0.00551715 0.00369654 0
          -0.00595252 0.00225542 0
          -0.00623491 0.00159216 0
          -0.00634269 0.000598432 0
          -0.00641221 -0.000114195 0
          -0.0064624 -0.000964964 0
          -0.00640776 -0.00169675 0
          -0.00625128 -0.00278517 0
          -0.00618194 -0.00307013 0
          -0.0056914 -0.00549565 0
          -0.00437818 -0.00373192 0
          -0.00412807 -0.00736485 0
          0 0 0
          0 0 0
          -0.00362343 0.00614034 0
          -0.00452809 0.00397831 0
          -0.00614201 0.00422419 0
          -0.00649686 0.00218648 0
          -0.00681881 0.00165293 0
          -0.00691141 0.000570427 0
          -0.00695162 -0.00011362 0
          -0.00691772 -0.000949395 0
          -0.00689398 -0.00162716 0
          -0.00653993 -0.00303911 0
          -0.00577714 -0.00260592 0
          -0.00603166 -0.0059267 0
          -0.00346538 -0.00447211 0
          -0.00277287 -0.00697631 0
          0 0 0
          0 0 0
          -0.00768162 0.00807788 0
          -0.00854924 0.00410743 0
          -0.00856778 0.00435191 0
          -0.00846993 0.00216782 0
          -0.00839109 0.00161681 0
          -0.00817353 0.000540246 0
          -0.00813149 -0.000157262 0
          -0.00822695 -0.00103644 0
          -0.00830816 -0.00157501 0
          -0.00900821 -0.00293849 0
          -0.00897304 -0.00316423 0
          -0.00860402 -0.00575474 0
          -0.010513 -0.00323464 0
          -0.0110248 -0.0108206 0
          0 0 0
          0 0 0
          -0.00531407 0.0101914 0
          -0.00534001 0.00207438 0
          -0.00743441 0.00505107 0
          -0.00819842 0.0011175 0
          -0.00819284 0.00145089 0
          -0.00830107 0.000319332 0
          -0.00830639 -1.35973e-05 0
          -0.00827532 -0.000850278 0
          -0.00813447 -0.00107381 0
          -0.007206 -0.00236122 0
          -0.00762146 -0.00119903 0
          -0.00566129 -0.00852712 0
          -3.32608e-05 0.00229921 0
          -0.0025101 -0.0129407 0
          0 0 0
          0 0 0
          -0.0155887 0.0120789 0
          -0.013406 0.00262828 0
          -0.0122373 0.00515904 0
          -0.0101575 0.00123745 0
          -0.00995887 0.00151579 0
          -0.00924322 0.000376496 0
          -0.00906897 -1.65866e-06 0
          -0.00918276 -0.000888576 0
          -0.00944943 -0.0012627 0
          -0.0106734 -0.00296213 0
          -0.0100316 -0.00136822 0
          -0.0141559 -0.0098619 0
          -0.0154704 -0.000396621 0
          -0.0178878 -0.0151019 0
          0 0 0
          0.0256 0 0
          0.0256 0 0
          0.0256 0 0
          0.0256 0 0
          0.0256 0 0
          0.0256 0 0
          0.0256 0 0
          0.0256 0 0
          0.0256 0 0
          0.0256 0 0
          0.0256 0 0
          0.0256 0 0
          0.0256 0 0
          0.0256 0 0
          0.0256 0 0
          0.0256 0 0
        </DataArray>
      </PointData>
      <CellData>
      </CellData>
    </Piece>
  </ImageData>
</VTKFile>
