<?xml version="1.0"?>
<VTKFile type="ImageData" version="0.1" byte_order="LittleEndian">
  <ImageData WholeExtent="0 15 0 15 0 0" Origin="0 0 0" Spacing="1 1 1">
    <Piece Extent="0 15 0 15 0 0">
      <PointData>
        <DataArray type="Float32" Name="rho" format="ascii">
          3.37606e+09
          1.85431e+07
          -2.76797e+10
          1.21493e+10
          1.08418e+10
          -8.98796e+10
          -3.13425e+11
          -2.70993e+10
          -1.34569e+12
          -1.14765e+12
          -9.15211e+12
          4.14151e+12
          2.31787e+12
          1.43909e+12
          1.61414e+12
          5.15573e+11
          1.58074e+10
          -6.06408e+10
          -9.83696e+10
          7.80322e+10
          2.68e+10
          5.92184e+11
          7.67114e+11
          3.23972e+11
          -6.36841e+12
          5.46895e+12
          -8.40841e+12
          1.93166e+13
          -5.32346e+12
          -3.99114e+12
          -1.39972e+12
          1.32007e+11
          -8.67192e+10
          -2.45877e+11
          6.24872e+10
          4.62723e+10
          7.11685e+10
          -2.69576e+12
          -1.66181e+11
          2.23792e+12
          -5.11333e+12
          7.41995e+12
          -6.8734e+11
          9.07119e+12
          -9.97516e+12
          -5.93438e+11
          -1.51061e+11
          -2.29774e+11
          -8.45937e+10
          1.86611e+11
          1.35644e+12
          1.21639e+12
          3.2325e+12
          2.4178e+12
          -4.18014e+12
          9.7316e+12
          -4.88664e+12
          -1.48932e+11
          8.42487e+10
          -2.39384e+12
          -3.13401e+12
          2.13275e+12
          -1.3124e+12
          -5.28324e+11
          4.91173e+09
          6.71918e+10
          -8.60252e+11
          -1.32467e+12
          -3.70995e+12
          -2.64227e+12
          -8.07289e+11
          -9.34751e+12
          -7.53411e+12
          -1.08372e+12
          9.22015e+11
          -7.19595e+11
          -8.4397e+11
          5.87969e+11
          -8.0729e+11
          -5.47586e+11
          6.12427e+11
          4.24394e+11
          -2.91747e+11
          -3.04554e+12
          -1.36161e+11
          -1.17305e+12
          8.96887e+12
          2.17146e+13
          6.44941e+12
          -1.46114e+12
          3.38393e+11
          -1.02196e+09
          -2.88206e+12
          -2.1676e+12
          -1.47671e+12
          9.27492e+11
          -3.06004e+11
          -3.47936e+11
          8.48839e+11
          -4.34937e+12
          9.33928e+12
          1.27062e+12
          -7.59935e+12
          -9.31826e+12
          2.9058e+12
          -4.40088e+11
          -2.21259e+11
          1.35722e+12
          2.8393e+12
          5.5298e+12
          -2.77037e+11
          2.58854e+11
          -7.03418e+11
          -2.024e+12
          -3.76834e+12
          -1.29718e+12
          4.11157e+12
          -5.09583e+12
          -2.47652e+12
          -3.64187e+12
          6.07634e+12
          -3.16631e+12
          1.34458e+12
          -2.70755e+11
          -1.77914e+12
          -2.53986e+11
          8.26819e+11
          -1.52367e+11
          -2.20868e+11
          1.46102e+12
          2.53915e+12
          -6.03024e+12
          1.08316e+13
          6.2197e+12
          6.93419e+10
          -1.5915e+13
          5.00828e+11
          3.74959e+11
          -1.05159e+12
          1.04179e+12
          3.95826e+11
          -1.79184e+11
          2.16261e+11
          -6.12105e+10
          -1.30034e+11
          4.31895e+12
          3.31299e+12
          -2.03694e+12
          -8.42037e+12
          2.01371e+12
          6.58871e+12
          5.44395e+12
          -2.08487e+12
          2.36759e+12
          -5.02499e+12
          2.43044e+12
          -2.61276e+10
          -4.54038e+11
          -1.3057e+11
          -7.89287e+10
          2.24178e+12
          1.66484e+13
          2.69112e+13
          2.88709e+13
          2.50925e+13
          8.8802e+12
          -3.088e+12
          -3.81479e+11
          -1.44859e+12
          2.68305e+12
          -1.03679e+12
          3.27295e+10
          -2.18403e+11
          -1.1511e+11
          7.35923e+10
          1.62181e+10
          3.49737e+10
          -1.85799e+13
          -3.29597e+13
          -2.91122e+13
          -2.84027e+13
          1.504e+13
          2.46579e+12
          -3.31021e+12
          2.57934e+11
          1.2728e+12
          -3.49263e+11
          7.04093e+11
          6.13491e+11
          -7.42809e+10
          6.32501e+10
          -8.11523e+08
          3.73841e+15
          -1.34529e+15
          -1.50885e+15
          -1.1208e+15
          -1.3301e+13
          2.34916e+13
          2.93548e+12
          1.41987e+12
          1.83721e+11
          -1.00653e+11
          -1.70702e+11
          -3.54466e+11
          2.82022e+11
          -4.41329e+11
          4.95405e+10
          -2.38802e+10
          1.92223e+14
          1.49115e+15
          2.56317e+15
          -1.52281e+15
          -1.79642e+13
          2.73025e+13
          -9.96472e+11
          -1.1752e+12
          4.45865e+11
          1.72825e+11
          6.11792e+10
          1.1541e+11
          8.90222e+11
          -5.79835e+11
          7.59816e+10
          -3.47281e+10
          4.70679e+14
          1.56531e+17
          1.49794e+15
          -1.36071e+15
          -9.70221e+11
          2.44873e+13
          -4.79396e+12
          -4.0298e+11
          -1.30936e+11
          -8.62127e+10
          -1.60643e+11
          2.82223e+11
          -1.57062e+11
          -5.98849e+11
          3.63637e+11
          1.61002e+09
          -3.59766e+14
          4.60526e+14
          3.85154e+14
          -2.71358e+14
          3.75469e+12
          6.21718e+12
          -9.23011e+12
          -2.89547e+11
          4.50181e+10
          3.96801e+10
          3.98843e+09
          -3.4298e+10
          -2.3436e+10
          -9.11355e+09
          9.60214e+10
          -6.55327e+10
        </DataArray>
        <DataArray type="Float32" Name="ux" format="ascii">
          0
          0
          0
          0
          0
          0
          0
          0
          0
          0
          0
          0
          0
          0
          0
          0
          0
          -1.06933
          -0.568466
          -1.24097
          6.73923
          0.0209345
          1.48139
          -0.590764
          -0.910106
          -0.324089
          -0.537417
          0.0962905
          0.867421
          0.0282543
          0.31351
          0
          0
          -0.778831
          -0.00245158
          1.11501
          -4.67375
          0.0081178
          -4.40293
          -0.074866
          -0.0310442
          -0.0524262
          2.56131
          0.122338
          0.822085
          1.0458
          -3.67683
          0
          0
          -0.985258
          -0.330975
          -0.366963
          -0.397797
          0.0876147
          -1.16196
          0.0237044
          0.447787
          -1.73386
          4.55933
          0.0720945
          1.03457
          -0.364828
          -0.560837
          0
          0
          5.37957
          0.88777
          -0.522632
          0.0331881
          -0.283969
          -2.52232
          0.0250745
          0.813743
          1.59572
          -0.344375
          -0.465621
          -0.556719
          -0.673889
          0.00771811
          0
          0
          0.113458
          -1.07328
          -1.05351
          -0.444418
          -2.30714
          -0.460194
          -0.117052
          0.40475
          0.268127
          -0.421882
          373.721
          -0.126711
          0.141548
          1.04908
          0
          0
          1.04557
          0.392732
          -1.02247
          -0.23492
          -1.1235
          -0.925335
          0.0864059
          1.04284
          2.43456
          -3.84876
          -0.900202
          0.358109
          0.102038
          3.62919
          0
          0
          -0.59189
          -0.147589
          -2.17423
          -0.275526
          1.35833
          -0.835459
          0.123943
          0.885987
          0.293317
          0.0534456
          -1.08631
          -0.423689
          2.53966
          0.0429191
          0
          0
          -0.335936
          0.323745
          -0.525977
          -0.198497
          -0.12839
          -38.8737
          -0.00301517
          0.900399
          -1.98445
          0.314484
          0.954684
          0.0923356
          -0.919694
          0.314307
          0
          0
          -0.144345
          -0.16003
          -1.47297
          -0.186434
          0.309882
          -0.853435
          -0.0912444
          0.482386
          -0.823274
          0.00490939
          0.972928
          1.91678
          0.236421
          -0.136871
          0
          0
          -0.16214
          0.0472337
          0.215661
          0.477284
          1.52275
          0.413927
          -0.736856
          -0.598277
          -0.00454529
          -0.347186
          6.09098
          0.990941
          0.582539
          0.682007
          0
          0
          -0.071896
          -0.146406
          0.0474296
          0.00631862
          0.810549
          0.149557
          -0.360348
          -3.33788
          0.729117
          0.0437566
          -0.0521917
          0.242586
          -0.224242
          0.348452
          0
          0
          0.002655
          0.270056
          1.0161
          0.608224
          0.957578
          0.0389656
          -0.354333
          1.04789
          -1.40545
          -0.0267834
          -1.55874
          0.806757
          0.883234
          -0.123688
          0
          0
          0.0989051
          0.109012
          0.998866
          0.127586
          1.06281
          1.42814
          0.584509
          0.701941
          0.405703
          0.323638
          2.01058
          0.153251
          0.706913
          0.0608478
          0
          0
          1.01257
          0.281808
          0.99324
          1.01339
          0.803282
          1.08629
          0.84155
          -0.477891
          0.000884976
          -0.197734
          -0.0662633
          0.51229
          0.112538
          -0.00434887
          0
          0.0256
          0.0256
          0.0256
          0.0256
          0.0256
          0.0256
          0.0256
          0.0256
          0.0256
          0.0256
          0.0256
          0.0256
          0.0256
          0.0256
          0.0256
          0.0256
        </DataArray>
        <DataArray type="Float32" Name="uy" format="ascii">
          0
          0
          0
          0
          0
          0
          0
          0
          0
          0
          0
          0
          0
          0
          0
          0
          0
          -0.876173
          -0.711691
          -0.549007
          -1.6891
          -0.895851
          -1.00374
          -0.340866
          0.382299
          -0.0196696
          -0.945403
          0.0485113
          -0.141031
          -0.20326
          -0.339252
          0
          0
          -0.606625
          0.494568
          -0.0476037
          0.308207
          0.0726853
          0.191148
          -0.640093
          -0.127756
          0.221681
          -3.19576
          -0.0121092
          0.445547
          -2.17054
          -6.18757
          0
          0
          -1.78726
          -0.812136
          -1.21314
          -0.419484
          -0.485667
          0.173516
          0.0185318
          0.492616
          -0.545096
          7.06421
          1.1513
          1.32266
          -0.123159
          -0.40599
          0
          0
          -1.74473
          -0.0751956
          -0.456836
          -0.413897
          -0.966727
          4.72581
          -1.06536
          -1.10059
          -1.54082
          -0.324098
          -0.00561714
          0.321308
          -0.71642
          0.317058
          0
          0
          1.97462
          -0.72039
          -1.09303
          -14.1469
          -0.178747
          -0.0928482
          -0.036268
          -0.0540729
          0.245965
          -2.428
          -745.328
          -0.458424
          0.560519
          -0.357008
          0
          0
          3.19999
          -0.892502
          -0.476391
          -0.10464
          -1.68675
          0.829588
          1.48602
          -0.668394
          -0.546056
          2.34252
          0.302586
          0.382113
          0.301619
          -4.78719
          0
          0
          0.238104
          -0.0439679
          2.45999
          0.117233
          -0.144184
          -0.826488
          1.32547
          -0.934065
          0.00476791
          0.299565
          -0.91004
          1.21046
          -0.350617
          -0.105096
          0
          0
          -0.83289
          0.831051
          -0.209117
          -0.0370253
          -0.0986281
          47.8847
          -0.307212
          0.827752
          -2.42985
          -1.25685
          -0.914075
          0.28291
          0.878932
          -0.453852
          0
          0
          -0.916603
          -0.194651
          0.827279
          0.46223
          -0.898405
          0.865653
          0.632684
          1.26257
          0.0303308
          0.055942
          -0.0192439
          6.72042
          0.481537
          1.19476
          0
          0
          -1.54014
          -1.05739
          -0.848442
          -0.878545
          -1.55937
          0.291746
          7.93379
          0.868371
          0.551338
          0.741346
          13.7975
          -1.53612
          -0.517447
          0.215267
          0
          0
          -0.938129
          -0.262857
          -0.250589
          -0.0124584
          -0.230563
          1.18887
          -0.427036
          3.21523
          0.78661
          -0.0870457
          -0.115942
          -0.170235
          -2.03543
          0.338492
          0
          0
          -1.00152
          -1.01149
          -1.02224
          -0.579806
          -0.422958
          0.220412
          1.50483
          -0.489679
          -0.381451
          0.887047
          -0.252279
          -1.27141
          0.15952
          0.190852
          0
          0
          -0.279391
          -0.111109
          -0.266415
          0.513808
          -0.0986431
          -1.65713
          0.0582556
          0.230177
          0.544906
          2.16982
          0.967962
          0.145036
          0.0687211
          -1.32433
          0
          0
          -1.01257
          -0.0955689
          -0.00181166
          1.30717
          0.231069
          -0.0915386
          0.314569
          1.15038
          1.31465
          0.0226822
          0.193665
          0.695451
          0.566914
          -0.123748
          0
          0
          0
          0
          0
          0
          0
          0
          0
          0
          0
          0
          0
          0
          0
          0
          0
        </DataArray>
        <DataArray type="Float32" Name="velocity" NumberOfComponents="3" format="ascii">
          0 0 0
          0 0 0
          0 0 0
          0 0 0
          0 0 0
          0 0 0
          0 0 0
          0 0 0
          0 0 0
          0 0 0
          0 0 0
          0 0 0
          0 0 0
          0 0 0
          0 0 0
          0 0 0
          0 0 0
          -1.06933 -0.876173 0
          -0.568466 -0.711691 0
          -1.24097 -0.549007 0
          6.73923 -1.6891 0
          0.0209345 -0.895851 0
          1.48139 -1.00374 0
          -0.590764 -0.340866 0
          -0.910106 0.382299 0
          -0.324089 -0.0196696 0
          -0.537417 -0.945403 0
          0.0962905 0.0485113 0
          0.867421 -0.141031 0
          0.0282543 -0.20326 0
          0.31351 -0.339252 0
          0 0 0
          0 0 0
          -0.778831 -0.606625 0
          -0.00245158 0.494568 0
          1.11501 -0.0476037 0
          -4.67375 0.308207 0
          0.0081178 0.0726853 0
          -4.40293 0.191148 0
          -0.074866 -0.640093 0
          -0.0310442 -0.127756 0
          -0.0524262 0.221681 0
          2.56131 -3.19576 0
          0.122338 -0.0121092 0
          0.822085 0.445547 0
          1.0458 -2.17054 0
          -3.67683 -6.18757 0
          0 0 0
          0 0 0
          -0.985258 -1.78726 0
          -0.330975 -0.812136 0
          -0.366963 -1.21314 0
          -0.397797 -0.419484 0
          0.0876147 -0.485667 0
          -1.16196 0.173516 0
          0.0237044 0.0185318 0
          0.447787 0.492616 0
          -1.73386 -0.545096 0
          4.55933 7.06421 0
          0.0720945 1.1513 0
          1.03457 1.32266 0
          -0.364828 -0.123159 0
          -0.560837 -0.40599 0
          0 0 0
          0 0 0
          5.37957 -1.74473 0
          0.88777 -0.0751956 0
          -0.522632 -0.456836 0
          0.0331881 -0.413897 0
          -0.283969 -0.966727 0
          -2.52232 4.72581 0
          0.0250745 -1.06536 0
          0.813743 -1.10059 0
          1.59572 -1.54082 0
          -0.344375 -0.324098 0
          -0.465621 -0.00561714 0
          -0.556719 0.321308 0
          -0.673889 -0.71642 0
          0.00771811 0.317058 0
          0 0 0
          0 0 0
          0.113458 1.97462 0
          -1.07328 -0.72039 0
          -1.05351 -1.09303 0
          -0.444418 -14.1469 0
          -2.30714 -0.178747 0
          -0.460194 -0.0928482 0
          -0.117052 -0.036268 0
          0.40475 -0.0540729 0
          0.268127 0.245965 0
          -0.421882 -2.428 0
          373.721 -745.328 0
          -0.126711 -0.458424 0
          0.141548 0.560519 0
          1.04908 -0.357008 0
          0 0 0
          0 0 0
          1.04557 3.19999 0
          0.392732 -0.892502 0
          -1.02247 -0.476391 0
          -0.23492 -0.10464 0
          -1.1235 -1.68675 0
          -0.925335 0.829588 0
          0.0864059 1.48602 0
          1.04284 -0.668394 0
          2.43456 -0.546056 0
          -3.84876 2.34252 0
          -0.900202 0.302586 0
          0.358109 0.382113 0
          0.102038 0.301619 0
          3.62919 -4.78719 0
          0 0 0
          0 0 0
          -0.59189 0.238104 0
          -0.147589 -0.0439679 0
          -2.17423 2.45999 0
          -0.275526 0.117233 0
          1.35833 -0.144184 0
          -0.835459 -0.826488 0
          0.123943 1.32547 0
          0.885987 -0.934065 0
          0.293317 0.00476791 0
          0.0534456 0.299565 0
          -1.08631 -0.91004 0
          -0.423689 1.21046 0
          2.53966 -0.350617 0
          0.0429191 -0.105096 0
          0 0 0
          0 0 0
          -0.335936 -0.83289 0
          0.323745 0.831051 0
          -0.525977 -0.209117 0
          -0.198497 -0.0370253 0
          -0.12839 -0.0986281 0
          -38.8737 47.8847 0
          -0.00301517 -0.307212 0
          0.900399 0.827752 0
          -1.98445 -2.42985 0
          0.314484 -1.25685 0
          0.954684 -0.914075 0
          0.0923356 0.28291 0
          -0.919694 0.878932 0
          0.314307 -0.453852 0
          0 0 0
          0 0 0
          -0.144345 -0.916603 0
          -0.16003 -0.194651 0
          -1.47297 0.827279 0
          -0.186434 0.46223 0
          0.309882 -0.898405 0
          -0.853435 0.865653 0
          -0.0912444 0.632684 0
          0.482386 1.26257 0
          -0.823274 0.0303308 0
          0.00490939 0.055942 0
          0.972928 -0.0192439 0
          1.91678 6.72042 0
          0.236421 0.481537 0
          -0.136871 1.19476 0
          0 0 0
          0 0 0
          -0.16214 -1.54014 0
          0.0472337 -1.05739 0
          0.215661 -0.848442 0
          0.477284 -0.878545 0
          1.52275 -1.55937 0
          0.413927 0.291746 0
          -0.736856 7.93379 0
          -0.598277 0.868371 0
          -0.00454529 0.551338 0
          -0.347186 0.741346 0
          6.09098 13.7975 0
          0.990941 -1.53612 0
          0.582539 -0.517447 0
          0.682007 0.215267 0
          0 0 0
          0 0 0
          -0.071896 -0.938129 0
          -0.146406 -0.262857 0
          0.0474296 -0.250589 0
          0.00631862 -0.0124584 0
          0.810549 -0.230563 0
          0.149557 1.18887 0
          -0.360348 -0.427036 0
          -3.33788 3.21523 0
          0.729117 0.78661 0
          0.0437566 -0.0870457 0
          -0.0521917 -0.115942 0
          0.242586 -0.170235 0
          -0.224242 -2.03543 0
          0.348452 0.338492 0
          0 0 0
          0 0 0
          0.002655 -1.00152 0
          0.270056 -1.01149 0
          1.0161 -1.02224 0
          0.608224 -0.579806 0
          0.957578 -0.422958 0
          0.0389656 0.220412 0
          -0.354333 1.50483 0
          1.04789 -0.489679 0
          -1.40545 -0.381451 0
          -0.0267834 0.887047 0
          -1.55874 -0.252279 0
          0.806757 -1.27141 0
          0.883234 0.15952 0
          -0.123688 0.190852 0
          0 0 0
          0 0 0
          0.0989051 -0.279391 0
          0.109012 -0.111109 0
          0.998866 -0.266415 0
          0.127586 0.513808 0
          1.06281 -0.0986431 0
          1.42814 -1.65713 0
          0.584509 0.0582556 0
          0.701941 0.230177 0
          0.405703 0.544906 0
          0.323638 2.16982 0
          2.01058 0.967962 0
          0.153251 0.145036 0
          0.706913 0.0687211 0
          0.0608478 -1.32433 0
          0 0 0
          0 0 0
          1.01257 -1.01257 0
          0.281808 -0.0955689 0
          0.99324 -0.00181166 0
          1.01339 1.30717 0
          0.803282 0.231069 0
          1.08629 -0.0915386 0
          0.84155 0.314569 0
          -0.477891 1.15038 0
          0.000884976 1.31465 0
          -0.197734 0.0226822 0
          -0.0662633 0.193665 0
          0.51229 0.695451 0
          0.112538 0.566914 0
          -0.00434887 -0.123748 0
          0 0 0
          0.0256 0 0
          0.0256 0 0
          0.0256 0 0
          0.0256 0 0
          0.0256 0 0
          0.0256 0 0
          0.0256 0 0
          0.0256 0 0
          0.0256 0 0
          0.0256 0 0
          0.0256 0 0
          0.0256 0 0
          0.0256 0 0
          0.0256 0 0
          0.0256 0 0
          0.0256 0 0
        </DataArray>
      </PointData>
      <CellData>
      </CellData>
    </Piece>
  </ImageData>
</VTKFile>
