<?xml version="1.0"?>
<VTKFile type="ImageData" version="0.1" byte_order="LittleEndian">
  <ImageData WholeExtent="0 15 0 15 0 0" Origin="0 0 0" Spacing="1 1 1">
    <Piece Extent="0 15 0 15 0 0">
      <PointData>
        <DataArray type="Float32" Name="rho" format="ascii">
          0.998338
          1.00007
          0.997474
          1.00078
          0.99756
          0.998683
          0.996587
          0.996329
          0.994682
          0.994358
          0.992257
          0.993883
          0.987803
          0.99805
          0.987838
          0.993434
          0.997562
          0.997936
          0.998089
          0.997886
          0.997685
          0.997475
          0.997217
          0.996898
          0.996675
          0.99637
          0.996194
          0.995905
          0.995925
          0.995558
          0.99611
          0.995376
          0.997624
          0.998182
          0.997996
          0.99788
          0.997689
          0.997441
          0.997191
          0.996958
          0.996611
          0.996443
          0.996122
          0.996007
          0.99584
          0.995712
          0.995507
          0.996173
          0.997253
          0.998071
          0.997999
          0.997845
          0.997686
          0.997445
          0.997166
          0.996932
          0.996689
          0.996352
          0.996219
          0.995991
          0.995762
          0.995751
          0.995712
          0.996191
          0.997318
          0.998062
          0.99801
          0.997834
          0.997618
          0.997463
          0.997204
          0.996851
          0.996692
          0.996429
          0.996152
          0.995954
          0.995873
          0.995673
          0.99559
          0.996259
          0.996989
          0.998074
          0.997932
          0.997865
          0.997641
          0.99737
          0.997203
          0.996975
          0.99656
          0.99647
          0.996154
          0.995982
          0.995799
          0.995682
          0.995615
          0.996271
          0.996787
          0.998029
          0.997981
          0.997753
          0.997711
          0.997397
          0.997107
          0.996993
          0.996693
          0.99627
          0.996298
          0.995916
          0.995796
          0.995669
          0.995586
          0.996342
          0.996555
          0.998118
          0.997935
          0.997875
          0.997512
          0.997547
          0.997218
          0.9967
          0.996843
          0.996461
          0.995947
          0.996134
          0.995704
          0.995655
          0.99545
          0.996348
          0.996195
          0.997926
          0.998049
          0.997785
          0.997735
          0.997329
          0.997199
          0.997128
          0.99634
          0.99661
          0.996238
          0.99564
          0.995978
          0.995407
          0.995664
          0.996419
          0.996187
          0.99837
          0.997895
          0.99791
          0.997752
          0.997356
          0.997241
          0.996963
          0.996852
          0.995981
          0.996471
          0.995956
          0.995395
          0.99594
          0.994935
          0.99631
          0.994969
          0.997786
          0.998197
          0.997984
          0.997443
          0.997835
          0.997142
          0.996787
          0.99685
          0.996651
          0.995471
          0.996466
          0.995483
          0.994861
          0.996017
          0.996601
          0.996787
          0.998819
          0.998134
          0.997654
          0.998218
          0.997215
          0.997352
          0.997191
          0.996334
          0.996549
          0.996632
          0.994502
          0.996482
          0.99537
          0.993907
          0.996111
          0.990759
          0.997462
          0.998121
          0.998666
          0.997445
          0.997702
          0.997413
          0.996866
          0.996992
          0.99608
          0.996022
          0.996564
          0.994336
          0.99593
          0.996037
          0.99654
          0.995225
          0.999781
          0.998168
          0.997934
          0.997919
          0.997811
          0.99721
          0.997216
          0.996562
          0.996801
          0.99547
          0.996018
          0.995898
          0.993179
          0.991453
          0.998294
          0.97561
          0.996659
          0.999299
          0.997608
          0.998597
          0.997182
          0.997812
          0.996825
          0.997073
          0.995981
          0.996649
          0.994515
          0.996001
          0.991836
          1.00146
          0.999871
          0.941928
          0.988985
          0.99541
          0.998916
          0.998058
          0.998291
          0.997464
          0.99733
          0.996431
          0.996316
          0.995041
          0.995776
          0.992752
          0.99803
          0.991534
          1.02015
        </DataArray>
        <DataArray type="Float32" Name="ux" format="ascii">
          0
          0
          0
          0
          0
          0
          0
          0
          0
          0
          0
          0
          0
          0
          0
          0
          0
          -0.000594224
          -0.000551163
          -0.000381113
          -8.02236e-06
          -1.93178e-05
          0.000135534
          0.000250186
          0.000233805
          0.00018754
          -8.73178e-06
          0.000165701
          -0.00060842
          -0.000422812
          -0.000220899
          0
          0
          -0.000249754
          0.000184244
          -0.000190044
          -5.36079e-05
          0.000265316
          0.000147393
          0.000226004
          0.000299145
          0.000159851
          0.000390345
          -0.000177079
          -0.000111216
          0.000506077
          -0.000498319
          0
          0
          -0.000846034
          -0.000516289
          -0.000326672
          -0.000413367
          -0.000379272
          4.30915e-05
          -0.00024018
          -0.000282648
          4.28631e-05
          -0.00052987
          -0.000392861
          -0.000369491
          -0.000874966
          -0.00122233
          0
          0
          -0.00058152
          -0.000302055
          -0.00042456
          6.41533e-06
          -0.000271878
          -0.000250208
          0.000141765
          3.17626e-05
          -0.000323121
          2.13349e-06
          7.78944e-05
          -0.000547192
          8.7083e-06
          -0.000613995
          0
          0
          -0.000817286
          -0.000290813
          -0.000736182
          -0.000378789
          -0.000157159
          -0.000565155
          -0.000302528
          -7.5634e-05
          -0.000417168
          -0.000306885
          -0.000516792
          -0.000647647
          -0.000253144
          -0.00126348
          0
          0
          -0.00114182
          -0.000575832
          -0.000629443
          -0.000798332
          -0.000645806
          0.00013625
          -0.000858743
          -0.000657998
          0.00031631
          -0.000728549
          -0.000656819
          -0.000497742
          -0.000463723
          -0.00137184
          0
          0
          -0.00102034
          -0.000459485
          -0.000773696
          -0.000346422
          -0.000643631
          -0.000561996
          0.000123265
          -0.00058028
          -0.000744024
          0.000265808
          -0.000448003
          -0.000830554
          -6.72918e-06
          -0.00145947
          0
          0
          -0.00186409
          -0.00113148
          -0.00158049
          -0.000829321
          -0.000903785
          -0.00164414
          -0.000607774
          1.22844e-05
          -0.00156151
          -0.00100124
          9.97886e-06
          -0.00120058
          -0.000754248
          -0.00209427
          0
          0
          -0.000755244
          -0.000275799
          -0.000491273
          -0.000683094
          -0.000843425
          0.00063083
          -0.00122143
          -0.000415882
          0.00169445
          -0.00123146
          -0.000335953
          0.00101822
          0.000494753
          -0.00117471
          0
          0
          -0.00398974
          -0.00248005
          -0.0029997
          -0.00305216
          -0.00190148
          -0.00245715
          -0.0015384
          -0.00268419
          -0.00225147
          0.000385202
          -0.00370664
          -0.00237305
          -0.000253134
          -0.00500986
          0
          0
          0.00123832
          0.000933099
          -0.000692003
          0.00194287
          0.000234585
          0.000306175
          0.00145236
          0.00219981
          0.000229231
          0.00155085
          0.00635391
          0.00056692
          0.00418018
          0.00455092
          0
          0
          -0.00852389
          -0.00763785
          -0.00497621
          -0.00701994
          -0.00659093
          -0.0051486
          -0.00644912
          -0.0057721
          -0.00398102
          -0.00798571
          -0.00697959
          -0.00140539
          -0.0116354
          -0.0157772
          0
          0
          0.00274219
          0.00679631
          0.00199894
          0.00348488
          0.00460409
          0.0034415
          0.00458402
          0.00463735
          0.00477132
          0.00834247
          0.00459229
          0.00672001
          0.0173071
          0.00722665
          0
          0
          -0.0128114
          -0.014523
          -0.0122032
          -0.010321
          -0.011456
          -0.0102075
          -0.0111361
          -0.0119289
          -0.0129697
          -0.015448
          -0.0135343
          -0.0213858
          -0.0211966
          -0.0131389
          0
          0.0256
          0.0256
          0.0256
          0.0256
          0.0256
          0.0256
          0.0256
          0.0256
          0.0256
          0.0256
          0.0256
          0.0256
          0.0256
          0.0256
          0.0256
          0.0256
        </DataArray>
        <DataArray type="Float32" Name="uy" format="ascii">
          0
          0
          0
          0
          0
          0
          0
          0
          0
          0
          0
          0
          0
          0
          0
          0
          0
          0.000427667
          -7.67666e-05
          0.000520295
          -1.94482e-05
          0.000356724
          -0.000285903
          -0.00014106
          -0.000549001
          -0.000547297
          -0.000993823
          -0.000852015
          -0.00143627
          -0.00018085
          -0.0015707
          0
          0
          0.000517629
          1.67228e-05
          0.000654959
          -0.000310246
          0.000495018
          -0.000284637
          -0.000242825
          -0.000415556
          -0.00044798
          -0.00115958
          -0.000226648
          -0.00174962
          -0.000375686
          -0.00144293
          0
          0
          0.000662892
          -0.00033019
          0.00102186
          -0.000413505
          0.00028804
          -0.000146784
          -3.53404e-05
          -0.000507334
          -0.000341189
          -0.000764614
          7.83721e-05
          -0.00222179
          0.000775118
          -0.00177358
          0
          0
          0.000952206
          -0.000407764
          0.000862218
          -0.000112115
          0.000274378
          -0.000383785
          0.000235379
          -0.000529331
          -0.000270967
          -0.000631326
          -0.000167932
          -0.00174703
          0.0008
          -0.00197396
          0
          0
          0.00103972
          -0.000365361
          0.00108708
          -0.000598279
          0.000892492
          -0.000371039
          -0.000364467
          0.000143958
          -0.000136666
          -0.0012352
          0.000795323
          -0.00232491
          0.00120318
          -0.001947
          0
          0
          0.00135042
          -0.000564896
          0.00154541
          -0.000639618
          0.000587654
          -5.59518e-05
          6.72706e-05
          -0.000692764
          0.000218343
          -0.00075666
          0.000472656
          -0.0025953
          0.00182119
          -0.00235246
          0
          0
          0.00157632
          -0.000681998
          0.00161988
          -0.000218794
          0.000223133
          -0.000288752
          0.000833343
          -0.000914967
          -0.000447802
          -2.937e-05
          0.000527243
          -0.00310487
          0.00247026
          -0.0025727
          0
          0
          0.00218702
          -0.000929813
          0.00223915
          -0.00110982
          0.00152624
          -0.000604047
          -0.000519314
          0.000747513
          -0.000450925
          -0.0019557
          0.0023487
          -0.00423535
          0.00325783
          -0.00311243
          0
          0
          0.00213443
          -0.00052304
          0.00187208
          -0.000546736
          0.00115964
          -0.000498553
          -8.55877e-06
          -0.00115538
          0.00124653
          -0.00164548
          3.39873e-05
          -0.00266887
          0.0031325
          -0.00285188
          0
          0
          0.00360135
          -0.00172652
          0.00339709
          -0.000515935
          0.0001771
          -1.4673e-05
          0.000669028
          -0.00161962
          -0.00104689
          0.000918261
          0.000379653
          -0.00730591
          0.00773418
          -0.00493474
          0
          0
          0.00297697
          -0.000790186
          0.00365965
          -0.00244366
          0.00218513
          -0.00117921
          -0.000186709
          -0.000126655
          -0.00111346
          -0.00321654
          0.00485597
          -0.00834124
          0.00475713
          -0.000719663
          0
          0
          0.00530055
          -0.000377312
          0.00202129
          9.79946e-05
          0.00117725
          -0.000988954
          -0.000376761
          -0.0014582
          0.000207879
          -0.00331595
          -0.00188022
          -0.00320262
          0.00651285
          -0.00581602
          0
          0
          0.00520443
          -0.00380279
          0.00570231
          -0.00199598
          0.00124508
          -0.00103233
          -0.000122738
          -0.00209149
          -0.000446879
          -0.00127465
          -9.55803e-05
          -0.0117482
          0.0203559
          -0.00712546
          0
          0
          0.00426818
          -0.00113034
          0.00583105
          -0.00305389
          0.00241991
          -0.00153172
          -0.00021663
          -0.00210687
          -0.0011985
          -0.0042445
          0.00232452
          -0.0148312
          0.0101009
          -0.00445097
          0
          0
          0
          0
          0
          0
          0
          0
          0
          0
          0
          0
          0
          0
          0
          0
          0
        </DataArray>
        <DataArray type="Float32" Name="velocity" NumberOfComponents="3" format="ascii">
          0 0 0
          0 0 0
          0 0 0
          0 0 0
          0 0 0
          0 0 0
          0 0 0
          0 0 0
          0 0 0
          0 0 0
          0 0 0
          0 0 0
          0 0 0
          0 0 0
          0 0 0
          0 0 0
          0 0 0
          -0.000594224 0.000427667 0
          -0.000551163 -7.67666e-05 0
          -0.000381113 0.000520295 0
          -8.02236e-06 -1.94482e-05 0
          -1.93178e-05 0.000356724 0
          0.000135534 -0.000285903 0
          0.000250186 -0.00014106 0
          0.000233805 -0.000549001 0
          0.00018754 -0.000547297 0
          -8.73178e-06 -0.000993823 0
          0.000165701 -0.000852015 0
          -0.00060842 -0.00143627 0
          -0.000422812 -0.00018085 0
          -0.000220899 -0.0015707 0
          0 0 0
          0 0 0
          -0.000249754 0.000517629 0
          0.000184244 1.67228e-05 0
          -0.000190044 0.000654959 0
          -5.36079e-05 -0.000310246 0
          0.000265316 0.000495018 0
          0.000147393 -0.000284637 0
          0.000226004 -0.000242825 0
          0.000299145 -0.000415556 0
          0.000159851 -0.00044798 0
          0.000390345 -0.00115958 0
          -0.000177079 -0.000226648 0
          -0.000111216 -0.00174962 0
          0.000506077 -0.000375686 0
          -0.000498319 -0.00144293 0
          0 0 0
          0 0 0
          -0.000846034 0.000662892 0
          -0.000516289 -0.00033019 0
          -0.000326672 0.00102186 0
          -0.000413367 -0.000413505 0
          -0.000379272 0.00028804 0
          4.30915e-05 -0.000146784 0
          -0.00024018 -3.53404e-05 0
          -0.000282648 -0.000507334 0
          4.28631e-05 -0.000341189 0
          -0.00052987 -0.000764614 0
          -0.000392861 7.83721e-05 0
          -0.000369491 -0.00222179 0
          -0.000874966 0.000775118 0
          -0.00122233 -0.00177358 0
          0 0 0
          0 0 0
          -0.00058152 0.000952206 0
          -0.000302055 -0.000407764 0
          -0.00042456 0.000862218 0
          6.41533e-06 -0.000112115 0
          -0.000271878 0.000274378 0
          -0.000250208 -0.000383785 0
          0.000141765 0.000235379 0
          3.17626e-05 -0.000529331 0
          -0.000323121 -0.000270967 0
          2.13349e-06 -0.000631326 0
          7.78944e-05 -0.000167932 0
          -0.000547192 -0.00174703 0
          8.7083e-06 0.0008 0
          -0.000613995 -0.00197396 0
          0 0 0
          0 0 0
          -0.000817286 0.00103972 0
          -0.000290813 -0.000365361 0
          -0.000736182 0.00108708 0
          -0.000378789 -0.000598279 0
          -0.000157159 0.000892492 0
          -0.000565155 -0.000371039 0
          -0.000302528 -0.000364467 0
          -7.5634e-05 0.000143958 0
          -0.000417168 -0.000136666 0
          -0.000306885 -0.0012352 0
          -0.000516792 0.000795323 0
          -0.000647647 -0.00232491 0
          -0.000253144 0.00120318 0
          -0.00126348 -0.001947 0
          0 0 0
          0 0 0
          -0.00114182 0.00135042 0
          -0.000575832 -0.000564896 0
          -0.000629443 0.00154541 0
          -0.000798332 -0.000639618 0
          -0.000645806 0.000587654 0
          0.00013625 -5.59518e-05 0
          -0.000858743 6.72706e-05 0
          -0.000657998 -0.000692764 0
          0.00031631 0.000218343 0
          -0.000728549 -0.00075666 0
          -0.000656819 0.000472656 0
          -0.000497742 -0.0025953 0
          -0.000463723 0.00182119 0
          -0.00137184 -0.00235246 0
          0 0 0
          0 0 0
          -0.00102034 0.00157632 0
          -0.000459485 -0.000681998 0
          -0.000773696 0.00161988 0
          -0.000346422 -0.000218794 0
          -0.000643631 0.000223133 0
          -0.000561996 -0.000288752 0
          0.000123265 0.000833343 0
          -0.00058028 -0.000914967 0
          -0.000744024 -0.000447802 0
          0.000265808 -2.937e-05 0
          -0.000448003 0.000527243 0
          -0.000830554 -0.00310487 0
          -6.72918e-06 0.00247026 0
          -0.00145947 -0.0025727 0
          0 0 0
          0 0 0
          -0.00186409 0.00218702 0
          -0.00113148 -0.000929813 0
          -0.00158049 0.00223915 0
          -0.000829321 -0.00110982 0
          -0.000903785 0.00152624 0
          -0.00164414 -0.000604047 0
          -0.000607774 -0.000519314 0
          1.22844e-05 0.000747513 0
          -0.00156151 -0.000450925 0
          -0.00100124 -0.0019557 0
          9.97886e-06 0.0023487 0
          -0.00120058 -0.00423535 0
          -0.000754248 0.00325783 0
          -0.00209427 -0.00311243 0
          0 0 0
          0 0 0
          -0.000755244 0.00213443 0
          -0.000275799 -0.00052304 0
          -0.000491273 0.00187208 0
          -0.000683094 -0.000546736 0
          -0.000843425 0.00115964 0
          0.00063083 -0.000498553 0
          -0.00122143 -8.55877e-06 0
          -0.000415882 -0.00115538 0
          0.00169445 0.00124653 0
          -0.00123146 -0.00164548 0
          -0.000335953 3.39873e-05 0
          0.00101822 -0.00266887 0
          0.000494753 0.0031325 0
          -0.00117471 -0.00285188 0
          0 0 0
          0 0 0
          -0.00398974 0.00360135 0
          -0.00248005 -0.00172652 0
          -0.0029997 0.00339709 0
          -0.00305216 -0.000515935 0
          -0.00190148 0.0001771 0
          -0.00245715 -1.4673e-05 0
          -0.0015384 0.000669028 0
          -0.00268419 -0.00161962 0
          -0.00225147 -0.00104689 0
          0.000385202 0.000918261 0
          -0.00370664 0.000379653 0
          -0.00237305 -0.00730591 0
          -0.000253134 0.00773418 0
          -0.00500986 -0.00493474 0
          0 0 0
          0 0 0
          0.00123832 0.00297697 0
          0.000933099 -0.000790186 0
          -0.000692003 0.00365965 0
          0.00194287 -0.00244366 0
          0.000234585 0.00218513 0
          0.000306175 -0.00117921 0
          0.00145236 -0.000186709 0
          0.00219981 -0.000126655 0
          0.000229231 -0.00111346 0
          0.00155085 -0.00321654 0
          0.00635391 0.00485597 0
          0.00056692 -0.00834124 0
          0.00418018 0.00475713 0
          0.00455092 -0.000719663 0
          0 0 0
          0 0 0
          -0.00852389 0.00530055 0
          -0.00763785 -0.000377312 0
          -0.00497621 0.00202129 0
          -0.00701994 9.79946e-05 0
          -0.00659093 0.00117725 0
          -0.0051486 -0.000988954 0
          -0.00644912 -0.000376761 0
          -0.0057721 -0.0014582 0
          -0.00398102 0.000207879 0
          -0.00798571 -0.00331595 0
          -0.00697959 -0.00188022 0
          -0.00140539 -0.00320262 0
          -0.0116354 0.00651285 0
          -0.0157772 -0.00581602 0
          0 0 0
          0 0 0
          0.00274219 0.00520443 0
          0.00679631 -0.00380279 0
          0.00199894 0.00570231 0
          0.00348488 -0.00199598 0
          0.00460409 0.00124508 0
          0.0034415 -0.00103233 0
          0.00458402 -0.000122738 0
          0.00463735 -0.00209149 0
          0.00477132 -0.000446879 0
          0.00834247 -0.00127465 0
          0.00459229 -9.55803e-05 0
          0.00672001 -0.0117482 0
          0.0173071 0.0203559 0
          0.00722665 -0.00712546 0
          0 0 0
          0 0 0
          -0.0128114 0.00426818 0
          -0.014523 -0.00113034 0
          -0.0122032 0.00583105 0
          -0.010321 -0.00305389 0
          -0.011456 0.00241991 0
          -0.0102075 -0.00153172 0
          -0.0111361 -0.00021663 0
          -0.0119289 -0.00210687 0
          -0.0129697 -0.0011985 0
          -0.015448 -0.0042445 0
          -0.0135343 0.00232452 0
          -0.0213858 -0.0148312 0
          -0.0211966 0.0101009 0
          -0.0131389 -0.00445097 0
          0 0 0
          0.0256 0 0
          0.0256 0 0
          0.0256 0 0
          0.0256 0 0
          0.0256 0 0
          0.0256 0 0
          0.0256 0 0
          0.0256 0 0
          0.0256 0 0
          0.0256 0 0
          0.0256 0 0
          0.0256 0 0
          0.0256 0 0
          0.0256 0 0
          0.0256 0 0
          0.0256 0 0
        </DataArray>
      </PointData>
      <CellData>
      </CellData>
    </Piece>
  </ImageData>
</VTKFile>
