<?xml version="1.0"?>
<VTKFile type="ImageData" version="0.1" byte_order="LittleEndian">
  <ImageData WholeExtent="0 15 0 15 0 0" Origin="0 0 0" Spacing="1 1 1">
    <Piece Extent="0 15 0 15 0 0">
      <PointData>
        <DataArray type="Float32" Name="rho" format="ascii">
          0.989317
          0.987604
          0.988438
          0.990547
          0.98868
          0.99075
          0.98902
          0.990284
          0.989415
          0.990707
          0.990035
          0.99313
          0.988524
          1.00081
          0.990916
          0.993579
          0.990299
          0.991752
          0.992014
          0.992155
          0.992049
          0.992432
          0.992442
          0.99265
          0.992822
          0.993018
          0.993099
          0.993377
          0.993401
          0.993418
          0.994044
          0.993539
          0.991201
          0.992099
          0.991962
          0.992152
          0.992311
          0.992272
          0.992584
          0.992674
          0.992807
          0.993017
          0.99314
          0.993247
          0.99344
          0.993469
          0.993334
          0.994022
          0.990667
          0.992054
          0.992158
          0.992116
          0.992351
          0.992459
          0.992466
          0.992771
          0.992835
          0.992972
          0.993166
          0.993243
          0.99334
          0.99343
          0.993573
          0.99412
          0.991044
          0.992092
          0.992231
          0.992304
          0.992244
          0.99255
          0.992626
          0.992597
          0.992983
          0.992952
          0.993104
          0.993277
          0.993307
          0.993434
          0.993383
          0.994046
          0.990922
          0.992242
          0.992184
          0.992394
          0.992453
          0.992366
          0.992732
          0.992813
          0.992703
          0.993149
          0.993053
          0.993207
          0.993336
          0.993332
          0.993418
          0.994076
          0.990762
          0.99229
          0.992383
          0.99227
          0.992561
          0.992618
          0.992502
          0.992918
          0.992896
          0.992845
          0.993303
          0.993056
          0.99334
          0.993317
          0.993443
          0.994092
          0.990907
          0.99243
          0.992382
          0.992541
          0.992391
          0.992761
          0.992759
          0.992475
          0.993244
          0.992926
          0.992863
          0.993509
          0.993015
          0.993503
          0.993037
          0.994218
          0.990408
          0.992345
          0.992539
          0.992555
          0.992711
          0.992437
          0.992807
          0.993111
          0.992394
          0.993424
          0.992986
          0.992827
          0.993609
          0.992695
          0.993854
          0.994012
          0.991725
          0.992767
          0.992557
          0.992664
          0.992634
          0.99276
          0.992775
          0.992802
          0.9932
          0.992343
          0.99364
          0.992912
          0.992866
          0.993958
          0.992243
          0.994143
          0.988396
          0.992513
          0.992852
          0.992612
          0.992661
          0.993139
          0.992626
          0.992739
          0.993053
          0.993209
          0.992237
          0.994007
          0.992519
          0.992491
          0.99435
          0.993725
          0.993711
          0.993506
          0.992536
          0.992881
          0.993247
          0.992362
          0.99303
          0.993012
          0.992469
          0.993174
          0.993493
          0.991198
          0.994461
          0.992646
          0.990611
          0.994479
          0.983503
          0.991524
          0.993626
          0.993441
          0.992389
          0.993221
          0.992914
          0.99269
          0.99312
          0.992576
          0.992825
          0.993417
          0.992064
          0.993293
          0.995132
          0.993067
          0.991525
          0.995422
          0.992887
          0.992894
          0.993124
          0.993076
          0.992662
          0.993023
          0.992545
          0.992969
          0.991936
          0.993423
          0.99297
          0.990574
          0.987952
          0.995245
          0.972664
          0.992409
          0.993114
          0.993429
          0.993591
          0.992263
          0.99358
          0.99226
          0.993115
          0.992127
          0.993151
          0.99176
          0.992908
          0.989636
          1.00038
          0.999318
          0.941395
          0.98459
          0.990252
          0.992984
          0.993128
          0.99299
          0.992905
          0.992897
          0.992515
          0.99276
          0.992175
          0.993288
          0.990793
          0.996328
          0.990035
          1.00673
        </DataArray>
        <DataArray type="Float32" Name="ux" format="ascii">
          0
          0
          0
          0
          0
          0
          0
          0
          0
          0
          0
          0
          0
          0
          0
          0
          0
          -0.00128271
          -0.00127038
          -0.00108924
          -0.000799771
          -0.000902198
          -0.000908887
          -0.000811191
          -0.0009431
          -0.00111181
          -0.0011846
          -0.0011825
          -0.00171885
          -0.00122085
          -0.00108157
          0
          0
          -4.71472e-05
          0.000175118
          -0.000467612
          -0.000286423
          9.87795e-05
          -0.000208454
          -0.000267018
          -0.000222347
          -0.000406511
          -0.000223315
          -0.000755459
          -0.000668566
          0.000429106
          -0.000207661
          0
          0
          -0.0013586
          -0.000867948
          -0.000552009
          -0.0010861
          -0.000947397
          -0.000340293
          -0.000973112
          -0.000956836
          -0.000646165
          -0.00140856
          -0.00126992
          -0.000993642
          -0.00146644
          -0.00193592
          0
          0
          -0.000557657
          -0.000581483
          -0.000495995
          0.000249972
          -0.000618804
          -0.000477131
          0.000286378
          -0.000153775
          -0.000584914
          -0.000202217
          -4.04361e-05
          -0.000739566
          -7.33201e-05
          -0.00059906
          0
          0
          -0.000682052
          -9.20393e-05
          -0.00090781
          -0.000367295
          0.00028463
          -0.000732052
          -0.00029295
          0.000152717
          -0.000593609
          -6.53673e-06
          -0.00057287
          -0.000777548
          0.000229168
          -0.00114636
          0
          0
          -0.00113172
          -0.000427483
          -0.000282092
          -0.000848964
          -0.000393021
          0.0010572
          -0.00113468
          -0.000430667
          0.00118541
          -0.000879244
          -0.000434576
          -0.000209014
          -0.000256822
          -0.00126629
          0
          0
          -0.000664029
          -0.000292355
          -0.000283345
          0.000734051
          -0.000287385
          -0.000154085
          0.00159604
          0.000136169
          -2.8013e-05
          0.00145134
          0.0001179
          1.69793e-05
          0.000805632
          -0.00113596
          0
          0
          -0.00158783
          -0.000632916
          -0.00105033
          -0.000146192
          -0.000136681
          -0.00109628
          0.000486477
          0.00149693
          -0.00135565
          0.000262502
          0.000999513
          -0.00114178
          -0.000108247
          -0.00220963
          0
          0
          0.000366828
          0.00106938
          0.000792179
          0.000453713
          0.00115467
          0.0037581
          0.000186866
          0.00180126
          0.00525246
          0.000440772
          0.00288552
          0.00374254
          0.00323964
          0.00212672
          0
          0
          -0.00341647
          -0.00200185
          -0.00278092
          -0.0011423
          -6.412e-05
          -0.00169447
          0.000224963
          -0.00195172
          -0.00173371
          0.00209409
          -0.00509052
          -0.000784768
          -0.00046661
          -0.00863566
          0
          0
          0.00197789
          0.00146054
          0.00219099
          0.00548223
          0.00221591
          0.00374534
          0.00523108
          0.00718761
          0.00468865
          0.00662958
          0.0139777
          0.00494012
          0.0111926
          0.0119459
          0
          0
          -0.00682811
          -0.00219497
          -6.53042e-06
          -0.00391503
          -0.00263622
          -0.00141061
          -0.00323984
          -0.0027658
          -0.00197546
          -0.00752502
          -0.0080357
          -0.00305958
          -0.0195813
          -0.0215449
          0
          0
          0.0104907
          0.0146783
          0.00553817
          0.00989317
          0.00971439
          0.00911273
          0.0102801
          0.0103914
          0.0111604
          0.0148726
          0.0100453
          0.0133559
          0.022829
          0.0105655
          0
          0
          -0.0231587
          -0.0331565
          -0.0317309
          -0.0346105
          -0.0378858
          -0.0382065
          -0.0406217
          -0.0410104
          -0.040903
          -0.0403856
          -0.0345471
          -0.0379527
          -0.0310476
          -0.0148071
          0
          0.0256
          0.0256
          0.0256
          0.0256
          0.0256
          0.0256
          0.0256
          0.0256
          0.0256
          0.0256
          0.0256
          0.0256
          0.0256
          0.0256
          0.0256
          0.0256
        </DataArray>
        <DataArray type="Float32" Name="uy" format="ascii">
          0
          0
          0
          0
          0
          0
          0
          0
          0
          0
          0
          0
          0
          0
          0
          0
          0
          -0.00117939
          -0.00154507
          -0.000564988
          -0.00143227
          -0.000192784
          -0.00150869
          -0.000459827
          -0.00120353
          -0.000358796
          -0.00112643
          0.000298827
          -0.0011711
          0.00199214
          -0.000271505
          0
          0
          -0.00117484
          -0.00132128
          -0.000524307
          -0.00187534
          -1.48295e-06
          -0.00140151
          -0.000686551
          -0.000894804
          -0.000406132
          -0.00125661
          0.000886667
          -0.00178303
          0.00133766
          -0.0003198
          0
          0
          -0.00115934
          -0.00171993
          -4.80833e-05
          -0.00190516
          -0.00063671
          -0.000916877
          -0.000469834
          -0.00106371
          -0.000212616
          -0.000704026
          0.00103972
          -0.00234567
          0.00226937
          -0.000750933
          0
          0
          -0.000734199
          -0.00216253
          -0.000461081
          -0.00143401
          -0.00058948
          -0.00170385
          0.000193173
          -0.00129606
          7.85744e-05
          -0.000602554
          0.000735341
          -0.00199656
          0.00256838
          -0.00132653
          0
          0
          -0.000997678
          -0.00186095
          -0.000630523
          -0.00228137
          0.000392365
          -0.00171369
          -0.00112136
          0.000238462
          -0.000202743
          -0.00123117
          0.00210145
          -0.0027391
          0.0028562
          -0.000920393
          0
          0
          -0.000988036
          -0.00243556
          0.00011507
          -0.00267843
          -0.000629047
          -0.000833867
          -0.000442408
          -0.00153305
          0.000851551
          -0.000871527
          0.00205746
          -0.00319251
          0.00354429
          -0.000918225
          0
          0
          -0.00112814
          -0.00272841
          -0.000488076
          -0.00201351
          -0.00123811
          -0.00160643
          0.000925817
          -0.0020913
          -6.76117e-05
          0.000971259
          0.00144033
          -0.00310894
          0.00440451
          -0.000505709
          0
          0
          -0.000981469
          -0.00319018
          -0.000489917
          -0.00335369
          0.000804212
          -0.00257018
          -0.00169725
          0.00128397
          -0.00056226
          -0.00171327
          0.00517777
          -0.00544225
          0.00658269
          -0.000946524
          0
          0
          -0.00179035
          -0.00320145
          -0.00089207
          -0.00284949
          -0.000820894
          -0.00213592
          -0.000563513
          -0.00211791
          0.00277381
          -0.00182856
          0.00258418
          -0.00150344
          0.00436512
          0.00229269
          0
          0
          -0.00169483
          -0.00416788
          0.000240161
          -0.00414509
          -0.00220569
          -0.00146583
          0.000273005
          -0.00258388
          -0.000832589
          0.00291
          0.00210094
          -0.00746055
          0.0124179
          -0.00051942
          0
          0
          -0.00259059
          -0.00331339
          -0.00194318
          -0.00614797
          0.00100822
          -0.00354423
          -0.000822192
          -0.000139278
          -0.000518736
          -0.00207778
          0.00910402
          -0.00942082
          0.0110706
          0.00749324
          0
          0
          -0.00109612
          -0.0062831
          -0.00353681
          -0.00277412
          -0.00149267
          -0.00370239
          -0.00190002
          -0.00229791
          0.00165753
          -0.0030401
          0.00109952
          0.000386493
          0.00985918
          0.00281365
          0
          0
          -0.00984016
          -0.00697531
          0.00107415
          -0.00578163
          -0.000467406
          -0.00348494
          -0.000499774
          -0.0015491
          0.0022293
          0.00262725
          0.00457349
          -0.00549862
          0.0303873
          -0.001691
          0
          0
          -0.00807013
          -0.00124687
          0.00133507
          -0.00650892
          0.00104013
          -0.00476479
          -0.000868411
          -0.00346686
          -0.000515105
          -0.0030575
          0.00502414
          -0.0122983
          0.01704
          0.00232587
          0
          0
          0
          0
          0
          0
          0
          0
          0
          0
          0
          0
          0
          0
          0
          0
          0
        </DataArray>
        <DataArray type="Float32" Name="velocity" NumberOfComponents="3" format="ascii">
          0 0 0
          0 0 0
          0 0 0
          0 0 0
          0 0 0
          0 0 0
          0 0 0
          0 0 0
          0 0 0
          0 0 0
          0 0 0
          0 0 0
          0 0 0
          0 0 0
          0 0 0
          0 0 0
          0 0 0
          -0.00128271 -0.00117939 0
          -0.00127038 -0.00154507 0
          -0.00108924 -0.000564988 0
          -0.000799771 -0.00143227 0
          -0.000902198 -0.000192784 0
          -0.000908887 -0.00150869 0
          -0.000811191 -0.000459827 0
          -0.0009431 -0.00120353 0
          -0.00111181 -0.000358796 0
          -0.0011846 -0.00112643 0
          -0.0011825 0.000298827 0
          -0.00171885 -0.0011711 0
          -0.00122085 0.00199214 0
          -0.00108157 -0.000271505 0
          0 0 0
          0 0 0
          -4.71472e-05 -0.00117484 0
          0.000175118 -0.00132128 0
          -0.000467612 -0.000524307 0
          -0.000286423 -0.00187534 0
          9.87795e-05 -1.48295e-06 0
          -0.000208454 -0.00140151 0
          -0.000267018 -0.000686551 0
          -0.000222347 -0.000894804 0
          -0.000406511 -0.000406132 0
          -0.000223315 -0.00125661 0
          -0.000755459 0.000886667 0
          -0.000668566 -0.00178303 0
          0.000429106 0.00133766 0
          -0.000207661 -0.0003198 0
          0 0 0
          0 0 0
          -0.0013586 -0.00115934 0
          -0.000867948 -0.00171993 0
          -0.000552009 -4.80833e-05 0
          -0.0010861 -0.00190516 0
          -0.000947397 -0.00063671 0
          -0.000340293 -0.000916877 0
          -0.000973112 -0.000469834 0
          -0.000956836 -0.00106371 0
          -0.000646165 -0.000212616 0
          -0.00140856 -0.000704026 0
          -0.00126992 0.00103972 0
          -0.000993642 -0.00234567 0
          -0.00146644 0.00226937 0
          -0.00193592 -0.000750933 0
          0 0 0
          0 0 0
          -0.000557657 -0.000734199 0
          -0.000581483 -0.00216253 0
          -0.000495995 -0.000461081 0
          0.000249972 -0.00143401 0
          -0.000618804 -0.00058948 0
          -0.000477131 -0.00170385 0
          0.000286378 0.000193173 0
          -0.000153775 -0.00129606 0
          -0.000584914 7.85744e-05 0
          -0.000202217 -0.000602554 0
          -4.04361e-05 0.000735341 0
          -0.000739566 -0.00199656 0
          -7.33201e-05 0.00256838 0
          -0.00059906 -0.00132653 0
          0 0 0
          0 0 0
          -0.000682052 -0.000997678 0
          -9.20393e-05 -0.00186095 0
          -0.00090781 -0.000630523 0
          -0.000367295 -0.00228137 0
          0.00028463 0.000392365 0
          -0.000732052 -0.00171369 0
          -0.00029295 -0.00112136 0
          0.000152717 0.000238462 0
          -0.000593609 -0.000202743 0
          -6.53673e-06 -0.00123117 0
          -0.00057287 0.00210145 0
          -0.000777548 -0.0027391 0
          0.000229168 0.0028562 0
          -0.00114636 -0.000920393 0
          0 0 0
          0 0 0
          -0.00113172 -0.000988036 0
          -0.000427483 -0.00243556 0
          -0.000282092 0.00011507 0
          -0.000848964 -0.00267843 0
          -0.000393021 -0.000629047 0
          0.0010572 -0.000833867 0
          -0.00113468 -0.000442408 0
          -0.000430667 -0.00153305 0
          0.00118541 0.000851551 0
          -0.000879244 -0.000871527 0
          -0.000434576 0.00205746 0
          -0.000209014 -0.00319251 0
          -0.000256822 0.00354429 0
          -0.00126629 -0.000918225 0
          0 0 0
          0 0 0
          -0.000664029 -0.00112814 0
          -0.000292355 -0.00272841 0
          -0.000283345 -0.000488076 0
          0.000734051 -0.00201351 0
          -0.000287385 -0.00123811 0
          -0.000154085 -0.00160643 0
          0.00159604 0.000925817 0
          0.000136169 -0.0020913 0
          -2.8013e-05 -6.76117e-05 0
          0.00145134 0.000971259 0
          0.0001179 0.00144033 0
          1.69793e-05 -0.00310894 0
          0.000805632 0.00440451 0
          -0.00113596 -0.000505709 0
          0 0 0
          0 0 0
          -0.00158783 -0.000981469 0
          -0.000632916 -0.00319018 0
          -0.00105033 -0.000489917 0
          -0.000146192 -0.00335369 0
          -0.000136681 0.000804212 0
          -0.00109628 -0.00257018 0
          0.000486477 -0.00169725 0
          0.00149693 0.00128397 0
          -0.00135565 -0.00056226 0
          0.000262502 -0.00171327 0
          0.000999513 0.00517777 0
          -0.00114178 -0.00544225 0
          -0.000108247 0.00658269 0
          -0.00220963 -0.000946524 0
          0 0 0
          0 0 0
          0.000366828 -0.00179035 0
          0.00106938 -0.00320145 0
          0.000792179 -0.00089207 0
          0.000453713 -0.00284949 0
          0.00115467 -0.000820894 0
          0.0037581 -0.00213592 0
          0.000186866 -0.000563513 0
          0.00180126 -0.00211791 0
          0.00525246 0.00277381 0
          0.000440772 -0.00182856 0
          0.00288552 0.00258418 0
          0.00374254 -0.00150344 0
          0.00323964 0.00436512 0
          0.00212672 0.00229269 0
          0 0 0
          0 0 0
          -0.00341647 -0.00169483 0
          -0.00200185 -0.00416788 0
          -0.00278092 0.000240161 0
          -0.0011423 -0.00414509 0
          -6.412e-05 -0.00220569 0
          -0.00169447 -0.00146583 0
          0.000224963 0.000273005 0
          -0.00195172 -0.00258388 0
          -0.00173371 -0.000832589 0
          0.00209409 0.00291 0
          -0.00509052 0.00210094 0
          -0.000784768 -0.00746055 0
          -0.00046661 0.0124179 0
          -0.00863566 -0.00051942 0
          0 0 0
          0 0 0
          0.00197789 -0.00259059 0
          0.00146054 -0.00331339 0
          0.00219099 -0.00194318 0
          0.00548223 -0.00614797 0
          0.00221591 0.00100822 0
          0.00374534 -0.00354423 0
          0.00523108 -0.000822192 0
          0.00718761 -0.000139278 0
          0.00468865 -0.000518736 0
          0.00662958 -0.00207778 0
          0.0139777 0.00910402 0
          0.00494012 -0.00942082 0
          0.0111926 0.0110706 0
          0.0119459 0.00749324 0
          0 0 0
          0 0 0
          -0.00682811 -0.00109612 0
          -0.00219497 -0.0062831 0
          -6.53042e-06 -0.00353681 0
          -0.00391503 -0.00277412 0
          -0.00263622 -0.00149267 0
          -0.00141061 -0.00370239 0
          -0.00323984 -0.00190002 0
          -0.0027658 -0.00229791 0
          -0.00197546 0.00165753 0
          -0.00752502 -0.0030401 0
          -0.0080357 0.00109952 0
          -0.00305958 0.000386493 0
          -0.0195813 0.00985918 0
          -0.0215449 0.00281365 0
          0 0 0
          0 0 0
          0.0104907 -0.00984016 0
          0.0146783 -0.00697531 0
          0.00553817 0.00107415 0
          0.00989317 -0.00578163 0
          0.00971439 -0.000467406 0
          0.00911273 -0.00348494 0
          0.0102801 -0.000499774 0
          0.0103914 -0.0015491 0
          0.0111604 0.0022293 0
          0.0148726 0.00262725 0
          0.0100453 0.00457349 0
          0.0133559 -0.00549862 0
          0.022829 0.0303873 0
          0.0105655 -0.001691 0
          0 0 0
          0 0 0
          -0.0231587 -0.00807013 0
          -0.0331565 -0.00124687 0
          -0.0317309 0.00133507 0
          -0.0346105 -0.00650892 0
          -0.0378858 0.00104013 0
          -0.0382065 -0.00476479 0
          -0.0406217 -0.000868411 0
          -0.0410104 -0.00346686 0
          -0.040903 -0.000515105 0
          -0.0403856 -0.0030575 0
          -0.0345471 0.00502414 0
          -0.0379527 -0.0122983 0
          -0.0310476 0.01704 0
          -0.0148071 0.00232587 0
          0 0 0
          0.0256 0 0
          0.0256 0 0
          0.0256 0 0
          0.0256 0 0
          0.0256 0 0
          0.0256 0 0
          0.0256 0 0
          0.0256 0 0
          0.0256 0 0
          0.0256 0 0
          0.0256 0 0
          0.0256 0 0
          0.0256 0 0
          0.0256 0 0
          0.0256 0 0
          0.0256 0 0
        </DataArray>
      </PointData>
      <CellData>
      </CellData>
    </Piece>
  </ImageData>
</VTKFile>
