<?xml version="1.0"?>
<VTKFile type="ImageData" version="0.1" byte_order="LittleEndian">
  <ImageData WholeExtent="0 15 0 15 0 0" Origin="0 0 0" Spacing="1 1 1">
    <Piece Extent="0 15 0 15 0 0">
      <PointData>
        <DataArray type="Float32" Name="rho" format="ascii">
          0.997803
          1.00168
          0.998498
          1.00201
          0.999279
          1.0002
          0.998755
          0.998632
          0.997434
          0.997312
          0.995511
          0.997017
          0.991451
          0.999915
          0.98957
          0.997341
          0.998056
          0.999891
          1.00007
          0.999755
          0.999704
          0.999347
          0.999232
          0.998957
          0.998878
          0.998623
          0.998677
          0.998305
          0.998612
          0.998164
          0.998806
          0.999166
          0.998165
          1.00011
          0.999988
          0.999844
          0.999615
          0.999426
          0.999161
          0.999015
          0.9988
          0.998727
          0.998473
          0.998486
          0.998346
          0.998278
          0.998186
          0.999904
          0.997999
          0.999985
          0.999895
          0.999825
          0.999573
          0.999351
          0.999143
          0.998948
          0.998814
          0.998602
          0.998519
          0.998405
          0.998173
          0.998305
          0.998215
          0.999707
          0.998007
          0.999854
          0.999832
          0.999644
          0.999503
          0.99926
          0.999074
          0.998877
          0.998741
          0.998624
          0.998463
          0.998264
          0.998316
          0.998088
          0.998104
          0.999654
          0.99767
          0.999671
          0.999611
          0.999501
          0.999313
          0.999127
          0.99895
          0.998817
          0.998638
          0.998586
          0.998398
          0.998334
          0.998181
          0.998123
          0.998079
          0.999603
          0.997354
          0.999418
          0.99938
          0.999284
          0.999157
          0.998949
          0.998821
          0.998715
          0.998612
          0.99841
          0.99847
          0.998295
          0.998171
          0.998167
          0.998104
          0.999668
          0.996925
          0.99919
          0.999134
          0.999069
          0.998888
          0.998869
          0.998696
          0.998492
          0.998556
          0.99849
          0.998235
          0.998387
          0.998249
          0.998182
          0.998156
          0.999863
          0.996271
          0.998782
          0.998906
          0.99875
          0.998797
          0.998593
          0.998558
          0.998561
          0.99829
          0.99851
          0.998456
          0.998175
          0.998485
          0.998257
          0.99845
          1.00014
          0.995746
          0.998709
          0.998442
          0.998599
          0.998527
          0.998379
          0.998458
          0.998432
          0.998482
          0.998187
          0.998664
          0.998557
          0.998225
          0.998793
          0.998239
          1.00054
          0.994421
          0.997917
          0.998335
          0.998286
          0.998033
          0.998485
          0.998243
          0.998196
          0.998516
          0.998645
          0.998077
          0.999049
          0.99865
          0.998249
          0.999291
          1.00102
          0.994838
          0.998242
          0.997973
          0.997606
          0.998371
          0.997863
          0.998206
          0.998411
          0.998165
          0.998655
          0.999074
          0.997818
          0.999583
          0.998972
          0.997983
          1.00131
          0.989922
          0.99707
          0.997293
          0.998247
          0.99748
          0.997941
          0.998137
          0.998158
          0.998585
          0.998354
          0.998813
          0.999669
          0.997819
          0.999873
          0.999873
          1.00197
          0.992255
          0.998075
          0.997449
          0.997179
          0.99754
          0.997919
          0.99782
          0.998252
          0.998358
          0.999013
          0.998426
          0.999296
          0.999916
          0.997553
          0.996805
          1.0047
          0.972265
          0.994993
          0.997973
          0.996644
          0.997986
          0.997199
          0.998163
          0.998003
          0.998695
          0.998436
          0.999709
          0.998124
          1.00015
          0.996897
          1.00547
          1.00671
          0.934793
          0.985939
          0.993031
          0.997353
          0.996866
          0.997904
          0.99769
          0.998408
          0.998323
          0.999158
          0.998615
          1.00024
          0.99791
          1.00394
          0.998255
          1.03498
        </DataArray>
        <DataArray type="Float32" Name="ux" format="ascii">
          0
          0
          0
          0
          0
          0
          0
          0
          0
          0
          0
          0
          0
          0
          0
          0
          0
          -0.0011091
          -0.00192336
          -0.0024792
          -0.00265162
          -0.00305189
          -0.00310089
          -0.00313614
          -0.00307887
          -0.00285733
          -0.00278795
          -0.00204982
          -0.00221969
          -0.00136124
          -0.000318602
          0
          0
          -0.00123002
          -0.00154141
          -0.00232198
          -0.00276376
          -0.00291771
          -0.00316782
          -0.00317783
          -0.00309707
          -0.00300752
          -0.00252471
          -0.00252802
          -0.00186988
          -0.000870464
          -0.00116774
          0
          0
          -0.00139904
          -0.00189167
          -0.00237447
          -0.00279193
          -0.00318684
          -0.00322709
          -0.00339248
          -0.00337251
          -0.00306647
          -0.00313533
          -0.00253961
          -0.00212353
          -0.0018908
          -0.00146963
          0
          0
          -0.0012699
          -0.00170013
          -0.00242809
          -0.0026563
          -0.00306919
          -0.00329292
          -0.00327919
          -0.00324673
          -0.00323991
          -0.00282591
          -0.00235727
          -0.00235998
          -0.00134747
          -0.00111756
          0
          0
          -0.00148415
          -0.00174759
          -0.00251234
          -0.00280024
          -0.00311503
          -0.00339467
          -0.00343321
          -0.00338141
          -0.00330253
          -0.00303726
          -0.00275972
          -0.00241537
          -0.00157494
          -0.00165435
          0
          0
          -0.00164473
          -0.0018678
          -0.00252594
          -0.00291643
          -0.00328349
          -0.00328182
          -0.0036208
          -0.00356564
          -0.00314913
          -0.00327962
          -0.00285875
          -0.00241371
          -0.0017037
          -0.00180637
          0
          0
          -0.00171593
          -0.0017845
          -0.00265872
          -0.00290095
          -0.00326801
          -0.00349903
          -0.0034651
          -0.00365094
          -0.00354748
          -0.00294866
          -0.00287264
          -0.00272032
          -0.00152774
          -0.00194412
          0
          0
          -0.00223586
          -0.00229838
          -0.00311528
          -0.00312574
          -0.00356471
          -0.00400776
          -0.00380382
          -0.00360947
          -0.00406036
          -0.00367473
          -0.00282724
          -0.00310391
          -0.00227367
          -0.00262659
          0
          0
          -0.00198975
          -0.0019676
          -0.00268495
          -0.00310599
          -0.00364808
          -0.0033169
          -0.00400951
          -0.00379606
          -0.00291957
          -0.00392396
          -0.0031731
          -0.00208617
          -0.00161292
          -0.00246871
          0
          0
          -0.00388208
          -0.00322748
          -0.00418229
          -0.00479507
          -0.0045173
          -0.00489998
          -0.00478964
          -0.00527344
          -0.0048744
          -0.0035694
          -0.00534015
          -0.00434058
          -0.00233174
          -0.00480374
          0
          0
          -0.000842004
          -0.00127484
          -0.00327096
          -0.00205563
          -0.0031228
          -0.0034977
          -0.00299086
          -0.0026514
          -0.00369457
          -0.00275982
          2.72447e-05
          -0.00332673
          -0.000249473
          0.000422557
          0
          0
          -0.00811244
          -0.00809373
          -0.00642109
          -0.0075652
          -0.00774684
          -0.0068331
          -0.00774447
          -0.00768933
          -0.00666967
          -0.00938595
          -0.00859209
          -0.00498486
          -0.0111308
          -0.0137454
          0
          0
          -0.000821561
          0.00172795
          -0.00196245
          -0.00220454
          -0.00156914
          -0.00271635
          -0.00228603
          -0.0021657
          -0.00188336
          0.00110065
          -0.00105427
          0.00157993
          0.0112115
          0.00363734
          0
          0
          -0.0121288
          -0.0121794
          -0.0105782
          -0.00806595
          -0.00879787
          -0.00772284
          -0.00796465
          -0.00834599
          -0.00887469
          -0.0109839
          -0.00926065
          -0.0159915
          -0.0171392
          -0.0139747
          0
          0.0256
          0.0256
          0.0256
          0.0256
          0.0256
          0.0256
          0.0256
          0.0256
          0.0256
          0.0256
          0.0256
          0.0256
          0.0256
          0.0256
          0.0256
          0.0256
        </DataArray>
        <DataArray type="Float32" Name="uy" format="ascii">
          0
          0
          0
          0
          0
          0
          0
          0
          0
          0
          0
          0
          0
          0
          0
          0
          0
          0.000115504
          -0.000145025
          4.87126e-05
          4.26672e-05
          -4.39965e-05
          -0.000108773
          -0.000278784
          -0.000336013
          -0.000598482
          -0.000589683
          -0.00104355
          -0.000895963
          -0.000849708
          -0.00175659
          0
          0
          -3.45967e-05
          -0.000178794
          -5.29651e-05
          -0.000228795
          -0.000130512
          -0.000246724
          -0.000389373
          -0.000387705
          -0.000582544
          -0.000734365
          -0.000699984
          -0.00101074
          -0.00106824
          -0.00131258
          0
          0
          -5.6886e-06
          -0.000628202
          0.000128292
          -0.000481783
          -0.000191757
          -0.000352948
          -0.000329769
          -0.000486213
          -0.000490222
          -0.000672806
          -0.000355199
          -0.00153621
          2.53899e-05
          -0.00148343
          0
          0
          5.40824e-05
          -0.000587875
          -4.87703e-05
          -0.000379084
          -0.000275824
          -0.000413266
          -0.000351934
          -0.000505926
          -0.000527409
          -0.000629668
          -0.000652608
          -0.00108966
          -0.000231784
          -0.00151275
          0
          0
          0.00019523
          -0.000592811
          0.000166138
          -0.000606001
          -5.06747e-05
          -0.00047439
          -0.000488882
          -0.000422408
          -0.0004642
          -0.0010755
          -0.000152068
          -0.00154986
          -0.000157992
          -0.00159695
          0
          0
          0.000549741
          -0.000596854
          0.000440043
          -0.000542819
          -5.75902e-05
          -0.000437809
          -0.00037459
          -0.00068857
          -0.000460326
          -0.000979826
          -0.000383862
          -0.00195327
          0.000105349
          -0.00210922
          0
          0
          0.000956682
          -0.000578176
          0.000803533
          -0.000408288
          -5.10999e-05
          -0.000442109
          -0.000180282
          -0.000763483
          -0.00076008
          -0.000869512
          -0.00036211
          -0.00256046
          0.000314888
          -0.00254011
          0
          0
          0.00162016
          -0.000505005
          0.00140679
          -0.000683618
          0.000523497
          -0.000466377
          -0.000531233
          -0.000359229
          -0.000718405
          -0.00186869
          0.000373324
          -0.00334522
          0.000511956
          -0.00330519
          0
          0
          0.0021318
          -0.000171398
          0.00147812
          -0.000228721
          0.000607363
          -0.000419272
          -0.000305465
          -0.00098646
          -0.000130924
          -0.00176592
          -0.000860758
          -0.00288978
          0.000599806
          -0.0038967
          0
          0
          0.00365863
          -0.000914319
          0.00286806
          -5.61108e-05
          0.000396508
          -0.000162311
          5.54411e-05
          -0.00114757
          -0.00118269
          -0.000738721
          -0.000551521
          -0.00609755
          0.00337119
          -0.005924
          0
          0
          0.00367615
          -1.98476e-05
          0.00367902
          -0.00100413
          0.00152462
          -0.000479144
          -0.000263801
          -0.000522856
          -0.00104642
          -0.00304005
          0.00203906
          -0.00674829
          0.00113012
          -0.00407746
          0
          0
          0.00613887
          0.000589414
          0.00276965
          0.000561783
          0.00111905
          -0.000321919
          -0.000199818
          -0.00104708
          -0.000328972
          -0.00269622
          -0.00200065
          -0.0038182
          0.00273962
          -0.0094585
          0
          0
          0.00783686
          -0.00255012
          0.00569647
          -0.000773128
          0.00124968
          -0.000310713
          0.000271545
          -0.00134587
          -0.000472401
          -0.00164538
          -0.000139504
          -0.0111266
          0.0125972
          -0.0107204
          0
          0
          0.00795627
          -0.000441175
          0.00618931
          -0.00117217
          0.00211089
          -0.00039479
          2.3423e-06
          -0.00149367
          -0.00128266
          -0.00391205
          0.000965742
          -0.0136424
          0.00552254
          -0.00926747
          0
          0
          0
          0
          0
          0
          0
          0
          0
          0
          0
          0
          0
          0
          0
          0
          0
        </DataArray>
        <DataArray type="Float32" Name="velocity" NumberOfComponents="3" format="ascii">
          0 0 0
          0 0 0
          0 0 0
          0 0 0
          0 0 0
          0 0 0
          0 0 0
          0 0 0
          0 0 0
          0 0 0
          0 0 0
          0 0 0
          0 0 0
          0 0 0
          0 0 0
          0 0 0
          0 0 0
          -0.0011091 0.000115504 0
          -0.00192336 -0.000145025 0
          -0.0024792 4.87126e-05 0
          -0.00265162 4.26672e-05 0
          -0.00305189 -4.39965e-05 0
          -0.00310089 -0.000108773 0
          -0.00313614 -0.000278784 0
          -0.00307887 -0.000336013 0
          -0.00285733 -0.000598482 0
          -0.00278795 -0.000589683 0
          -0.00204982 -0.00104355 0
          -0.00221969 -0.000895963 0
          -0.00136124 -0.000849708 0
          -0.000318602 -0.00175659 0
          0 0 0
          0 0 0
          -0.00123002 -3.45967e-05 0
          -0.00154141 -0.000178794 0
          -0.00232198 -5.29651e-05 0
          -0.00276376 -0.000228795 0
          -0.00291771 -0.000130512 0
          -0.00316782 -0.000246724 0
          -0.00317783 -0.000389373 0
          -0.00309707 -0.000387705 0
          -0.00300752 -0.000582544 0
          -0.00252471 -0.000734365 0
          -0.00252802 -0.000699984 0
          -0.00186988 -0.00101074 0
          -0.000870464 -0.00106824 0
          -0.00116774 -0.00131258 0
          0 0 0
          0 0 0
          -0.00139904 -5.6886e-06 0
          -0.00189167 -0.000628202 0
          -0.00237447 0.000128292 0
          -0.00279193 -0.000481783 0
          -0.00318684 -0.000191757 0
          -0.00322709 -0.000352948 0
          -0.00339248 -0.000329769 0
          -0.00337251 -0.000486213 0
          -0.00306647 -0.000490222 0
          -0.00313533 -0.000672806 0
          -0.00253961 -0.000355199 0
          -0.00212353 -0.00153621 0
          -0.0018908 2.53899e-05 0
          -0.00146963 -0.00148343 0
          0 0 0
          0 0 0
          -0.0012699 5.40824e-05 0
          -0.00170013 -0.000587875 0
          -0.00242809 -4.87703e-05 0
          -0.0026563 -0.000379084 0
          -0.00306919 -0.000275824 0
          -0.00329292 -0.000413266 0
          -0.00327919 -0.000351934 0
          -0.00324673 -0.000505926 0
          -0.00323991 -0.000527409 0
          -0.00282591 -0.000629668 0
          -0.00235727 -0.000652608 0
          -0.00235998 -0.00108966 0
          -0.00134747 -0.000231784 0
          -0.00111756 -0.00151275 0
          0 0 0
          0 0 0
          -0.00148415 0.00019523 0
          -0.00174759 -0.000592811 0
          -0.00251234 0.000166138 0
          -0.00280024 -0.000606001 0
          -0.00311503 -5.06747e-05 0
          -0.00339467 -0.00047439 0
          -0.00343321 -0.000488882 0
          -0.00338141 -0.000422408 0
          -0.00330253 -0.0004642 0
          -0.00303726 -0.0010755 0
          -0.00275972 -0.000152068 0
          -0.00241537 -0.00154986 0
          -0.00157494 -0.000157992 0
          -0.00165435 -0.00159695 0
          0 0 0
          0 0 0
          -0.00164473 0.000549741 0
          -0.0018678 -0.000596854 0
          -0.00252594 0.000440043 0
          -0.00291643 -0.000542819 0
          -0.00328349 -5.75902e-05 0
          -0.00328182 -0.000437809 0
          -0.0036208 -0.00037459 0
          -0.00356564 -0.00068857 0
          -0.00314913 -0.000460326 0
          -0.00327962 -0.000979826 0
          -0.00285875 -0.000383862 0
          -0.00241371 -0.00195327 0
          -0.0017037 0.000105349 0
          -0.00180637 -0.00210922 0
          0 0 0
          0 0 0
          -0.00171593 0.000956682 0
          -0.0017845 -0.000578176 0
          -0.00265872 0.000803533 0
          -0.00290095 -0.000408288 0
          -0.00326801 -5.10999e-05 0
          -0.00349903 -0.000442109 0
          -0.0034651 -0.000180282 0
          -0.00365094 -0.000763483 0
          -0.00354748 -0.00076008 0
          -0.00294866 -0.000869512 0
          -0.00287264 -0.00036211 0
          -0.00272032 -0.00256046 0
          -0.00152774 0.000314888 0
          -0.00194412 -0.00254011 0
          0 0 0
          0 0 0
          -0.00223586 0.00162016 0
          -0.00229838 -0.000505005 0
          -0.00311528 0.00140679 0
          -0.00312574 -0.000683618 0
          -0.00356471 0.000523497 0
          -0.00400776 -0.000466377 0
          -0.00380382 -0.000531233 0
          -0.00360947 -0.000359229 0
          -0.00406036 -0.000718405 0
          -0.00367473 -0.00186869 0
          -0.00282724 0.000373324 0
          -0.00310391 -0.00334522 0
          -0.00227367 0.000511956 0
          -0.00262659 -0.00330519 0
          0 0 0
          0 0 0
          -0.00198975 0.0021318 0
          -0.0019676 -0.000171398 0
          -0.00268495 0.00147812 0
          -0.00310599 -0.000228721 0
          -0.00364808 0.000607363 0
          -0.0033169 -0.000419272 0
          -0.00400951 -0.000305465 0
          -0.00379606 -0.00098646 0
          -0.00291957 -0.000130924 0
          -0.00392396 -0.00176592 0
          -0.0031731 -0.000860758 0
          -0.00208617 -0.00288978 0
          -0.00161292 0.000599806 0
          -0.00246871 -0.0038967 0
          0 0 0
          0 0 0
          -0.00388208 0.00365863 0
          -0.00322748 -0.000914319 0
          -0.00418229 0.00286806 0
          -0.00479507 -5.61108e-05 0
          -0.0045173 0.000396508 0
          -0.00489998 -0.000162311 0
          -0.00478964 5.54411e-05 0
          -0.00527344 -0.00114757 0
          -0.0048744 -0.00118269 0
          -0.0035694 -0.000738721 0
          -0.00534015 -0.000551521 0
          -0.00434058 -0.00609755 0
          -0.00233174 0.00337119 0
          -0.00480374 -0.005924 0
          0 0 0
          0 0 0
          -0.000842004 0.00367615 0
          -0.00127484 -1.98476e-05 0
          -0.00327096 0.00367902 0
          -0.00205563 -0.00100413 0
          -0.0031228 0.00152462 0
          -0.0034977 -0.000479144 0
          -0.00299086 -0.000263801 0
          -0.0026514 -0.000522856 0
          -0.00369457 -0.00104642 0
          -0.00275982 -0.00304005 0
          2.72447e-05 0.00203906 0
          -0.00332673 -0.00674829 0
          -0.000249473 0.00113012 0
          0.000422557 -0.00407746 0
          0 0 0
          0 0 0
          -0.00811244 0.00613887 0
          -0.00809373 0.000589414 0
          -0.00642109 0.00276965 0
          -0.0075652 0.000561783 0
          -0.00774684 0.00111905 0
          -0.0068331 -0.000321919 0
          -0.00774447 -0.000199818 0
          -0.00768933 -0.00104708 0
          -0.00666967 -0.000328972 0
          -0.00938595 -0.00269622 0
          -0.00859209 -0.00200065 0
          -0.00498486 -0.0038182 0
          -0.0111308 0.00273962 0
          -0.0137454 -0.0094585 0
          0 0 0
          0 0 0
          -0.000821561 0.00783686 0
          0.00172795 -0.00255012 0
          -0.00196245 0.00569647 0
          -0.00220454 -0.000773128 0
          -0.00156914 0.00124968 0
          -0.00271635 -0.000310713 0
          -0.00228603 0.000271545 0
          -0.0021657 -0.00134587 0
          -0.00188336 -0.000472401 0
          0.00110065 -0.00164538 0
          -0.00105427 -0.000139504 0
          0.00157993 -0.0111266 0
          0.0112115 0.0125972 0
          0.00363734 -0.0107204 0
          0 0 0
          0 0 0
          -0.0121288 0.00795627 0
          -0.0121794 -0.000441175 0
          -0.0105782 0.00618931 0
          -0.00806595 -0.00117217 0
          -0.00879787 0.00211089 0
          -0.00772284 -0.00039479 0
          -0.00796465 2.3423e-06 0
          -0.00834599 -0.00149367 0
          -0.00887469 -0.00128266 0
          -0.0109839 -0.00391205 0
          -0.00926065 0.000965742 0
          -0.0159915 -0.0136424 0
          -0.0171392 0.00552254 0
          -0.0139747 -0.00926747 0
          0 0 0
          0.0256 0 0
          0.0256 0 0
          0.0256 0 0
          0.0256 0 0
          0.0256 0 0
          0.0256 0 0
          0.0256 0 0
          0.0256 0 0
          0.0256 0 0
          0.0256 0 0
          0.0256 0 0
          0.0256 0 0
          0.0256 0 0
          0.0256 0 0
          0.0256 0 0
          0.0256 0 0
        </DataArray>
      </PointData>
      <CellData>
      </CellData>
    </Piece>
  </ImageData>
</VTKFile>
