<?xml version="1.0"?>
<VTKFile type="ImageData" version="0.1" byte_order="LittleEndian">
  <ImageData WholeExtent="0 15 0 15 0 0" Origin="0 0 0" Spacing="1 1 1">
    <Piece Extent="0 15 0 15 0 0">
      <PointData>
        <DataArray type="Float32" Name="rho" format="ascii">
          0.978668
          0.968444
          0.972022
          0.967681
          0.971821
          0.967845
          0.96962
          0.968044
          0.968222
          0.970694
          0.972158
          0.983533
          0.980917
          1.00325
          1.0081
          0.995838
          0.984084
          0.986817
          0.986551
          0.986674
          0.985872
          0.986254
          0.985476
          0.985537
          0.985148
          0.985108
          0.985104
          0.985351
          0.985434
          0.985938
          0.986483
          0.987597
          0.986243
          0.987009
          0.986735
          0.986757
          0.9866
          0.986118
          0.986156
          0.985725
          0.985601
          0.985538
          0.985443
          0.985437
          0.985703
          0.985852
          0.985647
          0.986324
          0.986223
          0.987289
          0.987336
          0.98686
          0.986947
          0.986643
          0.986213
          0.986241
          0.985855
          0.985777
          0.985626
          0.985593
          0.985652
          0.985557
          0.985688
          0.985911
          0.987007
          0.987661
          0.987569
          0.987575
          0.986996
          0.987024
          0.986686
          0.986272
          0.986331
          0.985727
          0.985858
          0.985652
          0.985449
          0.985524
          0.985502
          0.98513
          0.988101
          0.988235
          0.987951
          0.987852
          0.987663
          0.987059
          0.987162
          0.986598
          0.986085
          0.986331
          0.985582
          0.985657
          0.985315
          0.985328
          0.984926
          0.98513
          0.987761
          0.98883
          0.988678
          0.988109
          0.988029
          0.987863
          0.986857
          0.987031
          0.986419
          0.985948
          0.986011
          0.985059
          0.985481
          0.984618
          0.985473
          0.983658
          0.990675
          0.989247
          0.989137
          0.989012
          0.988332
          0.987864
          0.987579
          0.986685
          0.987034
          0.985694
          0.985523
          0.985638
          0.98435
          0.985357
          0.982955
          0.984139
          0.987255
          0.990483
          0.989831
          0.989562
          0.988671
          0.988047
          0.987949
          0.987459
          0.985818
          0.986874
          0.984913
          0.984876
          0.984861
          0.982756
          0.98595
          0.980336
          0.997059
          0.990893
          0.990921
          0.98954
          0.989256
          0.989091
          0.987575
          0.987071
          0.986995
          0.984697
          0.986518
          0.983274
          0.984018
          0.984503
          0.979192
          0.982742
          0.983613
          0.992464
          0.991192
          0.990464
          0.99028
          0.988808
          0.987613
          0.987369
          0.986531
          0.986216
          0.983715
          0.986058
          0.981971
          0.981483
          0.985957
          0.973994
          1.00621
          0.992574
          0.991751
          0.992365
          0.988329
          0.988618
          0.988144
          0.987588
          0.985801
          0.985731
          0.985464
          0.97899
          0.985606
          0.980484
          0.970707
          0.98241
          0.978589
          0.994035
          0.993223
          0.986538
          0.989033
          0.988614
          0.98816
          0.987274
          0.986766
          0.98541
          0.983591
          0.983622
          0.981322
          0.97764
          0.987932
          0.967525
          1.01565
          0.997341
          0.991401
          0.988163
          0.98923
          0.988139
          0.986607
          0.987728
          0.984944
          0.9858
          0.979815
          0.981424
          0.983115
          0.969949
          0.968278
          0.993555
          0.988897
          1.01146
          0.989809
          0.994003
          0.987571
          0.990036
          0.98763
          0.987715
          0.987957
          0.984114
          0.984841
          0.981489
          0.979767
          0.970039
          0.986177
          0.985957
          0.946021
          0.999298
          0.993665
          0.990691
          0.990487
          0.986569
          0.989264
          0.985326
          0.987373
          0.983946
          0.984167
          0.984558
          0.977464
          0.981167
          0.977266
          0.9349
        </DataArray>
        <DataArray type="Float32" Name="ux" format="ascii">
          0
          0
          0
          0
          0
          0
          0
          0
          0
          0
          0
          0
          0
          0
          0
          0
          0
          -0.000551958
          0.000629062
          0.000775183
          0.00139745
          0.00158428
          0.00124159
          0.00103808
          2.86899e-05
          -0.000952451
          -0.00221142
          -0.00299878
          -0.00396256
          -0.00415613
          -0.00275959
          0
          0
          0.00057057
          0.00119919
          0.00157253
          0.00222874
          0.00265142
          0.00249065
          0.00204102
          0.00159745
          0.000657741
          -6.56188e-05
          -0.00130145
          -0.00197887
          -0.000765689
          -0.000334151
          0
          0
          -0.000495709
          0.000722372
          0.00172475
          0.00176524
          0.0020868
          0.00258708
          0.00184453
          0.00174623
          0.00111303
          -0.000206441
          -0.000536841
          -0.000812882
          -0.000981795
          -0.00149309
          0
          0
          0.000954126
          0.00170024
          0.00225773
          0.00388405
          0.00317369
          0.00365843
          0.00428025
          0.00318064
          0.00242611
          0.00200865
          0.00183921
          0.000541573
          0.000227831
          -0.000293477
          0
          0
          0.000802875
          0.00274957
          0.00285791
          0.00372635
          0.00547149
          0.00481212
          0.00460814
          0.00484105
          0.00370792
          0.0043823
          0.00276503
          0.00166888
          0.00283658
          0.000600524
          0
          0
          0.00101213
          0.00290635
          0.00456896
          0.00540013
          0.0056246
          0.00718495
          0.00447942
          0.00586934
          0.00658009
          0.00351109
          0.00341042
          0.00240381
          0.00170411
          -0.000367988
          0
          0
          0.00220105
          0.0045584
          0.00626686
          0.00893533
          0.00727525
          0.00750483
          0.0105635
          0.00881085
          0.00830105
          0.00866388
          0.00727035
          0.00620639
          0.00601137
          0.00362075
          0
          0
          0.00264404
          0.00714218
          0.00745149
          0.00742204
          0.00922874
          0.0101364
          0.00906678
          0.00952325
          0.00429509
          0.00682564
          0.00425696
          0.000953306
          -0.000681858
          -0.00590866
          0
          0
          0.0051506
          0.0090813
          0.0102019
          0.0127222
          0.0156833
          0.0188373
          0.0134508
          0.0148809
          0.0189308
          0.0134509
          0.0190151
          0.0155504
          0.0184783
          0.018051
          0
          0
          0.00425469
          0.00982309
          0.014299
          0.019146
          0.014012
          0.00865899
          0.00964493
          0.00689346
          0.00380036
          0.00736413
          -0.00726393
          0.00115952
          -0.00651544
          -0.0205989
          0
          0
          0.0121393
          0.0294766
          0.039102
          0.0332923
          0.0250722
          0.0264803
          0.0245758
          0.0297341
          0.0255075
          0.0273213
          0.0358715
          0.021065
          0.0374115
          0.0370164
          0
          0
          0.0155277
          0.0340375
          0.0282965
          0.0184717
          0.0191852
          0.0154028
          0.00612863
          -0.000554645
          -0.00661612
          -0.0176675
          -0.0270388
          -0.0169168
          -0.0469826
          -0.0428654
          0
          0
          0.00810107
          -0.0159934
          -0.0226171
          -0.0088818
          -0.00501464
          0.00806042
          0.0140523
          0.026928
          0.0330353
          0.0514322
          0.0509616
          0.0548682
          0.0768369
          0.0501552
          0
          0
          -0.0621871
          -0.107618
          -0.114988
          -0.126013
          -0.127311
          -0.12962
          -0.127199
          -0.122589
          -0.118161
          -0.109068
          -0.0943978
          -0.0831188
          -0.0750323
          -0.0321392
          0
          0.0256
          0.0256
          0.0256
          0.0256
          0.0256
          0.0256
          0.0256
          0.0256
          0.0256
          0.0256
          0.0256
          0.0256
          0.0256
          0.0256
          0.0256
          0.0256
        </DataArray>
        <DataArray type="Float32" Name="uy" format="ascii">
          0
          0
          0
          0
          0
          0
          0
          0
          0
          0
          0
          0
          0
          0
          0
          0
          0
          -0.00619682
          -0.00604263
          -0.00546172
          -0.00610379
          -0.00471665
          -0.0060772
          -0.00440071
          -0.00535106
          -0.00327504
          -0.0036175
          0.000409003
          -0.000781008
          0.00604457
          0.00573418
          0
          0
          -0.00735525
          -0.00651212
          -0.00582327
          -0.00693028
          -0.00447691
          -0.00575657
          -0.00392547
          -0.00413838
          -0.00233615
          -0.00241256
          0.0016349
          -0.000419709
          0.00506508
          0.00441686
          0
          0
          -0.00800015
          -0.00737623
          -0.00635321
          -0.00676769
          -0.00542401
          -0.00473218
          -0.00359746
          -0.00356987
          -0.00106406
          -0.00133255
          0.00280222
          -0.000661694
          0.00532111
          0.00424487
          0
          0
          -0.00885458
          -0.00831162
          -0.00741671
          -0.00699226
          -0.0050283
          -0.00585507
          -0.00237596
          -0.00339088
          0.000246933
          -0.000669781
          0.0030031
          0.000348931
          0.00598196
          0.00377701
          0
          0
          -0.0106315
          -0.00874881
          -0.00802626
          -0.00837735
          -0.00474203
          -0.00559059
          -0.00325528
          -0.000935277
          -0.000152419
          -0.000185688
          0.00498727
          0.000669725
          0.00663899
          0.00524171
          0
          0
          -0.0124201
          -0.0105866
          -0.00841235
          -0.00921207
          -0.00662459
          -0.00408287
          -0.00226381
          -0.00304745
          0.00224945
          -0.000240511
          0.00717414
          -0.000160157
          0.00835996
          0.0062394
          0
          0
          -0.0147327
          -0.011949
          -0.01112
          -0.00927383
          -0.00571851
          -0.00568534
          -0.00107772
          -0.00318921
          0.00224498
          0.0036051
          0.00570701
          0.00339112
          0.00811981
          0.0105056
          0
          0
          -0.0190363
          -0.0143205
          -0.0121656
          -0.0103022
          -0.00545541
          -0.00652921
          -0.00395207
          0.00150781
          0.0020028
          0.000853004
          0.0123574
          -0.000690812
          0.0154848
          0.00796054
          0
          0
          -0.0239491
          -0.0170201
          -0.0113171
          -0.0117939
          -0.00945741
          -0.00487069
          0.000432236
          -0.00185657
          0.00770838
          0.000347482
          0.0121717
          0.00824749
          0.00981688
          0.0199745
          0
          0
          -0.03133
          -0.018568
          -0.016737
          -0.0144534
          -0.00876107
          -0.00346181
          0.00028867
          -0.00105712
          0.00185358
          0.00681235
          0.0101439
          0.000915522
          0.0214636
          0.0155469
          0
          0
          -0.0410768
          -0.0287919
          -0.0211507
          -0.00815467
          -0.000502093
          -0.00235257
          0.000990165
          0.00241015
          0.0077753
          0.00348572
          0.0257835
          -0.00155605
          0.0249886
          0.0333856
          0
          0
          -0.0649653
          -0.0451553
          -0.0121525
          -0.00250654
          -0.0022311
          -0.000100414
          0.000615421
          0.000637776
          0.00857653
          0.00515575
          0.0125226
          0.00866866
          0.0188711
          0.0226674
          0
          0
          -0.0819223
          -0.0290823
          -0.0133552
          -0.000402567
          -0.0038084
          0.00574428
          0.0075869
          0.00799039
          0.0147185
          0.0158327
          0.0244709
          0.0037084
          0.0489328
          0.0257982
          0
          0
          -0.0374678
          -0.00944838
          -0.0193284
          -0.0090513
          -0.0135773
          -0.0117226
          -0.00874992
          -0.0132776
          -0.00470119
          -0.0119072
          0.0125984
          -0.0133795
          0.0226686
          0.0460834
          0
          0
          0
          0
          0
          0
          0
          0
          0
          0
          0
          0
          0
          0
          0
          0
          0
        </DataArray>
        <DataArray type="Float32" Name="velocity" NumberOfComponents="3" format="ascii">
          0 0 0
          0 0 0
          0 0 0
          0 0 0
          0 0 0
          0 0 0
          0 0 0
          0 0 0
          0 0 0
          0 0 0
          0 0 0
          0 0 0
          0 0 0
          0 0 0
          0 0 0
          0 0 0
          0 0 0
          -0.000551958 -0.00619682 0
          0.000629062 -0.00604263 0
          0.000775183 -0.00546172 0
          0.00139745 -0.00610379 0
          0.00158428 -0.00471665 0
          0.00124159 -0.0060772 0
          0.00103808 -0.00440071 0
          2.86899e-05 -0.00535106 0
          -0.000952451 -0.00327504 0
          -0.00221142 -0.0036175 0
          -0.00299878 0.000409003 0
          -0.00396256 -0.000781008 0
          -0.00415613 0.00604457 0
          -0.00275959 0.00573418 0
          0 0 0
          0 0 0
          0.00057057 -0.00735525 0
          0.00119919 -0.00651212 0
          0.00157253 -0.00582327 0
          0.00222874 -0.00693028 0
          0.00265142 -0.00447691 0
          0.00249065 -0.00575657 0
          0.00204102 -0.00392547 0
          0.00159745 -0.00413838 0
          0.000657741 -0.00233615 0
          -6.56188e-05 -0.00241256 0
          -0.00130145 0.0016349 0
          -0.00197887 -0.000419709 0
          -0.000765689 0.00506508 0
          -0.000334151 0.00441686 0
          0 0 0
          0 0 0
          -0.000495709 -0.00800015 0
          0.000722372 -0.00737623 0
          0.00172475 -0.00635321 0
          0.00176524 -0.00676769 0
          0.0020868 -0.00542401 0
          0.00258708 -0.00473218 0
          0.00184453 -0.00359746 0
          0.00174623 -0.00356987 0
          0.00111303 -0.00106406 0
          -0.000206441 -0.00133255 0
          -0.000536841 0.00280222 0
          -0.000812882 -0.000661694 0
          -0.000981795 0.00532111 0
          -0.00149309 0.00424487 0
          0 0 0
          0 0 0
          0.000954126 -0.00885458 0
          0.00170024 -0.00831162 0
          0.00225773 -0.00741671 0
          0.00388405 -0.00699226 0
          0.00317369 -0.0050283 0
          0.00365843 -0.00585507 0
          0.00428025 -0.00237596 0
          0.00318064 -0.00339088 0
          0.00242611 0.000246933 0
          0.00200865 -0.000669781 0
          0.00183921 0.0030031 0
          0.000541573 0.000348931 0
          0.000227831 0.00598196 0
          -0.000293477 0.00377701 0
          0 0 0
          0 0 0
          0.000802875 -0.0106315 0
          0.00274957 -0.00874881 0
          0.00285791 -0.00802626 0
          0.00372635 -0.00837735 0
          0.00547149 -0.00474203 0
          0.00481212 -0.00559059 0
          0.00460814 -0.00325528 0
          0.00484105 -0.000935277 0
          0.00370792 -0.000152419 0
          0.0043823 -0.000185688 0
          0.00276503 0.00498727 0
          0.00166888 0.000669725 0
          0.00283658 0.00663899 0
          0.000600524 0.00524171 0
          0 0 0
          0 0 0
          0.00101213 -0.0124201 0
          0.00290635 -0.0105866 0
          0.00456896 -0.00841235 0
          0.00540013 -0.00921207 0
          0.0056246 -0.00662459 0
          0.00718495 -0.00408287 0
          0.00447942 -0.00226381 0
          0.00586934 -0.00304745 0
          0.00658009 0.00224945 0
          0.00351109 -0.000240511 0
          0.00341042 0.00717414 0
          0.00240381 -0.000160157 0
          0.00170411 0.00835996 0
          -0.000367988 0.0062394 0
          0 0 0
          0 0 0
          0.00220105 -0.0147327 0
          0.0045584 -0.011949 0
          0.00626686 -0.01112 0
          0.00893533 -0.00927383 0
          0.00727525 -0.00571851 0
          0.00750483 -0.00568534 0
          0.0105635 -0.00107772 0
          0.00881085 -0.00318921 0
          0.00830105 0.00224498 0
          0.00866388 0.0036051 0
          0.00727035 0.00570701 0
          0.00620639 0.00339112 0
          0.00601137 0.00811981 0
          0.00362075 0.0105056 0
          0 0 0
          0 0 0
          0.00264404 -0.0190363 0
          0.00714218 -0.0143205 0
          0.00745149 -0.0121656 0
          0.00742204 -0.0103022 0
          0.00922874 -0.00545541 0
          0.0101364 -0.00652921 0
          0.00906678 -0.00395207 0
          0.00952325 0.00150781 0
          0.00429509 0.0020028 0
          0.00682564 0.000853004 0
          0.00425696 0.0123574 0
          0.000953306 -0.000690812 0
          -0.000681858 0.0154848 0
          -0.00590866 0.00796054 0
          0 0 0
          0 0 0
          0.0051506 -0.0239491 0
          0.0090813 -0.0170201 0
          0.0102019 -0.0113171 0
          0.0127222 -0.0117939 0
          0.0156833 -0.00945741 0
          0.0188373 -0.00487069 0
          0.0134508 0.000432236 0
          0.0148809 -0.00185657 0
          0.0189308 0.00770838 0
          0.0134509 0.000347482 0
          0.0190151 0.0121717 0
          0.0155504 0.00824749 0
          0.0184783 0.00981688 0
          0.018051 0.0199745 0
          0 0 0
          0 0 0
          0.00425469 -0.03133 0
          0.00982309 -0.018568 0
          0.014299 -0.016737 0
          0.019146 -0.0144534 0
          0.014012 -0.00876107 0
          0.00865899 -0.00346181 0
          0.00964493 0.00028867 0
          0.00689346 -0.00105712 0
          0.00380036 0.00185358 0
          0.00736413 0.00681235 0
          -0.00726393 0.0101439 0
          0.00115952 0.000915522 0
          -0.00651544 0.0214636 0
          -0.0205989 0.0155469 0
          0 0 0
          0 0 0
          0.0121393 -0.0410768 0
          0.0294766 -0.0287919 0
          0.039102 -0.0211507 0
          0.0332923 -0.00815467 0
          0.0250722 -0.000502093 0
          0.0264803 -0.00235257 0
          0.0245758 0.000990165 0
          0.0297341 0.00241015 0
          0.0255075 0.0077753 0
          0.0273213 0.00348572 0
          0.0358715 0.0257835 0
          0.021065 -0.00155605 0
          0.0374115 0.0249886 0
          0.0370164 0.0333856 0
          0 0 0
          0 0 0
          0.0155277 -0.0649653 0
          0.0340375 -0.0451553 0
          0.0282965 -0.0121525 0
          0.0184717 -0.00250654 0
          0.0191852 -0.0022311 0
          0.0154028 -0.000100414 0
          0.00612863 0.000615421 0
          -0.000554645 0.000637776 0
          -0.00661612 0.00857653 0
          -0.0176675 0.00515575 0
          -0.0270388 0.0125226 0
          -0.0169168 0.00866866 0
          -0.0469826 0.0188711 0
          -0.0428654 0.0226674 0
          0 0 0
          0 0 0
          0.00810107 -0.0819223 0
          -0.0159934 -0.0290823 0
          -0.0226171 -0.0133552 0
          -0.0088818 -0.000402567 0
          -0.00501464 -0.0038084 0
          0.00806042 0.00574428 0
          0.0140523 0.0075869 0
          0.026928 0.00799039 0
          0.0330353 0.0147185 0
          0.0514322 0.0158327 0
          0.0509616 0.0244709 0
          0.0548682 0.0037084 0
          0.0768369 0.0489328 0
          0.0501552 0.0257982 0
          0 0 0
          0 0 0
          -0.0621871 -0.0374678 0
          -0.107618 -0.00944838 0
          -0.114988 -0.0193284 0
          -0.126013 -0.0090513 0
          -0.127311 -0.0135773 0
          -0.12962 -0.0117226 0
          -0.127199 -0.00874992 0
          -0.122589 -0.0132776 0
          -0.118161 -0.00470119 0
          -0.109068 -0.0119072 0
          -0.0943978 0.0125984 0
          -0.0831188 -0.0133795 0
          -0.0750323 0.0226686 0
          -0.0321392 0.0460834 0
          0 0 0
          0.0256 0 0
          0.0256 0 0
          0.0256 0 0
          0.0256 0 0
          0.0256 0 0
          0.0256 0 0
          0.0256 0 0
          0.0256 0 0
          0.0256 0 0
          0.0256 0 0
          0.0256 0 0
          0.0256 0 0
          0.0256 0 0
          0.0256 0 0
          0.0256 0 0
          0.0256 0 0
        </DataArray>
      </PointData>
      <CellData>
      </CellData>
    </Piece>
  </ImageData>
</VTKFile>
