<?xml version="1.0"?>
<VTKFile type="ImageData" version="0.1" byte_order="LittleEndian">
  <ImageData WholeExtent="0 15 0 15 0 0" Origin="0 0 0" Spacing="1 1 1">
    <Piece Extent="0 15 0 15 0 0">
      <PointData>
        <DataArray type="Float32" Name="rho" format="ascii">
          -2.63054e+22
          5.09442e+20
          -3.98686e+23
          -1.53637e+23
          -1.68597e+23
          -1.88414e+23
          -8.02251e+22
          6.52792e+21
          2.2078e+22
          4.24733e+22
          5.19057e+22
          -2.1803e+22
          -2.81806e+22
          -1.37933e+22
          2.87089e+22
          2.65849e+22
          -2.84872e+20
          4.45154e+22
          7.78483e+22
          2.25868e+23
          7.82592e+23
          9.35354e+22
          -2.13929e+22
          -1.0495e+23
          -1.45467e+23
          3.60662e+22
          -3.32663e+21
          -5.96955e+22
          1.36197e+23
          -9.06403e+21
          -1.23397e+22
          1.35056e+23
          3.31616e+24
          1.89867e+25
          2.12291e+25
          2.13938e+25
          1.90199e+25
          1.57759e+25
          1.17301e+25
          8.05036e+24
          4.98131e+24
          2.77305e+24
          1.13569e+24
          6.39072e+23
          -5.78883e+23
          -1.53462e+24
          -1.09174e+23
          1.25238e+23
          3.5426e+23
          -1.29554e+25
          -1.85153e+25
          -1.8863e+25
          -1.59232e+25
          -1.21065e+25
          -8.06979e+24
          -4.60226e+24
          -2.82216e+24
          -1.52457e+24
          -3.8531e+23
          -1.10518e+24
          8.29215e+24
          5.56913e+22
          -1.54484e+23
          5.83545e+22
          -2.48512e+26
          -1.1793e+27
          -1.34053e+27
          -1.28089e+27
          -1.06588e+27
          -7.87171e+26
          -5.26981e+26
          -3.18884e+26
          -1.7277e+26
          -8.40096e+25
          -3.32187e+25
          -2.25505e+25
          -4.52837e+23
          7.7485e+23
          -1.42927e+23
          1.45027e+23
          9.16257e+25
          8.2136e+26
          1.18636e+27
          1.09177e+27
          8.26609e+26
          5.49735e+26
          3.20686e+26
          1.64644e+26
          6.8227e+25
          1.97162e+25
          8.35419e+24
          -3.13811e+25
          -4.44185e+23
          1.16882e+24
          -3.03132e+22
          1.82505e+23
          4.46842e+28
          1.10922e+29
          -1.86454e+28
          7.40519e+28
          5.64446e+28
          -1.49068e+28
          2.70848e+28
          1.43468e+28
          6.05782e+27
          2.24175e+27
          2.62963e+25
          -8.41428e+25
          4.02987e+23
          2.48422e+24
          -1.30417e+23
          1.24757e+23
          -1.877e+29
          2.79601e+29
          -2.52145e+29
          -6.91628e+28
          1.68732e+29
          -1.93783e+29
          -1.35899e+28
          -4.34954e+27
          -1.37126e+27
          6.046e+27
          6.27299e+25
          -1.72422e+26
          -2.44641e+24
          5.11777e+24
          -1.28117e+23
          5.80101e+23
          -1.79382e+30
          -2.187e+30
          -4.17368e+30
          -3.78494e+30
          -2.59439e+30
          -1.99256e+30
          -8.77454e+29
          -3.75847e+29
          -4.34546e+27
          1.43499e+28
          1.66622e+26
          -3.21615e+26
          -4.71583e+24
          8.55578e+24
          -6.04836e+23
          5.28489e+23
          9.95006e+30
          4.38513e+30
          4.09229e+30
          3.68474e+30
          2.08641e+30
          5.73533e+29
          4.07842e+29
          -8.77588e+29
          -1.36408e+28
          2.70183e+28
          3.31488e+26
          -5.18676e+26
          -8.36276e+24
          1.30017e+25
          -2.05421e+24
          -9.37423e+23
          3.76976e+31
          2.77715e+32
          2.96785e+32
          2.39824e+32
          1.49065e+32
          7.79772e+31
          7.98666e+29
          -1.7834e+30
          -2.92396e+28
          4.31459e+28
          5.69079e+26
          -7.40244e+26
          -1.35655e+25
          1.87131e+25
          4.41918e+24
          8.63362e+23
          -3.43452e+31
          -2.46156e+32
          -3.01487e+32
          -1.76845e+32
          -1.33912e+32
          1.49523e+32
          2.13717e+30
          -2.8008e+30
          -4.8804e+28
          5.91883e+28
          8.67997e+26
          -9.31093e+26
          -1.78042e+25
          2.07596e+25
          -2.25509e+24
          -5.80907e+23
          -8.10026e+33
          -2.41928e+34
          -2.69884e+34
          -1.9836e+34
          -1.77314e+32
          2.39874e+32
          3.33883e+30
          -3.63145e+30
          -6.52314e+28
          7.08279e+28
          1.13504e+27
          -1.03337e+27
          -2.00993e+25
          2.4135e+25
          -1.65439e+23
          -3.21337e+21
          7.01185e+34
          2.66272e+34
          4.49925e+34
          -2.69772e+34
          -3.01702e+32
          2.80612e+32
          3.89271e+30
          -4.12632e+30
          -6.86869e+28
          7.40786e+28
          1.17123e+27
          -1.00404e+27
          -1.93978e+25
          2.40013e+25
          -2.64826e+23
          -3.21127e+22
          7.79974e+33
          3.28687e+36
          2.68634e+34
          -2.42757e+34
          -2.31795e+32
          2.4689e+32
          2.83992e+30
          -4.21227e+30
          -4.38016e+28
          6.63351e+28
          7.83069e+26
          -8.08311e+26
          -1.36976e+25
          2.07367e+25
          -3.27522e+23
          2.23944e+20
          -6.27929e+33
          3.72892e+33
          5.7007e+33
          -1.7046e+34
          -3.56543e+31
          1.19021e+32
          7.39029e+29
          -1.28441e+30
          2.51574e+27
          2.83217e+28
          5.11335e+25
          -3.33895e+26
          1.82056e+24
          3.13334e+24
          -1.1429e+23
          -3.14114e+22
        </DataArray>
        <DataArray type="Float32" Name="ux" format="ascii">
          0
          0
          0
          0
          0
          0
          0
          0
          0
          0
          0
          0
          0
          0
          0
          0
          0
          -0.358851
          0.225436
          -0.45011
          0.0600665
          1.25731
          -0.514763
          -0.238866
          0.351183
          -2.07186
          -4.93631
          0.0897663
          0.137959
          -3.21803
          -0.280386
          0
          0
          -0.0987963
          -0.0482537
          0.0513303
          0.114893
          0.175535
          0.234235
          0.287774
          0.347739
          0.40547
          0.723937
          0.0237155
          -1.32054
          1.00997
          0.3035
          0
          0
          -0.184733
          -0.0349777
          -0.0107613
          -0.00690497
          -0.0249719
          -0.06003
          -0.168138
          -0.246519
          -0.404494
          -1.15759
          -0.00514708
          0.389459
          -0.746164
          0.3902
          0
          0
          -0.135481
          0.000181657
          0.099342
          0.184782
          0.250464
          0.317486
          0.385741
          0.471778
          0.568614
          0.694649
          0.484139
          -1.27792
          0.988063
          0.519011
          0
          0
          -0.224516
          -0.0407978
          -0.017647
          -0.0388231
          -0.0625472
          -0.130766
          -0.246156
          -0.451552
          -1.12545
          -1.25162
          1.06873
          0.35421
          1.02983
          1.61111
          0
          0
          0.115255
          4.04811
          0.434596
          0.295878
          3.03837
          0.403151
          0.534669
          0.642516
          1.01776
          0.203636
          0.975673
          1.93739
          0.977914
          0.195509
          0
          0
          -0.179178
          0.858297
          -1.19902
          0.122957
          0.835567
          -0.222532
          -0.613653
          -0.872283
          1.01235
          0.0696496
          1.00647
          0.311972
          0.973592
          0.631407
          0
          0
          -1.07814
          0.0613084
          0.178942
          0.303674
          0.515462
          0.580697
          1.02375
          0.221314
          1.00581
          0.22316
          1.00539
          0.287065
          0.948093
          0.0877109
          0
          0
          -0.0760594
          -0.0265604
          -0.0154856
          0.0287349
          -0.639666
          -0.366932
          1.01076
          0.14674
          1.0051
          0.261735
          1.00529
          0.300608
          0.994028
          0.083804
          0
          0
          -0.121719
          0.136793
          0.327609
          0.4825
          1.01355
          0.252935
          1.00625
          0.276453
          1.00427
          0.320955
          1.00626
          0.310362
          0.93515
          -0.0595118
          0
          0
          -0.214945
          -0.0655729
          0.115986
          -0.0363078
          1.00588
          0.270297
          1.00542
          0.332629
          1.00374
          0.392382
          1.00594
          0.347702
          1.12019
          0.127879
          0
          0
          0.00121673
          0.269903
          1.00702
          0.372112
          1.00434
          0.354264
          1.00527
          0.372645
          1.00402
          0.464898
          1.00535
          0.369955
          0.993663
          1.49833
          0
          0
          0.0937372
          0.109986
          1.00456
          0.331064
          1.00356
          0.354346
          1.00545
          0.36485
          1.00482
          0.498098
          1.00626
          0.334943
          0.997523
          1.36586
          0
          0
          1.01054
          0.278281
          1.00232
          0.401662
          1.00414
          0.473099
          1.00351
          0.282206
          1.00437
          0.467544
          1.00326
          0.318032
          0.987143
          0.924242
          0
          0.0256
          0.0256
          0.0256
          0.0256
          0.0256
          0.0256
          0.0256
          0.0256
          0.0256
          0.0256
          0.0256
          0.0256
          0.0256
          0.0256
          0.0256
          0.0256
        </DataArray>
        <DataArray type="Float32" Name="uy" format="ascii">
          0
          0
          0
          0
          0
          0
          0
          0
          0
          0
          0
          0
          0
          0
          0
          0
          0
          -0.532801
          -0.772032
          -0.388124
          -0.212588
          -0.00452852
          -1.63544
          -0.996086
          -0.651694
          -1.04134
          3.49838
          -0.313806
          -0.520167
          0.931104
          1.01316
          0
          0
          -1.00092
          -0.999734
          -1.01866
          -1.03576
          -0.998154
          -0.996463
          -0.987118
          -0.995526
          -1.01982
          -1.08506
          -1.05047
          -0.702361
          -0.973971
          -0.0222309
          0
          0
          -0.378139
          -0.343596
          -0.362459
          -0.365395
          -0.324955
          -0.300867
          -0.252433
          -0.240549
          -0.425977
          -2.42694
          1.0086
          -0.328698
          -1.92941
          -0.0496481
          0
          0
          -1.0009
          -1.00447
          -1.0046
          -1.00483
          -1.00513
          -1.00478
          -1.00661
          -1.00892
          -1.00605
          -1.08715
          -0.491103
          3.20978
          -0.222923
          0.143238
          0
          0
          -0.280483
          -0.330596
          -0.336594
          -0.328107
          -0.301822
          -0.264046
          -0.215226
          -0.0864987
          -0.280708
          1.20645
          -0.757302
          4.48906
          -0.496267
          -0.0158182
          0
          0
          -1.00273
          -0.979107
          -1.00496
          -1.00499
          -0.986483
          -1.00489
          -1.0062
          -1.01065
          -1.01725
          0.711121
          -0.551658
          -1.45455
          -0.508426
          0.0370975
          0
          0
          0.357271
          0.046313
          0.319824
          0.101128
          -0.328704
          -0.147089
          -0.22032
          0.870598
          -0.644183
          0.486815
          -0.476236
          0.295116
          -0.404515
          -0.683217
          0
          0
          -1.02707
          -1.00361
          -0.980396
          -1.07189
          -0.920976
          -1.01072
          -1.02377
          0.61507
          -0.5345
          0.256108
          -0.38367
          0.176981
          -0.30144
          0.0232283
          0
          0
          -0.31167
          -0.353416
          -0.341857
          -0.246003
          -0.325168
          0.367144
          -0.580799
          0.21769
          -0.401799
          0.100335
          -0.302959
          0.0723095
          -0.27297
          -0.788444
          0
          0
          -1.01434
          -1.00519
          -1.00415
          -1.00613
          -1.01275
          0.177784
          -0.458451
          0.0884737
          -0.297291
          0.0300586
          -0.221778
          0.0237256
          -0.169721
          0.00285349
          0
          0
          -0.425629
          -0.326034
          -0.372774
          0.0370272
          -0.481913
          0.0484539
          -0.289207
          0.0163608
          -0.193458
          -0.0294292
          -0.131974
          0.0312478
          -0.164524
          0.754655
          0
          0
          -1.00299
          -1.00427
          -1.00701
          -0.115285
          -0.326838
          0.0125799
          -0.158764
          0.00307789
          -0.096288
          -0.0354334
          -0.0412475
          0.0107138
          -0.0328065
          -0.433281
          0
          0
          -0.278469
          -0.111027
          -0.269527
          0.0648218
          -0.0865047
          0.0387953
          -0.0653233
          0.0444829
          0.00783541
          0.0227284
          0.0648012
          0.0285976
          0.0411147
          -0.0714192
          0
          0
          -1.01053
          -0.09203
          -0.00191869
          0.239125
          0.121324
          0.240105
          0.0476024
          0.310228
          0.123134
          0.299794
          0.21129
          0.244762
          0.166422
          0.192608
          0
          0
          0
          0
          0
          0
          0
          0
          0
          0
          0
          0
          0
          0
          0
          0
          0
        </DataArray>
        <DataArray type="Float32" Name="velocity" NumberOfComponents="3" format="ascii">
          0 0 0
          0 0 0
          0 0 0
          0 0 0
          0 0 0
          0 0 0
          0 0 0
          0 0 0
          0 0 0
          0 0 0
          0 0 0
          0 0 0
          0 0 0
          0 0 0
          0 0 0
          0 0 0
          0 0 0
          -0.358851 -0.532801 0
          0.225436 -0.772032 0
          -0.45011 -0.388124 0
          0.0600665 -0.212588 0
          1.25731 -0.00452852 0
          -0.514763 -1.63544 0
          -0.238866 -0.996086 0
          0.351183 -0.651694 0
          -2.07186 -1.04134 0
          -4.93631 3.49838 0
          0.0897663 -0.313806 0
          0.137959 -0.520167 0
          -3.21803 0.931104 0
          -0.280386 1.01316 0
          0 0 0
          0 0 0
          -0.0987963 -1.00092 0
          -0.0482537 -0.999734 0
          0.0513303 -1.01866 0
          0.114893 -1.03576 0
          0.175535 -0.998154 0
          0.234235 -0.996463 0
          0.287774 -0.987118 0
          0.347739 -0.995526 0
          0.40547 -1.01982 0
          0.723937 -1.08506 0
          0.0237155 -1.05047 0
          -1.32054 -0.702361 0
          1.00997 -0.973971 0
          0.3035 -0.0222309 0
          0 0 0
          0 0 0
          -0.184733 -0.378139 0
          -0.0349777 -0.343596 0
          -0.0107613 -0.362459 0
          -0.00690497 -0.365395 0
          -0.0249719 -0.324955 0
          -0.06003 -0.300867 0
          -0.168138 -0.252433 0
          -0.246519 -0.240549 0
          -0.404494 -0.425977 0
          -1.15759 -2.42694 0
          -0.00514708 1.0086 0
          0.389459 -0.328698 0
          -0.746164 -1.92941 0
          0.3902 -0.0496481 0
          0 0 0
          0 0 0
          -0.135481 -1.0009 0
          0.000181657 -1.00447 0
          0.099342 -1.0046 0
          0.184782 -1.00483 0
          0.250464 -1.00513 0
          0.317486 -1.00478 0
          0.385741 -1.00661 0
          0.471778 -1.00892 0
          0.568614 -1.00605 0
          0.694649 -1.08715 0
          0.484139 -0.491103 0
          -1.27792 3.20978 0
          0.988063 -0.222923 0
          0.519011 0.143238 0
          0 0 0
          0 0 0
          -0.224516 -0.280483 0
          -0.0407978 -0.330596 0
          -0.017647 -0.336594 0
          -0.0388231 -0.328107 0
          -0.0625472 -0.301822 0
          -0.130766 -0.264046 0
          -0.246156 -0.215226 0
          -0.451552 -0.0864987 0
          -1.12545 -0.280708 0
          -1.25162 1.20645 0
          1.06873 -0.757302 0
          0.35421 4.48906 0
          1.02983 -0.496267 0
          1.61111 -0.0158182 0
          0 0 0
          0 0 0
          0.115255 -1.00273 0
          4.04811 -0.979107 0
          0.434596 -1.00496 0
          0.295878 -1.00499 0
          3.03837 -0.986483 0
          0.403151 -1.00489 0
          0.534669 -1.0062 0
          0.642516 -1.01065 0
          1.01776 -1.01725 0
          0.203636 0.711121 0
          0.975673 -0.551658 0
          1.93739 -1.45455 0
          0.977914 -0.508426 0
          0.195509 0.0370975 0
          0 0 0
          0 0 0
          -0.179178 0.357271 0
          0.858297 0.046313 0
          -1.19902 0.319824 0
          0.122957 0.101128 0
          0.835567 -0.328704 0
          -0.222532 -0.147089 0
          -0.613653 -0.22032 0
          -0.872283 0.870598 0
          1.01235 -0.644183 0
          0.0696496 0.486815 0
          1.00647 -0.476236 0
          0.311972 0.295116 0
          0.973592 -0.404515 0
          0.631407 -0.683217 0
          0 0 0
          0 0 0
          -1.07814 -1.02707 0
          0.0613084 -1.00361 0
          0.178942 -0.980396 0
          0.303674 -1.07189 0
          0.515462 -0.920976 0
          0.580697 -1.01072 0
          1.02375 -1.02377 0
          0.221314 0.61507 0
          1.00581 -0.5345 0
          0.22316 0.256108 0
          1.00539 -0.38367 0
          0.287065 0.176981 0
          0.948093 -0.30144 0
          0.0877109 0.0232283 0
          0 0 0
          0 0 0
          -0.0760594 -0.31167 0
          -0.0265604 -0.353416 0
          -0.0154856 -0.341857 0
          0.0287349 -0.246003 0
          -0.639666 -0.325168 0
          -0.366932 0.367144 0
          1.01076 -0.580799 0
          0.14674 0.21769 0
          1.0051 -0.401799 0
          0.261735 0.100335 0
          1.00529 -0.302959 0
          0.300608 0.0723095 0
          0.994028 -0.27297 0
          0.083804 -0.788444 0
          0 0 0
          0 0 0
          -0.121719 -1.01434 0
          0.136793 -1.00519 0
          0.327609 -1.00415 0
          0.4825 -1.00613 0
          1.01355 -1.01275 0
          0.252935 0.177784 0
          1.00625 -0.458451 0
          0.276453 0.0884737 0
          1.00427 -0.297291 0
          0.320955 0.0300586 0
          1.00626 -0.221778 0
          0.310362 0.0237256 0
          0.93515 -0.169721 0
          -0.0595118 0.00285349 0
          0 0 0
          0 0 0
          -0.214945 -0.425629 0
          -0.0655729 -0.326034 0
          0.115986 -0.372774 0
          -0.0363078 0.0370272 0
          1.00588 -0.481913 0
          0.270297 0.0484539 0
          1.00542 -0.289207 0
          0.332629 0.0163608 0
          1.00374 -0.193458 0
          0.392382 -0.0294292 0
          1.00594 -0.131974 0
          0.347702 0.0312478 0
          1.12019 -0.164524 0
          0.127879 0.754655 0
          0 0 0
          0 0 0
          0.00121673 -1.00299 0
          0.269903 -1.00427 0
          1.00702 -1.00701 0
          0.372112 -0.115285 0
          1.00434 -0.326838 0
          0.354264 0.0125799 0
          1.00527 -0.158764 0
          0.372645 0.00307789 0
          1.00402 -0.096288 0
          0.464898 -0.0354334 0
          1.00535 -0.0412475 0
          0.369955 0.0107138 0
          0.993663 -0.0328065 0
          1.49833 -0.433281 0
          0 0 0
          0 0 0
          0.0937372 -0.278469 0
          0.109986 -0.111027 0
          1.00456 -0.269527 0
          0.331064 0.0648218 0
          1.00356 -0.0865047 0
          0.354346 0.0387953 0
          1.00545 -0.0653233 0
          0.36485 0.0444829 0
          1.00482 0.00783541 0
          0.498098 0.0227284 0
          1.00626 0.0648012 0
          0.334943 0.0285976 0
          0.997523 0.0411147 0
          1.36586 -0.0714192 0
          0 0 0
          0 0 0
          1.01054 -1.01053 0
          0.278281 -0.09203 0
          1.00232 -0.00191869 0
          0.401662 0.239125 0
          1.00414 0.121324 0
          0.473099 0.240105 0
          1.00351 0.0476024 0
          0.282206 0.310228 0
          1.00437 0.123134 0
          0.467544 0.299794 0
          1.00326 0.21129 0
          0.318032 0.244762 0
          0.987143 0.166422 0
          0.924242 0.192608 0
          0 0 0
          0.0256 0 0
          0.0256 0 0
          0.0256 0 0
          0.0256 0 0
          0.0256 0 0
          0.0256 0 0
          0.0256 0 0
          0.0256 0 0
          0.0256 0 0
          0.0256 0 0
          0.0256 0 0
          0.0256 0 0
          0.0256 0 0
          0.0256 0 0
          0.0256 0 0
          0.0256 0 0
        </DataArray>
      </PointData>
      <CellData>
      </CellData>
    </Piece>
  </ImageData>
</VTKFile>
