<?xml version="1.0"?>
<VTKFile type="ImageData" version="0.1" byte_order="LittleEndian">
  <ImageData WholeExtent="0 15 0 15 0 0" Origin="0 0 0" Spacing="1 1 1">
    <Piece Extent="0 15 0 15 0 0">
      <PointData>
        <DataArray type="Float32" Name="rho" format="ascii">
          0.997106
          0.998257
          0.996403
          0.999309
          0.99613
          0.997347
          0.995029
          0.994852
          0.993119
          0.992896
          0.990884
          0.992655
          0.986789
          0.997753
          0.987412
          0.992361
          0.99691
          0.997762
          0.997831
          0.997562
          0.99714
          0.996874
          0.996393
          0.995934
          0.995508
          0.995055
          0.994637
          0.994279
          0.99403
          0.993621
          0.994064
          0.993549
          0.997166
          0.997967
          0.997668
          0.997472
          0.997182
          0.996736
          0.996388
          0.995961
          0.995453
          0.995096
          0.994637
          0.994315
          0.994046
          0.993787
          0.99347
          0.994253
          0.996608
          0.997759
          0.997631
          0.997347
          0.997115
          0.99674
          0.996283
          0.995937
          0.995501
          0.995021
          0.994719
          0.994337
          0.994
          0.993845
          0.993766
          0.994378
          0.996646
          0.997645
          0.997553
          0.997303
          0.996938
          0.996715
          0.996311
          0.995781
          0.995526
          0.99507
          0.994656
          0.994355
          0.994099
          0.993855
          0.993664
          0.994475
          0.996209
          0.997569
          0.997358
          0.997247
          0.996928
          0.996503
          0.996275
          0.995901
          0.995313
          0.995136
          0.994665
          0.994359
          0.9941
          0.993872
          0.993759
          0.994562
          0.995872
          0.99741
          0.997327
          0.996997
          0.99692
          0.996511
          0.996059
          0.995894
          0.995439
          0.99489
          0.994832
          0.9943
          0.994123
          0.993907
          0.993786
          0.994722
          0.995568
          0.997375
          0.997151
          0.997058
          0.996593
          0.996583
          0.996158
          0.99547
          0.995619
          0.995042
          0.99444
          0.994606
          0.993994
          0.993974
          0.993647
          0.994813
          0.99506
          0.997037
          0.997151
          0.99685
          0.99675
          0.996229
          0.996062
          0.995944
          0.994943
          0.995265
          0.99471
          0.994036
          0.994402
          0.993622
          0.994036
          0.994931
          0.995155
          0.997367
          0.99687
          0.996857
          0.99664
          0.996225
          0.996022
          0.995657
          0.995539
          0.99447
          0.995035
          0.994345
          0.99376
          0.994406
          0.993137
          0.994887
          0.99337
          0.996639
          0.997067
          0.996778
          0.996276
          0.996626
          0.995833
          0.995458
          0.995444
          0.995202
          0.993907
          0.995004
          0.993764
          0.99319
          0.994536
          0.995204
          0.995925
          0.997622
          0.996796
          0.996453
          0.996946
          0.99586
          0.996032
          0.995798
          0.994869
          0.995089
          0.995119
          0.992789
          0.995048
          0.99367
          0.992071
          0.994878
          0.988539
          0.995846
          0.996914
          0.997302
          0.996035
          0.996384
          0.996008
          0.99541
          0.995541
          0.994581
          0.99447
          0.994926
          0.992837
          0.994328
          0.994755
          0.99521
          0.993748
          0.998596
          0.996663
          0.996525
          0.996538
          0.996372
          0.995768
          0.995784
          0.995046
          0.995232
          0.99387
          0.994547
          0.994137
          0.991506
          0.989441
          0.996823
          0.974267
          0.995231
          0.997653
          0.996278
          0.997133
          0.99567
          0.996415
          0.995276
          0.995564
          0.994408
          0.99498
          0.992949
          0.994286
          0.990205
          1.00037
          0.998957
          0.941804
          0.987265
          0.993557
          0.996883
          0.996306
          0.996463
          0.995849
          0.995742
          0.994972
          0.994885
          0.993785
          0.994534
          0.991663
          0.997022
          0.990522
          1.01571
        </DataArray>
        <DataArray type="Float32" Name="ux" format="ascii">
          0
          0
          0
          0
          0
          0
          0
          0
          0
          0
          0
          0
          0
          0
          0
          0
          0
          -0.00098703
          -0.00096885
          -0.000818521
          -0.000483381
          -0.000554927
          -0.000470035
          -0.000349679
          -0.000410652
          -0.000503798
          -0.000642392
          -0.000527977
          -0.00120981
          -0.000899521
          -0.000698763
          0
          0
          -0.000260501
          6.99135e-05
          -0.000483037
          -0.000371088
          -3.88531e-05
          -0.000255049
          -0.000240364
          -0.000165967
          -0.000309401
          -7.4357e-05
          -0.000625746
          -0.000518712
          0.000314309
          -0.000516157
          0
          0
          -0.00117533
          -0.000819516
          -0.000622544
          -0.000924324
          -0.000881007
          -0.000377967
          -0.000817732
          -0.000865337
          -0.000485491
          -0.00112565
          -0.000973828
          -0.000804052
          -0.00129395
          -0.00163305
          0
          0
          -0.00071655
          -0.00058675
          -0.000692749
          -0.00019851
          -0.000736278
          -0.000713141
          -0.00016988
          -0.000388371
          -0.000804095
          -0.000392489
          -0.000248402
          -0.00086364
          -0.000187504
          -0.000745036
          0
          0
          -0.000920302
          -0.000440805
          -0.00111049
          -0.000719018
          -0.000395407
          -0.00110176
          -0.000766412
          -0.000422656
          -0.00090713
          -0.000637309
          -0.000902603
          -0.000980014
          -0.000358742
          -0.00142256
          0
          0
          -0.00133365
          -0.00078607
          -0.000857768
          -0.00127424
          -0.00104402
          -1.03692e-05
          -0.00150286
          -0.00116234
          0.000166713
          -0.00122549
          -0.001007
          -0.000707725
          -0.000657952
          -0.00153484
          0
          0
          -0.00107476
          -0.000684993
          -0.000985241
          -0.000484583
          -0.0010934
          -0.00100106
          2.78947e-05
          -0.000989056
          -0.00117693
          0.000176884
          -0.000712314
          -0.000958436
          1.543e-05
          -0.001559
          0
          0
          -0.00202887
          -0.00134515
          -0.0019389
          -0.00116221
          -0.00128299
          -0.00229641
          -0.000951447
          -0.000122599
          -0.0021609
          -0.00123384
          -6.54769e-05
          -0.00148779
          -0.00072882
          -0.0021977
          0
          0
          -0.000555605
          -0.000254821
          -0.000576341
          -0.000956858
          -0.00101823
          0.000851593
          -0.00170132
          -0.000541774
          0.00220205
          -0.00147905
          -8.44905e-05
          0.00146124
          0.000869543
          -0.000627301
          0
          0
          -0.00425348
          -0.00282626
          -0.00353826
          -0.00339577
          -0.00217275
          -0.00310725
          -0.00182075
          -0.00335762
          -0.00288257
          0.000483945
          -0.00457447
          -0.0022988
          -0.000247407
          -0.0060207
          0
          0
          0.00161292
          0.000852394
          -0.000559992
          0.00229968
          -8.1158e-05
          0.000306666
          0.00158378
          0.00268199
          0.000581642
          0.00231105
          0.00834568
          0.00161737
          0.00617852
          0.00676278
          0
          0
          -0.00894152
          -0.00756547
          -0.00496485
          -0.0077612
          -0.00707255
          -0.00568817
          -0.00704016
          -0.00609432
          -0.00416883
          -0.00848128
          -0.00751735
          -0.00152321
          -0.0140031
          -0.0178568
          0
          0
          0.00472372
          0.0089146
          0.00286105
          0.00510609
          0.00586974
          0.00464527
          0.00581853
          0.00577676
          0.00593729
          0.00954275
          0.00540737
          0.00787839
          0.0183092
          0.00779057
          0
          0
          -0.0151601
          -0.0187585
          -0.0166534
          -0.0160877
          -0.0179382
          -0.0171735
          -0.0188254
          -0.0198736
          -0.0210473
          -0.0230278
          -0.020389
          -0.0275073
          -0.024926
          -0.0138122
          0
          0.0256
          0.0256
          0.0256
          0.0256
          0.0256
          0.0256
          0.0256
          0.0256
          0.0256
          0.0256
          0.0256
          0.0256
          0.0256
          0.0256
          0.0256
          0.0256
        </DataArray>
        <DataArray type="Float32" Name="uy" format="ascii">
          0
          0
          0
          0
          0
          0
          0
          0
          0
          0
          0
          0
          0
          0
          0
          0
          0
          2.26819e-05
          -0.000521366
          0.000284273
          -0.000448672
          0.000287048
          -0.000664472
          -0.000200115
          -0.00075878
          -0.000480577
          -0.00110199
          -0.000495568
          -0.00144955
          0.000585857
          -0.00118575
          0
          0
          0.000165731
          -0.000304692
          0.000466569
          -0.000758935
          0.000492732
          -0.000601707
          -0.000354145
          -0.000566151
          -0.000445429
          -0.00129901
          0.000111809
          -0.00194163
          0.000188173
          -0.0012337
          0
          0
          0.000330897
          -0.000617671
          0.000945706
          -0.000790046
          0.000137705
          -0.000313897
          -0.000114135
          -0.000705821
          -0.000357158
          -0.000821028
          0.000298752
          -0.00247077
          0.00122847
          -0.00170091
          0
          0
          0.000765743
          -0.000795239
          0.000761501
          -0.000366211
          0.000171106
          -0.000746673
          0.000320363
          -0.000804415
          -0.000237604
          -0.000738677
          7.26809e-06
          -0.00210315
          0.00132271
          -0.00212044
          0
          0
          0.000795344
          -0.000600488
          0.000897929
          -0.000960002
          0.000992979
          -0.00070793
          -0.000601322
          0.000192327
          -0.000222965
          -0.00142742
          0.00108448
          -0.00279584
          0.00166269
          -0.0020515
          0
          0
          0.00108206
          -0.000884326
          0.00153816
          -0.0011087
          0.000475735
          -0.000176262
          -4.36702e-05
          -0.00103192
          0.000335326
          -0.000917904
          0.000728494
          -0.00313101
          0.00230773
          -0.00242935
          0
          0
          0.0012464
          -0.00102497
          0.00142894
          -0.000490109
          -5.72036e-05
          -0.000586199
          0.00102062
          -0.00138262
          -0.000508554
          0.000131463
          0.000612176
          -0.00357965
          0.0030627
          -0.0025374
          0
          0
          0.00181118
          -0.00132801
          0.00195897
          -0.00158459
          0.00162615
          -0.00111522
          -0.000873239
          0.000967846
          -0.000678012
          -0.00220168
          0.00303291
          -0.00508957
          0.00415077
          -0.00294065
          0
          0
          0.00154354
          -0.000897073
          0.00150022
          -0.000982372
          0.000934455
          -0.000909194
          -0.000203345
          -0.00160958
          0.00162369
          -0.00194672
          0.000363067
          -0.0028195
          0.00352159
          -0.00191324
          0
          0
          0.00283029
          -0.00214794
          0.00305363
          -0.00120963
          -0.000315544
          -0.000305819
          0.000576628
          -0.00214666
          -0.00123053
          0.0014042
          0.00053745
          -0.00809087
          0.00932892
          -0.00416707
          0
          0
          0.0020196
          -0.00108542
          0.00275125
          -0.00332144
          0.0021218
          -0.00186615
          -0.000426281
          -0.000282396
          -0.00138274
          -0.00337054
          0.00584529
          -0.00945102
          0.0064282
          0.00158928
          0
          0
          0.00441302
          -0.00120896
          0.00099093
          -0.000390095
          0.000715662
          -0.00175758
          -0.000912863
          -0.00206659
          0.000156839
          -0.00387949
          -0.00172244
          -0.00278176
          0.00771469
          -0.00320876
          0
          0
          0.00246258
          -0.00427873
          0.00496314
          -0.00292271
          0.000909282
          -0.00181832
          -0.000670604
          -0.00254738
          -0.000396526
          -0.000875539
          0.000317588
          -0.0106929
          0.0241795
          -0.00551253
          0
          0
          0.00155281
          -0.000940331
          0.00502339
          -0.00395578
          0.00231863
          -0.0023679
          -0.000484002
          -0.00263281
          -0.00122053
          -0.00425476
          0.00271466
          -0.0146294
          0.0124811
          -0.00266704
          0
          0
          0
          0
          0
          0
          0
          0
          0
          0
          0
          0
          0
          0
          0
          0
          0
        </DataArray>
        <DataArray type="Float32" Name="velocity" NumberOfComponents="3" format="ascii">
          0 0 0
          0 0 0
          0 0 0
          0 0 0
          0 0 0
          0 0 0
          0 0 0
          0 0 0
          0 0 0
          0 0 0
          0 0 0
          0 0 0
          0 0 0
          0 0 0
          0 0 0
          0 0 0
          0 0 0
          -0.00098703 2.26819e-05 0
          -0.00096885 -0.000521366 0
          -0.000818521 0.000284273 0
          -0.000483381 -0.000448672 0
          -0.000554927 0.000287048 0
          -0.000470035 -0.000664472 0
          -0.000349679 -0.000200115 0
          -0.000410652 -0.00075878 0
          -0.000503798 -0.000480577 0
          -0.000642392 -0.00110199 0
          -0.000527977 -0.000495568 0
          -0.00120981 -0.00144955 0
          -0.000899521 0.000585857 0
          -0.000698763 -0.00118575 0
          0 0 0
          0 0 0
          -0.000260501 0.000165731 0
          6.99135e-05 -0.000304692 0
          -0.000483037 0.000466569 0
          -0.000371088 -0.000758935 0
          -3.88531e-05 0.000492732 0
          -0.000255049 -0.000601707 0
          -0.000240364 -0.000354145 0
          -0.000165967 -0.000566151 0
          -0.000309401 -0.000445429 0
          -7.4357e-05 -0.00129901 0
          -0.000625746 0.000111809 0
          -0.000518712 -0.00194163 0
          0.000314309 0.000188173 0
          -0.000516157 -0.0012337 0
          0 0 0
          0 0 0
          -0.00117533 0.000330897 0
          -0.000819516 -0.000617671 0
          -0.000622544 0.000945706 0
          -0.000924324 -0.000790046 0
          -0.000881007 0.000137705 0
          -0.000377967 -0.000313897 0
          -0.000817732 -0.000114135 0
          -0.000865337 -0.000705821 0
          -0.000485491 -0.000357158 0
          -0.00112565 -0.000821028 0
          -0.000973828 0.000298752 0
          -0.000804052 -0.00247077 0
          -0.00129395 0.00122847 0
          -0.00163305 -0.00170091 0
          0 0 0
          0 0 0
          -0.00071655 0.000765743 0
          -0.00058675 -0.000795239 0
          -0.000692749 0.000761501 0
          -0.00019851 -0.000366211 0
          -0.000736278 0.000171106 0
          -0.000713141 -0.000746673 0
          -0.00016988 0.000320363 0
          -0.000388371 -0.000804415 0
          -0.000804095 -0.000237604 0
          -0.000392489 -0.000738677 0
          -0.000248402 7.26809e-06 0
          -0.00086364 -0.00210315 0
          -0.000187504 0.00132271 0
          -0.000745036 -0.00212044 0
          0 0 0
          0 0 0
          -0.000920302 0.000795344 0
          -0.000440805 -0.000600488 0
          -0.00111049 0.000897929 0
          -0.000719018 -0.000960002 0
          -0.000395407 0.000992979 0
          -0.00110176 -0.00070793 0
          -0.000766412 -0.000601322 0
          -0.000422656 0.000192327 0
          -0.00090713 -0.000222965 0
          -0.000637309 -0.00142742 0
          -0.000902603 0.00108448 0
          -0.000980014 -0.00279584 0
          -0.000358742 0.00166269 0
          -0.00142256 -0.0020515 0
          0 0 0
          0 0 0
          -0.00133365 0.00108206 0
          -0.00078607 -0.000884326 0
          -0.000857768 0.00153816 0
          -0.00127424 -0.0011087 0
          -0.00104402 0.000475735 0
          -1.03692e-05 -0.000176262 0
          -0.00150286 -4.36702e-05 0
          -0.00116234 -0.00103192 0
          0.000166713 0.000335326 0
          -0.00122549 -0.000917904 0
          -0.001007 0.000728494 0
          -0.000707725 -0.00313101 0
          -0.000657952 0.00230773 0
          -0.00153484 -0.00242935 0
          0 0 0
          0 0 0
          -0.00107476 0.0012464 0
          -0.000684993 -0.00102497 0
          -0.000985241 0.00142894 0
          -0.000484583 -0.000490109 0
          -0.0010934 -5.72036e-05 0
          -0.00100106 -0.000586199 0
          2.78947e-05 0.00102062 0
          -0.000989056 -0.00138262 0
          -0.00117693 -0.000508554 0
          0.000176884 0.000131463 0
          -0.000712314 0.000612176 0
          -0.000958436 -0.00357965 0
          1.543e-05 0.0030627 0
          -0.001559 -0.0025374 0
          0 0 0
          0 0 0
          -0.00202887 0.00181118 0
          -0.00134515 -0.00132801 0
          -0.0019389 0.00195897 0
          -0.00116221 -0.00158459 0
          -0.00128299 0.00162615 0
          -0.00229641 -0.00111522 0
          -0.000951447 -0.000873239 0
          -0.000122599 0.000967846 0
          -0.0021609 -0.000678012 0
          -0.00123384 -0.00220168 0
          -6.54769e-05 0.00303291 0
          -0.00148779 -0.00508957 0
          -0.00072882 0.00415077 0
          -0.0021977 -0.00294065 0
          0 0 0
          0 0 0
          -0.000555605 0.00154354 0
          -0.000254821 -0.000897073 0
          -0.000576341 0.00150022 0
          -0.000956858 -0.000982372 0
          -0.00101823 0.000934455 0
          0.000851593 -0.000909194 0
          -0.00170132 -0.000203345 0
          -0.000541774 -0.00160958 0
          0.00220205 0.00162369 0
          -0.00147905 -0.00194672 0
          -8.44905e-05 0.000363067 0
          0.00146124 -0.0028195 0
          0.000869543 0.00352159 0
          -0.000627301 -0.00191324 0
          0 0 0
          0 0 0
          -0.00425348 0.00283029 0
          -0.00282626 -0.00214794 0
          -0.00353826 0.00305363 0
          -0.00339577 -0.00120963 0
          -0.00217275 -0.000315544 0
          -0.00310725 -0.000305819 0
          -0.00182075 0.000576628 0
          -0.00335762 -0.00214666 0
          -0.00288257 -0.00123053 0
          0.000483945 0.0014042 0
          -0.00457447 0.00053745 0
          -0.0022988 -0.00809087 0
          -0.000247407 0.00932892 0
          -0.0060207 -0.00416707 0
          0 0 0
          0 0 0
          0.00161292 0.0020196 0
          0.000852394 -0.00108542 0
          -0.000559992 0.00275125 0
          0.00229968 -0.00332144 0
          -8.1158e-05 0.0021218 0
          0.000306666 -0.00186615 0
          0.00158378 -0.000426281 0
          0.00268199 -0.000282396 0
          0.000581642 -0.00138274 0
          0.00231105 -0.00337054 0
          0.00834568 0.00584529 0
          0.00161737 -0.00945102 0
          0.00617852 0.0064282 0
          0.00676278 0.00158928 0
          0 0 0
          0 0 0
          -0.00894152 0.00441302 0
          -0.00756547 -0.00120896 0
          -0.00496485 0.00099093 0
          -0.0077612 -0.000390095 0
          -0.00707255 0.000715662 0
          -0.00568817 -0.00175758 0
          -0.00704016 -0.000912863 0
          -0.00609432 -0.00206659 0
          -0.00416883 0.000156839 0
          -0.00848128 -0.00387949 0
          -0.00751735 -0.00172244 0
          -0.00152321 -0.00278176 0
          -0.0140031 0.00771469 0
          -0.0178568 -0.00320876 0
          0 0 0
          0 0 0
          0.00472372 0.00246258 0
          0.0089146 -0.00427873 0
          0.00286105 0.00496314 0
          0.00510609 -0.00292271 0
          0.00586974 0.000909282 0
          0.00464527 -0.00181832 0
          0.00581853 -0.000670604 0
          0.00577676 -0.00254738 0
          0.00593729 -0.000396526 0
          0.00954275 -0.000875539 0
          0.00540737 0.000317588 0
          0.00787839 -0.0106929 0
          0.0183092 0.0241795 0
          0.00779057 -0.00551253 0
          0 0 0
          0 0 0
          -0.0151601 0.00155281 0
          -0.0187585 -0.000940331 0
          -0.0166534 0.00502339 0
          -0.0160877 -0.00395578 0
          -0.0179382 0.00231863 0
          -0.0171735 -0.0023679 0
          -0.0188254 -0.000484002 0
          -0.0198736 -0.00263281 0
          -0.0210473 -0.00122053 0
          -0.0230278 -0.00425476 0
          -0.020389 0.00271466 0
          -0.0275073 -0.0146294 0
          -0.024926 0.0124811 0
          -0.0138122 -0.00266704 0
          0 0 0
          0.0256 0 0
          0.0256 0 0
          0.0256 0 0
          0.0256 0 0
          0.0256 0 0
          0.0256 0 0
          0.0256 0 0
          0.0256 0 0
          0.0256 0 0
          0.0256 0 0
          0.0256 0 0
          0.0256 0 0
          0.0256 0 0
          0.0256 0 0
          0.0256 0 0
          0.0256 0 0
        </DataArray>
      </PointData>
      <CellData>
      </CellData>
    </Piece>
  </ImageData>
</VTKFile>
