<?xml version="1.0"?>
<VTKFile type="ImageData" version="0.1" byte_order="LittleEndian">
  <ImageData WholeExtent="0 15 0 15 0 0" Origin="0 0 0" Spacing="1 1 1">
    <Piece Extent="0 15 0 15 0 0">
      <PointData>
        <DataArray type="Float32" Name="rho" format="ascii">
          0.983119
          0.974839
          0.979771
          0.977567
          0.979546
          0.979633
          0.978927
          0.980988
          0.980059
          0.98321
          0.983337
          0.989901
          0.986035
          1.00138
          0.996976
          0.992658
          0.987084
          0.98925
          0.989131
          0.989262
          0.988706
          0.989009
          0.98857
          0.988563
          0.988406
          0.988324
          0.988232
          0.988371
          0.98821
          0.988318
          0.988795
          0.988749
          0.988989
          0.989479
          0.989178
          0.989278
          0.989191
          0.988817
          0.988934
          0.98861
          0.988522
          0.988456
          0.988334
          0.988236
          0.988334
          0.988284
          0.98805
          0.988539
          0.988608
          0.989573
          0.989627
          0.98925
          0.989359
          0.98917
          0.988809
          0.988904
          0.988568
          0.988498
          0.98837
          0.988249
          0.988231
          0.988112
          0.98819
          0.988374
          0.989228
          0.989752
          0.989739
          0.989717
          0.989286
          0.989364
          0.989101
          0.988752
          0.98887
          0.988366
          0.988417
          0.988275
          0.988056
          0.988103
          0.987976
          0.987927
          0.989657
          0.990114
          0.989866
          0.989882
          0.989711
          0.98922
          0.989391
          0.988972
          0.988524
          0.988777
          0.988178
          0.988209
          0.988006
          0.987903
          0.98774
          0.987874
          0.989427
          0.990412
          0.990334
          0.989886
          0.989908
          0.989778
          0.989038
          0.989222
          0.988746
          0.988371
          0.988518
          0.987772
          0.988086
          0.98755
          0.987969
          0.987163
          0.990737
          0.990663
          0.99052
          0.99046
          0.989995
          0.989792
          0.989483
          0.988787
          0.989234
          0.988196
          0.988035
          0.988317
          0.987302
          0.988064
          0.986569
          0.98737
          0.988995
          0.991206
          0.990869
          0.990843
          0.990268
          0.989617
          0.989748
          0.989419
          0.988107
          0.989085
          0.98768
          0.987578
          0.9879
          0.986259
          0.988462
          0.985485
          0.994283
          0.991564
          0.991635
          0.990685
          0.990432
          0.990458
          0.989425
          0.989052
          0.989063
          0.987376
          0.988859
          0.986802
          0.987123
          0.987932
          0.984533
          0.986479
          0.986019
          0.992571
          0.991605
          0.991141
          0.991178
          0.99039
          0.989314
          0.989104
          0.988704
          0.988439
          0.986755
          0.988706
          0.985895
          0.98578
          0.988744
          0.982252
          0.999496
          0.992827
          0.991704
          0.992874
          0.990629
          0.989737
          0.989918
          0.989093
          0.987994
          0.98822
          0.988148
          0.984101
          0.988658
          0.985562
          0.979994
          0.986674
          0.981246
          0.992702
          0.994953
          0.990544
          0.990396
          0.990561
          0.989358
          0.988837
          0.988447
          0.987508
          0.986832
          0.987232
          0.985527
          0.984675
          0.990469
          0.977261
          1.00193
          0.996002
          0.992341
          0.991135
          0.990739
          0.989969
          0.988415
          0.988629
          0.987338
          0.987649
          0.984921
          0.986655
          0.986787
          0.980938
          0.977688
          0.989415
          0.98187
          1.00084
          0.989802
          0.994573
          0.990121
          0.989897
          0.989881
          0.987619
          0.989151
          0.986258
          0.987499
          0.985551
          0.984973
          0.980479
          0.992889
          0.993884
          0.94459
          0.991907
          0.991948
          0.991364
          0.991943
          0.989163
          0.989829
          0.988114
          0.987893
          0.987205
          0.986304
          0.987269
          0.982906
          0.987613
          0.981588
          0.972355
        </DataArray>
        <DataArray type="Float32" Name="ux" format="ascii">
          0
          0
          0
          0
          0
          0
          0
          0
          0
          0
          0
          0
          0
          0
          0
          0
          0
          -0.0010186
          -0.000428888
          -0.00010892
          0.000243278
          0.000415195
          0.000241829
          0.00024887
          -0.00016168
          -0.000647869
          -0.00106569
          -0.0014457
          -0.00212039
          -0.00195236
          -0.00163441
          0
          0
          0.000423675
          0.000787914
          0.000670479
          0.00122246
          0.0016618
          0.00145594
          0.00129198
          0.00113816
          0.000699338
          0.000508196
          -0.000321254
          -0.000602443
          0.000512508
          0.000121778
          0
          0
          -0.000821391
          7.92619e-05
          0.000831436
          0.00058065
          0.000944684
          0.00154451
          0.000850673
          0.000954048
          0.000757366
          -0.000285136
          -0.00037606
          -0.000426395
          -0.000901345
          -0.00164509
          0
          0
          0.000366755
          0.000720454
          0.00120786
          0.00253548
          0.00170052
          0.0021411
          0.00293912
          0.00211659
          0.00158046
          0.00152784
          0.001477
          0.000391663
          0.000441473
          -0.000222422
          0
          0
          0.000285601
          0.00165263
          0.00131735
          0.00213851
          0.00348713
          0.00266304
          0.00288745
          0.00318447
          0.00217242
          0.0029219
          0.00159031
          0.0008549
          0.00199153
          -9.16613e-05
          0
          0
          0.000126314
          0.00151223
          0.0025476
          0.00275396
          0.00333584
          0.00497675
          0.00233285
          0.00360066
          0.00472476
          0.00189452
          0.00215991
          0.00159977
          0.00119727
          -0.000457107
          0
          0
          0.000918993
          0.00220403
          0.00330226
          0.00568578
          0.00418404
          0.00438499
          0.00708047
          0.0052645
          0.00493894
          0.00568185
          0.00402913
          0.00349001
          0.00341866
          0.0010796
          0
          0
          0.000737721
          0.00361916
          0.00384994
          0.00443176
          0.0053456
          0.00552518
          0.00588773
          0.00653262
          0.00229959
          0.00459307
          0.00337945
          0.000361778
          0.000305373
          -0.00362902
          0
          0
          0.00311844
          0.00577856
          0.00584534
          0.00710757
          0.00968306
          0.0128062
          0.00789412
          0.00946114
          0.0131596
          0.00755048
          0.011666
          0.00994218
          0.0109907
          0.010337
          0
          0
          0.000641697
          0.00273732
          0.00431432
          0.00998642
          0.00821021
          0.00490832
          0.0066573
          0.00364908
          0.00213641
          0.00547032
          -0.00581772
          0.00122784
          -0.00279684
          -0.0145119
          0
          0
          0.00484393
          0.0129156
          0.0202608
          0.0204383
          0.014869
          0.0171387
          0.0168666
          0.0199738
          0.0158081
          0.0167743
          0.0247237
          0.0125716
          0.0234341
          0.0237882
          0
          0
          0.00781785
          0.0228905
          0.0200156
          0.0121624
          0.0119097
          0.0105653
          0.0039664
          0.000260662
          -0.00311828
          -0.011778
          -0.0160892
          -0.00952876
          -0.0318432
          -0.0301674
          0
          0
          0.015575
          0.00854971
          -0.00273636
          0.00818711
          0.00771781
          0.0142181
          0.0176753
          0.0226509
          0.0265533
          0.0354629
          0.0314568
          0.0338008
          0.0466498
          0.027597
          0
          0
          -0.0482434
          -0.0786124
          -0.0793013
          -0.0875405
          -0.0897037
          -0.0897784
          -0.0895506
          -0.084454
          -0.0807606
          -0.0740791
          -0.0626262
          -0.0586162
          -0.0500317
          -0.0224983
          0
          0.0256
          0.0256
          0.0256
          0.0256
          0.0256
          0.0256
          0.0256
          0.0256
          0.0256
          0.0256
          0.0256
          0.0256
          0.0256
          0.0256
          0.0256
          0.0256
        </DataArray>
        <DataArray type="Float32" Name="uy" format="ascii">
          0
          0
          0
          0
          0
          0
          0
          0
          0
          0
          0
          0
          0
          0
          0
          0
          0
          -0.00429898
          -0.0040885
          -0.00321832
          -0.00385408
          -0.00229713
          -0.00362182
          -0.00184941
          -0.00266742
          -0.000918002
          -0.00154606
          0.00123615
          -0.000400512
          0.0044051
          0.00266332
          0
          0
          -0.0046469
          -0.0041286
          -0.0033109
          -0.00442756
          -0.00204974
          -0.00336501
          -0.00183557
          -0.00195487
          -0.000724815
          -0.00114667
          0.00201547
          -0.000690154
          0.00362752
          0.00235353
          0
          0
          -0.00486655
          -0.0045699
          -0.00326732
          -0.00433596
          -0.00281544
          -0.00257107
          -0.00159438
          -0.0018538
          -1.49502e-05
          -0.000432185
          0.00259203
          -0.001128
          0.0043091
          0.0022196
          0
          0
          -0.00493829
          -0.00521983
          -0.00401461
          -0.00411723
          -0.00259489
          -0.00355605
          -0.000634154
          -0.00197003
          0.000817477
          -9.93928e-05
          0.00248389
          -0.000422985
          0.00488498
          0.00171116
          0
          0
          -0.00592595
          -0.00515994
          -0.00443145
          -0.0052388
          -0.00185498
          -0.00353289
          -0.00176922
          0.00019583
          0.000268901
          -0.000114745
          0.00423468
          -0.000734679
          0.00538042
          0.00274107
          0
          0
          -0.00680254
          -0.00634979
          -0.00412264
          -0.00589979
          -0.00350218
          -0.0021608
          -0.000954771
          -0.00185288
          0.00217049
          -8.88853e-05
          0.00544289
          -0.00146539
          0.0064827
          0.00345979
          0
          0
          -0.00797166
          -0.00705576
          -0.00599304
          -0.00570506
          -0.00325899
          -0.00343665
          0.000395721
          -0.002324
          0.00180409
          0.00298355
          0.00414379
          0.000487106
          0.00681494
          0.00568013
          0
          0
          -0.00992542
          -0.00837511
          -0.0069621
          -0.00687354
          -0.00185839
          -0.00460954
          -0.00242925
          0.00209305
          0.00122728
          0.000409241
          0.00967163
          -0.00297198
          0.0118796
          0.00408086
          0
          0
          -0.0129431
          -0.0100398
          -0.00632815
          -0.00748545
          -0.00519372
          -0.00335358
          0.000428687
          -0.00142953
          0.0060023
          -0.000207789
          0.0084565
          0.00360869
          0.00729965
          0.0119519
          0
          0
          -0.0169496
          -0.00987718
          -0.00903016
          -0.010611
          -0.00554258
          -0.00245247
          0.00116879
          -0.00119337
          0.00145554
          0.00592057
          0.00693236
          -0.00295962
          0.0174011
          0.00831493
          0
          0
          -0.0199401
          -0.0142838
          -0.0144615
          -0.00959932
          0.000210347
          -0.00352603
          0.0011716
          0.00232133
          0.00472615
          0.00221581
          0.0177502
          -0.00575051
          0.0191033
          0.0203585
          0
          0
          -0.0314956
          -0.0265271
          -0.0109695
          -0.00450061
          -0.00263516
          -0.00199018
          0.000776167
          0.00103329
          0.0076849
          0.00231536
          0.00757663
          0.00498946
          0.0141314
          0.0132085
          0
          0
          -0.0530733
          -0.0158509
          -0.00760783
          -0.00436357
          -0.00034238
          0.000252249
          0.00705183
          0.00503055
          0.011213
          0.0108006
          0.0148261
          0.000325393
          0.0385381
          0.0108998
          0
          0
          -0.0304672
          -0.00376311
          -0.0105221
          -0.00927856
          -0.00440323
          -0.0096151
          -0.00161807
          -0.00672756
          0.000322966
          -0.00404339
          0.0105341
          -0.0101375
          0.021174
          0.0217723
          0
          0
          0
          0
          0
          0
          0
          0
          0
          0
          0
          0
          0
          0
          0
          0
          0
        </DataArray>
        <DataArray type="Float32" Name="velocity" NumberOfComponents="3" format="ascii">
          0 0 0
          0 0 0
          0 0 0
          0 0 0
          0 0 0
          0 0 0
          0 0 0
          0 0 0
          0 0 0
          0 0 0
          0 0 0
          0 0 0
          0 0 0
          0 0 0
          0 0 0
          0 0 0
          0 0 0
          -0.0010186 -0.00429898 0
          -0.000428888 -0.0040885 0
          -0.00010892 -0.00321832 0
          0.000243278 -0.00385408 0
          0.000415195 -0.00229713 0
          0.000241829 -0.00362182 0
          0.00024887 -0.00184941 0
          -0.00016168 -0.00266742 0
          -0.000647869 -0.000918002 0
          -0.00106569 -0.00154606 0
          -0.0014457 0.00123615 0
          -0.00212039 -0.000400512 0
          -0.00195236 0.0044051 0
          -0.00163441 0.00266332 0
          0 0 0
          0 0 0
          0.000423675 -0.0046469 0
          0.000787914 -0.0041286 0
          0.000670479 -0.0033109 0
          0.00122246 -0.00442756 0
          0.0016618 -0.00204974 0
          0.00145594 -0.00336501 0
          0.00129198 -0.00183557 0
          0.00113816 -0.00195487 0
          0.000699338 -0.000724815 0
          0.000508196 -0.00114667 0
          -0.000321254 0.00201547 0
          -0.000602443 -0.000690154 0
          0.000512508 0.00362752 0
          0.000121778 0.00235353 0
          0 0 0
          0 0 0
          -0.000821391 -0.00486655 0
          7.92619e-05 -0.0045699 0
          0.000831436 -0.00326732 0
          0.00058065 -0.00433596 0
          0.000944684 -0.00281544 0
          0.00154451 -0.00257107 0
          0.000850673 -0.00159438 0
          0.000954048 -0.0018538 0
          0.000757366 -1.49502e-05 0
          -0.000285136 -0.000432185 0
          -0.00037606 0.00259203 0
          -0.000426395 -0.001128 0
          -0.000901345 0.0043091 0
          -0.00164509 0.0022196 0
          0 0 0
          0 0 0
          0.000366755 -0.00493829 0
          0.000720454 -0.00521983 0
          0.00120786 -0.00401461 0
          0.00253548 -0.00411723 0
          0.00170052 -0.00259489 0
          0.0021411 -0.00355605 0
          0.00293912 -0.000634154 0
          0.00211659 -0.00197003 0
          0.00158046 0.000817477 0
          0.00152784 -9.93928e-05 0
          0.001477 0.00248389 0
          0.000391663 -0.000422985 0
          0.000441473 0.00488498 0
          -0.000222422 0.00171116 0
          0 0 0
          0 0 0
          0.000285601 -0.00592595 0
          0.00165263 -0.00515994 0
          0.00131735 -0.00443145 0
          0.00213851 -0.0052388 0
          0.00348713 -0.00185498 0
          0.00266304 -0.00353289 0
          0.00288745 -0.00176922 0
          0.00318447 0.00019583 0
          0.00217242 0.000268901 0
          0.0029219 -0.000114745 0
          0.00159031 0.00423468 0
          0.0008549 -0.000734679 0
          0.00199153 0.00538042 0
          -9.16613e-05 0.00274107 0
          0 0 0
          0 0 0
          0.000126314 -0.00680254 0
          0.00151223 -0.00634979 0
          0.0025476 -0.00412264 0
          0.00275396 -0.00589979 0
          0.00333584 -0.00350218 0
          0.00497675 -0.0021608 0
          0.00233285 -0.000954771 0
          0.00360066 -0.00185288 0
          0.00472476 0.00217049 0
          0.00189452 -8.88853e-05 0
          0.00215991 0.00544289 0
          0.00159977 -0.00146539 0
          0.00119727 0.0064827 0
          -0.000457107 0.00345979 0
          0 0 0
          0 0 0
          0.000918993 -0.00797166 0
          0.00220403 -0.00705576 0
          0.00330226 -0.00599304 0
          0.00568578 -0.00570506 0
          0.00418404 -0.00325899 0
          0.00438499 -0.00343665 0
          0.00708047 0.000395721 0
          0.0052645 -0.002324 0
          0.00493894 0.00180409 0
          0.00568185 0.00298355 0
          0.00402913 0.00414379 0
          0.00349001 0.000487106 0
          0.00341866 0.00681494 0
          0.0010796 0.00568013 0
          0 0 0
          0 0 0
          0.000737721 -0.00992542 0
          0.00361916 -0.00837511 0
          0.00384994 -0.0069621 0
          0.00443176 -0.00687354 0
          0.0053456 -0.00185839 0
          0.00552518 -0.00460954 0
          0.00588773 -0.00242925 0
          0.00653262 0.00209305 0
          0.00229959 0.00122728 0
          0.00459307 0.000409241 0
          0.00337945 0.00967163 0
          0.000361778 -0.00297198 0
          0.000305373 0.0118796 0
          -0.00362902 0.00408086 0
          0 0 0
          0 0 0
          0.00311844 -0.0129431 0
          0.00577856 -0.0100398 0
          0.00584534 -0.00632815 0
          0.00710757 -0.00748545 0
          0.00968306 -0.00519372 0
          0.0128062 -0.00335358 0
          0.00789412 0.000428687 0
          0.00946114 -0.00142953 0
          0.0131596 0.0060023 0
          0.00755048 -0.000207789 0
          0.011666 0.0084565 0
          0.00994218 0.00360869 0
          0.0109907 0.00729965 0
          0.010337 0.0119519 0
          0 0 0
          0 0 0
          0.000641697 -0.0169496 0
          0.00273732 -0.00987718 0
          0.00431432 -0.00903016 0
          0.00998642 -0.010611 0
          0.00821021 -0.00554258 0
          0.00490832 -0.00245247 0
          0.0066573 0.00116879 0
          0.00364908 -0.00119337 0
          0.00213641 0.00145554 0
          0.00547032 0.00592057 0
          -0.00581772 0.00693236 0
          0.00122784 -0.00295962 0
          -0.00279684 0.0174011 0
          -0.0145119 0.00831493 0
          0 0 0
          0 0 0
          0.00484393 -0.0199401 0
          0.0129156 -0.0142838 0
          0.0202608 -0.0144615 0
          0.0204383 -0.00959932 0
          0.014869 0.000210347 0
          0.0171387 -0.00352603 0
          0.0168666 0.0011716 0
          0.0199738 0.00232133 0
          0.0158081 0.00472615 0
          0.0167743 0.00221581 0
          0.0247237 0.0177502 0
          0.0125716 -0.00575051 0
          0.0234341 0.0191033 0
          0.0237882 0.0203585 0
          0 0 0
          0 0 0
          0.00781785 -0.0314956 0
          0.0228905 -0.0265271 0
          0.0200156 -0.0109695 0
          0.0121624 -0.00450061 0
          0.0119097 -0.00263516 0
          0.0105653 -0.00199018 0
          0.0039664 0.000776167 0
          0.000260662 0.00103329 0
          -0.00311828 0.0076849 0
          -0.011778 0.00231536 0
          -0.0160892 0.00757663 0
          -0.00952876 0.00498946 0
          -0.0318432 0.0141314 0
          -0.0301674 0.0132085 0
          0 0 0
          0 0 0
          0.015575 -0.0530733 0
          0.00854971 -0.0158509 0
          -0.00273636 -0.00760783 0
          0.00818711 -0.00436357 0
          0.00771781 -0.00034238 0
          0.0142181 0.000252249 0
          0.0176753 0.00705183 0
          0.0226509 0.00503055 0
          0.0265533 0.011213 0
          0.0354629 0.0108006 0
          0.0314568 0.0148261 0
          0.0338008 0.000325393 0
          0.0466498 0.0385381 0
          0.027597 0.0108998 0
          0 0 0
          0 0 0
          -0.0482434 -0.0304672 0
          -0.0786124 -0.00376311 0
          -0.0793013 -0.0105221 0
          -0.0875405 -0.00927856 0
          -0.0897037 -0.00440323 0
          -0.0897784 -0.0096151 0
          -0.0895506 -0.00161807 0
          -0.084454 -0.00672756 0
          -0.0807606 0.000322966 0
          -0.0740791 -0.00404339 0
          -0.0626262 0.0105341 0
          -0.0586162 -0.0101375 0
          -0.0500317 0.021174 0
          -0.0224983 0.0217723 0
          0 0 0
          0.0256 0 0
          0.0256 0 0
          0.0256 0 0
          0.0256 0 0
          0.0256 0 0
          0.0256 0 0
          0.0256 0 0
          0.0256 0 0
          0.0256 0 0
          0.0256 0 0
          0.0256 0 0
          0.0256 0 0
          0.0256 0 0
          0.0256 0 0
          0.0256 0 0
          0.0256 0 0
        </DataArray>
      </PointData>
      <CellData>
      </CellData>
    </Piece>
  </ImageData>
</VTKFile>
