<?xml version="1.0"?>
<VTKFile type="ImageData" version="0.1" byte_order="LittleEndian">
  <ImageData WholeExtent="0 15 0 15 0 0" Origin="0 0 0" Spacing="1 1 1">
    <Piece Extent="0 15 0 15 0 0">
      <PointData>
        <DataArray type="Float32" Name="rho" format="ascii">
          0.984637
          0.978469
          0.982638
          0.982029
          0.982567
          0.983843
          0.982561
          0.984808
          0.983906
          0.986553
          0.986457
          0.991508
          0.98734
          1.0012
          0.994249
          0.992855
          0.988027
          0.990378
          0.990375
          0.990483
          0.990044
          0.990321
          0.989987
          0.989981
          0.989875
          0.989815
          0.989698
          0.989833
          0.989654
          0.989688
          0.990202
          0.990178
          0.989723
          0.990645
          0.990363
          0.990476
          0.990434
          0.990112
          0.990251
          0.989991
          0.989912
          0.989868
          0.989761
          0.989665
          0.989745
          0.989674
          0.989454
          0.990231
          0.98925
          0.990658
          0.99071
          0.99041
          0.990523
          0.990389
          0.990083
          0.990194
          0.989915
          0.989854
          0.989768
          0.989649
          0.989627
          0.98954
          0.989623
          0.990149
          0.989788
          0.990744
          0.990773
          0.990748
          0.990399
          0.99051
          0.990297
          0.98999
          0.990146
          0.989721
          0.98975
          0.989666
          0.989473
          0.989528
          0.989394
          0.989815
          0.989983
          0.990991
          0.990784
          0.990847
          0.990711
          0.990295
          0.990493
          0.990176
          0.989773
          0.990042
          0.989543
          0.989569
          0.989444
          0.989328
          0.989255
          0.989761
          0.98976
          0.991147
          0.991112
          0.990749
          0.990823
          0.990718
          0.990133
          0.990338
          0.989951
          0.989632
          0.989835
          0.9892
          0.989475
          0.989091
          0.989374
          0.989308
          0.990556
          0.991304
          0.991177
          0.991156
          0.990782
          0.990735
          0.99046
          0.989856
          0.990369
          0.989499
          0.989336
          0.989708
          0.988816
          0.989481
          0.98833
          0.989459
          0.989307
          0.991555
          0.991384
          0.991387
          0.991033
          0.990424
          0.990626
          0.990448
          0.989281
          0.990245
          0.9891
          0.988958
          0.989417
          0.987976
          0.989823
          0.98821
          0.993062
          0.991859
          0.991876
          0.991269
          0.991017
          0.991086
          0.990357
          0.99006
          0.990155
          0.988712
          0.990092
          0.98846
          0.988631
          0.989541
          0.986763
          0.988823
          0.98653
          0.992473
          0.991884
          0.991445
          0.991532
          0.991126
          0.990181
          0.990035
          0.989836
          0.989644
          0.988217
          0.990061
          0.987678
          0.987654
          0.990132
          0.986079
          0.996914
          0.992907
          0.991731
          0.99272
          0.991446
          0.99035
          0.99072
          0.990049
          0.989126
          0.989505
          0.989497
          0.986158
          0.990157
          0.987521
          0.983356
          0.989214
          0.981735
          0.991925
          0.994569
          0.991658
          0.990899
          0.991309
          0.990211
          0.989731
          0.989565
          0.988738
          0.988434
          0.988853
          0.987347
          0.987246
          0.991573
          0.982553
          0.997267
          0.995873
          0.992529
          0.991853
          0.991437
          0.990787
          0.989534
          0.989607
          0.98862
          0.988863
          0.986924
          0.988631
          0.988384
          0.984184
          0.980916
          0.990157
          0.978113
          0.996989
          0.990715
          0.9942
          0.991349
          0.990144
          0.990872
          0.988515
          0.989821
          0.987683
          0.988843
          0.98727
          0.987226
          0.983594
          0.995126
          0.995939
          0.943567
          0.988546
          0.99096
          0.991567
          0.992071
          0.990175
          0.990313
          0.989314
          0.988831
          0.988679
          0.987892
          0.988951
          0.985468
          0.990518
          0.98419
          0.985254
        </DataArray>
        <DataArray type="Float32" Name="ux" format="ascii">
          0
          0
          0
          0
          0
          0
          0
          0
          0
          0
          0
          0
          0
          0
          0
          0
          0
          -0.00139947
          -0.00119662
          -0.00100026
          -0.000801863
          -0.000802504
          -0.000953122
          -0.00093586
          -0.00119728
          -0.0015078
          -0.00166972
          -0.00181327
          -0.00230058
          -0.00185426
          -0.00156902
          0
          0
          7.54332e-05
          0.000218053
          -0.000233104
          0.000110847
          0.000459519
          0.000159291
          3.14132e-05
          -3.54066e-05
          -0.000316216
          -0.000285279
          -0.000897761
          -0.000922023
          0.00032789
          -6.72579e-05
          0
          0
          -0.00123058
          -0.000606488
          -0.000114878
          -0.000599645
          -0.000359772
          0.000207145
          -0.000509687
          -0.000390277
          -0.000374086
          -0.00126162
          -0.00117273
          -0.000995131
          -0.00138377
          -0.00194985
          0
          0
          -0.000143021
          -8.95666e-05
          0.000180997
          0.00123478
          0.000269275
          0.000583298
          0.00138397
          0.000679058
          0.000236517
          0.0003978
          0.000497701
          -0.000356295
          2.52236e-05
          -0.000477822
          0
          0
          -0.000215578
          0.000747168
          0.000103847
          0.000757009
          0.00181204
          0.000840537
          0.00116961
          0.0015164
          0.000597186
          0.00140361
          0.000363555
          -9.35987e-05
          0.00116286
          -0.00060719
          0
          0
          -0.0004871
          0.000541175
          0.00115882
          0.000953907
          0.00149783
          0.00308145
          0.00048351
          0.0016272
          0.00297927
          0.000374394
          0.000845464
          0.000638453
          0.000469172
          -0.000831678
          0
          0
          0.000177921
          0.000955295
          0.00159017
          0.00351704
          0.00207618
          0.00219816
          0.00463163
          0.00287135
          0.00265828
          0.00369783
          0.00213034
          0.00189557
          0.00214775
          2.19447e-05
          0
          0
          -0.000277922
          0.00174603
          0.00173196
          0.00241921
          0.00288981
          0.00263202
          0.0035196
          0.00429099
          0.000522948
          0.00273102
          0.00222528
          -0.00050412
          5.77208e-05
          -0.00314931
          0
          0
          0.00200888
          0.0039411
          0.00370951
          0.00421419
          0.00622099
          0.00921308
          0.00464277
          0.00629818
          0.00995783
          0.00450956
          0.00818295
          0.00737611
          0.00790845
          0.00728192
          0
          0
          -0.000942411
          0.000498457
          0.000845213
          0.005476
          0.00486842
          0.00215183
          0.00411149
          0.00124669
          0.000403331
          0.0038797
          -0.00599642
          0.000430464
          -0.00213067
          -0.0126808
          0
          0
          0.00283926
          0.00698832
          0.012355
          0.014251
          0.00964678
          0.0119543
          0.0124544
          0.0150852
          0.0113728
          0.012623
          0.0204889
          0.00938569
          0.0185757
          0.0192387
          0
          0
          0.00246797
          0.0142945
          0.0131621
          0.00682566
          0.00710958
          0.00676561
          0.00189239
          -0.000413475
          -0.00250235
          -0.0102543
          -0.0131476
          -0.00765593
          -0.0277192
          -0.0268983
          0
          0
          0.0156354
          0.0142361
          0.00232291
          0.0107241
          0.00976511
          0.0131092
          0.0155246
          0.0181918
          0.0209573
          0.0274715
          0.0227409
          0.0255484
          0.0365962
          0.0203013
          0
          0
          -0.0403357
          -0.0640569
          -0.0633669
          -0.0707513
          -0.0737054
          -0.0738133
          -0.0748978
          -0.0711608
          -0.0683043
          -0.0631036
          -0.0530997
          -0.0513474
          -0.0426701
          -0.0195371
          0
          0.0256
          0.0256
          0.0256
          0.0256
          0.0256
          0.0256
          0.0256
          0.0256
          0.0256
          0.0256
          0.0256
          0.0256
          0.0256
          0.0256
          0.0256
          0.0256
        </DataArray>
        <DataArray type="Float32" Name="uy" format="ascii">
          0
          0
          0
          0
          0
          0
          0
          0
          0
          0
          0
          0
          0
          0
          0
          0
          0
          -0.00346874
          -0.00336329
          -0.00239484
          -0.00309174
          -0.00153338
          -0.00286523
          -0.00121644
          -0.0019878
          -0.000469055
          -0.00115802
          0.00118232
          -0.000491777
          0.00373537
          0.00165161
          0
          0
          -0.00363623
          -0.00329194
          -0.00245305
          -0.00361558
          -0.0013268
          -0.00267045
          -0.0013412
          -0.00145446
          -0.000450438
          -0.00100726
          0.00183992
          -0.000971612
          0.00297043
          0.00151591
          0
          0
          -0.00375791
          -0.00369098
          -0.00222834
          -0.00358655
          -0.00206604
          -0.00198561
          -0.00113864
          -0.00149632
          4.80276e-05
          -0.000391021
          0.00221263
          -0.00148297
          0.00374634
          0.00129382
          0
          0
          -0.00360273
          -0.00427451
          -0.00287485
          -0.0032476
          -0.00192779
          -0.0029353
          -0.000281582
          -0.00171083
          0.000679206
          -0.000169641
          0.0019931
          -0.000924448
          0.00423297
          0.000731334
          0
          0
          -0.00431552
          -0.00408198
          -0.00323537
          -0.00428654
          -0.00105486
          -0.00297317
          -0.00153451
          0.000287792
          0.000136949
          -0.000414301
          0.00362717
          -0.00145667
          0.00463195
          0.00155697
          0
          0
          -0.00485793
          -0.00504971
          -0.00271169
          -0.00486627
          -0.00255325
          -0.00173069
          -0.00077997
          -0.00172995
          0.00178925
          -0.000325285
          0.0043933
          -0.00212065
          0.00552364
          0.00207278
          0
          0
          -0.00561927
          -0.0055763
          -0.00414531
          -0.0045185
          -0.00263823
          -0.00285004
          0.000606786
          -0.00229629
          0.0012211
          0.00239084
          0.00322678
          -0.000817857
          0.00606657
          0.00357937
          0
          0
          -0.00671454
          -0.00652191
          -0.00491003
          -0.00577401
          -0.000874696
          -0.00405841
          -0.0022164
          0.00188181
          0.000574074
          -0.000215553
          0.00824966
          -0.00398534
          0.0101735
          0.0023687
          0
          0
          -0.0088757
          -0.00766644
          -0.00459669
          -0.00592212
          -0.00374152
          -0.00306862
          7.10961e-06
          -0.00169061
          0.00492876
          -0.000768281
          0.00656742
          0.00175209
          0.0061785
          0.00870373
          0
          0
          -0.0115024
          -0.00762653
          -0.00578624
          -0.00869434
          -0.00450214
          -0.00229346
          0.000852548
          -0.00170999
          0.000746593
          0.00507134
          0.00527302
          -0.00458353
          0.0157301
          0.0052916
          0
          0
          -0.0130329
          -0.00974171
          -0.010603
          -0.00919185
          0.000245778
          -0.00396509
          0.000424133
          0.00158649
          0.00293252
          0.000980899
          0.0146443
          -0.00723891
          0.0166567
          0.0156844
          0
          0
          -0.0189626
          -0.0189949
          -0.00952046
          -0.00483901
          -0.00284027
          -0.00317145
          -0.000245386
          0.000102556
          0.00601986
          0.000566951
          0.00546448
          0.00365471
          0.0125186
          0.00963977
          0
          0
          -0.0381934
          -0.0122536
          -0.0049484
          -0.00615814
          -0.000341358
          -0.00176731
          0.00458631
          0.00314377
          0.00861321
          0.00851358
          0.0114322
          -0.00110618
          0.0355212
          0.00579193
          0
          0
          -0.024151
          -0.00250357
          -0.00617177
          -0.00898643
          -0.00188082
          -0.00811
          -0.000804917
          -0.00495974
          0.000624295
          -0.00273043
          0.00890976
          -0.0103477
          0.020076
          0.0137399
          0
          0
          0
          0
          0
          0
          0
          0
          0
          0
          0
          0
          0
          0
          0
          0
          0
        </DataArray>
        <DataArray type="Float32" Name="velocity" NumberOfComponents="3" format="ascii">
          0 0 0
          0 0 0
          0 0 0
          0 0 0
          0 0 0
          0 0 0
          0 0 0
          0 0 0
          0 0 0
          0 0 0
          0 0 0
          0 0 0
          0 0 0
          0 0 0
          0 0 0
          0 0 0
          0 0 0
          -0.00139947 -0.00346874 0
          -0.00119662 -0.00336329 0
          -0.00100026 -0.00239484 0
          -0.000801863 -0.00309174 0
          -0.000802504 -0.00153338 0
          -0.000953122 -0.00286523 0
          -0.00093586 -0.00121644 0
          -0.00119728 -0.0019878 0
          -0.0015078 -0.000469055 0
          -0.00166972 -0.00115802 0
          -0.00181327 0.00118232 0
          -0.00230058 -0.000491777 0
          -0.00185426 0.00373537 0
          -0.00156902 0.00165161 0
          0 0 0
          0 0 0
          7.54332e-05 -0.00363623 0
          0.000218053 -0.00329194 0
          -0.000233104 -0.00245305 0
          0.000110847 -0.00361558 0
          0.000459519 -0.0013268 0
          0.000159291 -0.00267045 0
          3.14132e-05 -0.0013412 0
          -3.54066e-05 -0.00145446 0
          -0.000316216 -0.000450438 0
          -0.000285279 -0.00100726 0
          -0.000897761 0.00183992 0
          -0.000922023 -0.000971612 0
          0.00032789 0.00297043 0
          -6.72579e-05 0.00151591 0
          0 0 0
          0 0 0
          -0.00123058 -0.00375791 0
          -0.000606488 -0.00369098 0
          -0.000114878 -0.00222834 0
          -0.000599645 -0.00358655 0
          -0.000359772 -0.00206604 0
          0.000207145 -0.00198561 0
          -0.000509687 -0.00113864 0
          -0.000390277 -0.00149632 0
          -0.000374086 4.80276e-05 0
          -0.00126162 -0.000391021 0
          -0.00117273 0.00221263 0
          -0.000995131 -0.00148297 0
          -0.00138377 0.00374634 0
          -0.00194985 0.00129382 0
          0 0 0
          0 0 0
          -0.000143021 -0.00360273 0
          -8.95666e-05 -0.00427451 0
          0.000180997 -0.00287485 0
          0.00123478 -0.0032476 0
          0.000269275 -0.00192779 0
          0.000583298 -0.0029353 0
          0.00138397 -0.000281582 0
          0.000679058 -0.00171083 0
          0.000236517 0.000679206 0
          0.0003978 -0.000169641 0
          0.000497701 0.0019931 0
          -0.000356295 -0.000924448 0
          2.52236e-05 0.00423297 0
          -0.000477822 0.000731334 0
          0 0 0
          0 0 0
          -0.000215578 -0.00431552 0
          0.000747168 -0.00408198 0
          0.000103847 -0.00323537 0
          0.000757009 -0.00428654 0
          0.00181204 -0.00105486 0
          0.000840537 -0.00297317 0
          0.00116961 -0.00153451 0
          0.0015164 0.000287792 0
          0.000597186 0.000136949 0
          0.00140361 -0.000414301 0
          0.000363555 0.00362717 0
          -9.35987e-05 -0.00145667 0
          0.00116286 0.00463195 0
          -0.00060719 0.00155697 0
          0 0 0
          0 0 0
          -0.0004871 -0.00485793 0
          0.000541175 -0.00504971 0
          0.00115882 -0.00271169 0
          0.000953907 -0.00486627 0
          0.00149783 -0.00255325 0
          0.00308145 -0.00173069 0
          0.00048351 -0.00077997 0
          0.0016272 -0.00172995 0
          0.00297927 0.00178925 0
          0.000374394 -0.000325285 0
          0.000845464 0.0043933 0
          0.000638453 -0.00212065 0
          0.000469172 0.00552364 0
          -0.000831678 0.00207278 0
          0 0 0
          0 0 0
          0.000177921 -0.00561927 0
          0.000955295 -0.0055763 0
          0.00159017 -0.00414531 0
          0.00351704 -0.0045185 0
          0.00207618 -0.00263823 0
          0.00219816 -0.00285004 0
          0.00463163 0.000606786 0
          0.00287135 -0.00229629 0
          0.00265828 0.0012211 0
          0.00369783 0.00239084 0
          0.00213034 0.00322678 0
          0.00189557 -0.000817857 0
          0.00214775 0.00606657 0
          2.19447e-05 0.00357937 0
          0 0 0
          0 0 0
          -0.000277922 -0.00671454 0
          0.00174603 -0.00652191 0
          0.00173196 -0.00491003 0
          0.00241921 -0.00577401 0
          0.00288981 -0.000874696 0
          0.00263202 -0.00405841 0
          0.0035196 -0.0022164 0
          0.00429099 0.00188181 0
          0.000522948 0.000574074 0
          0.00273102 -0.000215553 0
          0.00222528 0.00824966 0
          -0.00050412 -0.00398534 0
          5.77208e-05 0.0101735 0
          -0.00314931 0.0023687 0
          0 0 0
          0 0 0
          0.00200888 -0.0088757 0
          0.0039411 -0.00766644 0
          0.00370951 -0.00459669 0
          0.00421419 -0.00592212 0
          0.00622099 -0.00374152 0
          0.00921308 -0.00306862 0
          0.00464277 7.10961e-06 0
          0.00629818 -0.00169061 0
          0.00995783 0.00492876 0
          0.00450956 -0.000768281 0
          0.00818295 0.00656742 0
          0.00737611 0.00175209 0
          0.00790845 0.0061785 0
          0.00728192 0.00870373 0
          0 0 0
          0 0 0
          -0.000942411 -0.0115024 0
          0.000498457 -0.00762653 0
          0.000845213 -0.00578624 0
          0.005476 -0.00869434 0
          0.00486842 -0.00450214 0
          0.00215183 -0.00229346 0
          0.00411149 0.000852548 0
          0.00124669 -0.00170999 0
          0.000403331 0.000746593 0
          0.0038797 0.00507134 0
          -0.00599642 0.00527302 0
          0.000430464 -0.00458353 0
          -0.00213067 0.0157301 0
          -0.0126808 0.0052916 0
          0 0 0
          0 0 0
          0.00283926 -0.0130329 0
          0.00698832 -0.00974171 0
          0.012355 -0.010603 0
          0.014251 -0.00919185 0
          0.00964678 0.000245778 0
          0.0119543 -0.00396509 0
          0.0124544 0.000424133 0
          0.0150852 0.00158649 0
          0.0113728 0.00293252 0
          0.012623 0.000980899 0
          0.0204889 0.0146443 0
          0.00938569 -0.00723891 0
          0.0185757 0.0166567 0
          0.0192387 0.0156844 0
          0 0 0
          0 0 0
          0.00246797 -0.0189626 0
          0.0142945 -0.0189949 0
          0.0131621 -0.00952046 0
          0.00682566 -0.00483901 0
          0.00710958 -0.00284027 0
          0.00676561 -0.00317145 0
          0.00189239 -0.000245386 0
          -0.000413475 0.000102556 0
          -0.00250235 0.00601986 0
          -0.0102543 0.000566951 0
          -0.0131476 0.00546448 0
          -0.00765593 0.00365471 0
          -0.0277192 0.0125186 0
          -0.0268983 0.00963977 0
          0 0 0
          0 0 0
          0.0156354 -0.0381934 0
          0.0142361 -0.0122536 0
          0.00232291 -0.0049484 0
          0.0107241 -0.00615814 0
          0.00976511 -0.000341358 0
          0.0131092 -0.00176731 0
          0.0155246 0.00458631 0
          0.0181918 0.00314377 0
          0.0209573 0.00861321 0
          0.0274715 0.00851358 0
          0.0227409 0.0114322 0
          0.0255484 -0.00110618 0
          0.0365962 0.0355212 0
          0.0203013 0.00579193 0
          0 0 0
          0 0 0
          -0.0403357 -0.024151 0
          -0.0640569 -0.00250357 0
          -0.0633669 -0.00617177 0
          -0.0707513 -0.00898643 0
          -0.0737054 -0.00188082 0
          -0.0738133 -0.00811 0
          -0.0748978 -0.000804917 0
          -0.0711608 -0.00495974 0
          -0.0683043 0.000624295 0
          -0.0631036 -0.00273043 0
          -0.0530997 0.00890976 0
          -0.0513474 -0.0103477 0
          -0.0426701 0.020076 0
          -0.0195371 0.0137399 0
          0 0 0
          0.0256 0 0
          0.0256 0 0
          0.0256 0 0
          0.0256 0 0
          0.0256 0 0
          0.0256 0 0
          0.0256 0 0
          0.0256 0 0
          0.0256 0 0
          0.0256 0 0
          0.0256 0 0
          0.0256 0 0
          0.0256 0 0
          0.0256 0 0
          0.0256 0 0
          0.0256 0 0
        </DataArray>
      </PointData>
      <CellData>
      </CellData>
    </Piece>
  </ImageData>
</VTKFile>
