<?xml version="1.0"?>
<VTKFile type="ImageData" version="0.1" byte_order="LittleEndian">
  <ImageData WholeExtent="0 15 0 15 0 0" Origin="0 0 0" Spacing="1 1 1">
    <Piece Extent="0 15 0 15 0 0">
      <PointData>
        <DataArray type="Float32" Name="rho" format="ascii">
          2.36876e+15
          5.19329e+13
          2.38905e+17
          2.06932e+17
          -1.69959e+18
          -4.80215e+18
          1.8548e+18
          6.55306e+18
          -2.35838e+18
          1.27128e+18
          2.00431e+16
          9.18708e+16
          -8.84659e+17
          9.96205e+17
          -5.87204e+17
          -1.37571e+17
          1.54813e+17
          8.22528e+17
          1.28565e+17
          1.76015e+18
          -8.28072e+18
          3.58567e+18
          -4.5233e+18
          1.19843e+19
          -4.36613e+18
          3.39149e+18
          -1.56104e+18
          2.06965e+16
          3.04921e+18
          3.18626e+17
          -4.05644e+17
          -8.01548e+15
          1.24688e+17
          -8.2346e+17
          -4.25714e+18
          2.92617e+18
          7.79899e+18
          8.13408e+18
          8.86974e+18
          5.03433e+18
          -8.47049e+18
          3.0334e+18
          -3.17583e+18
          -1.04366e+18
          -1.45233e+17
          -8.6504e+17
          5.56121e+17
          -5.43126e+16
          -3.72199e+16
          -1.62919e+17
          4.81643e+17
          -1.87992e+18
          -5.33841e+18
          -4.15106e+18
          -1.77597e+19
          -3.70351e+18
          -7.35442e+17
          1.31685e+18
          1.03102e+18
          9.98876e+15
          -1.33766e+17
          -8.31845e+16
          4.84462e+17
          -4.96243e+14
          2.67879e+17
          4.29138e+17
          1.24728e+18
          1.25114e+19
          1.78826e+19
          2.82602e+19
          1.35291e+19
          4.58239e+18
          6.56813e+18
          4.77591e+18
          -2.13035e+18
          -6.77341e+17
          5.64474e+17
          -4.45496e+17
          1.35789e+18
          -4.07738e+17
          -4.94017e+16
          -3.84019e+17
          -6.32461e+17
          7.95049e+18
          -3.11424e+19
          -3.48777e+19
          1.69297e+17
          -9.33374e+18
          -5.46628e+18
          -6.79365e+17
          -2.35559e+18
          -2.12003e+17
          -9.57041e+17
          1.89945e+18
          3.22493e+17
          -2.3537e+18
          2.06298e+19
          -2.43288e+19
          -2.59023e+19
          -3.11571e+19
          -2.86301e+19
          2.03677e+19
          9.06322e+18
          -1.33537e+19
          2.84309e+18
          -8.86868e+17
          -1.12094e+18
          -8.39866e+17
          -1.53596e+17
          -2.4056e+17
          -2.01641e+18
          -1.90907e+16
          -9.66379e+18
          2.02857e+19
          2.11477e+19
          2.67901e+19
          2.79132e+19
          -7.11413e+19
          -4.12561e+19
          9.95984e+18
          -8.22329e+17
          -5.46743e+18
          -1.58802e+18
          -5.13418e+15
          2.17577e+17
          8.98282e+17
          9.67611e+16
          2.07863e+17
          -1.22924e+19
          3.8166e+20
          4.433e+20
          2.40343e+20
          2.13874e+20
          1.85329e+20
          9.55205e+19
          4.37704e+19
          4.15296e+18
          -1.62487e+18
          7.14526e+17
          9.24445e+17
          -4.62224e+18
          2.03729e+18
          -5.00009e+16
          -7.38885e+16
          -1.09563e+20
          -4.6675e+20
          -7.96682e+19
          -2.41781e+20
          -1.76631e+20
          -6.39549e+19
          -5.18451e+19
          7.52028e+19
          1.54409e+18
          -1.40928e+19
          -6.69628e+18
          4.92486e+18
          -5.02872e+17
          5.32229e+17
          2.10519e+17
          1.59287e+17
          -2.57461e+20
          -4.20797e+21
          -6.38258e+21
          -5.49534e+21
          -3.51638e+21
          -1.95122e+21
          -7.79886e+19
          1.4778e+20
          9.09477e+18
          -1.2417e+19
          2.21999e+19
          1.34213e+17
          -9.04031e+17
          2.09642e+17
          1.84146e+17
          -6.57951e+15
          6.16535e+20
          5.27848e+21
          6.89998e+21
          4.2922e+21
          3.79804e+21
          -3.51341e+21
          -1.91335e+20
          2.23823e+20
          1.50011e+19
          -1.63143e+19
          -6.64286e+18
          -6.28225e+18
          -3.5663e+17
          -2.67118e+17
          -1.70945e+17
          -4.90262e+16
          -1.34313e+24
          3.53319e+24
          3.89341e+24
          2.83671e+24
          4.19915e+21
          -5.51286e+21
          -2.86036e+20
          2.88161e+20
          1.60865e+19
          -2.24318e+19
          -1.13411e+17
          -4.25594e+16
          -3.35206e+17
          1.65647e+16
          3.32467e+16
          2.55204e+15
          -8.39437e+23
          -3.87385e+24
          -6.3924e+24
          3.89625e+24
          2.50017e+22
          5.0353e+20
          -3.64174e+20
          2.9721e+20
          3.66969e+19
          -2.09432e+19
          1.77806e+18
          -1.07864e+18
          7.63534e+16
          -4.12836e+16
          8.74731e+16
          5.89985e+15
          -3.70515e+23
          -4.133e+26
          -3.90714e+24
          3.54321e+24
          -2.7582e+22
          -1.09567e+22
          -4.50059e+20
          2.42145e+20
          4.51729e+19
          -2.18444e+19
          7.92524e+17
          -6.44027e+16
          6.09073e+15
          -4.98124e+16
          -8.89404e+15
          3.34682e+13
          8.99132e+23
          -6.61577e+23
          -1.05333e+24
          1.02631e+24
          1.86823e+22
          3.5144e+20
          -1.37919e+20
          -1.09583e+19
          -2.43886e+18
          -7.704e+18
          -7.35177e+17
          -1.7642e+17
          -9.02489e+16
          -2.89619e+15
          -6.46314e+14
          2.06597e+15
        </DataArray>
        <DataArray type="Float32" Name="ux" format="ascii">
          0
          0
          0
          0
          0
          0
          0
          0
          0
          0
          0
          0
          0
          0
          0
          0
          0
          -1.16806
          6.99223
          -0.69807
          -0.52408
          -1.42479
          -0.553142
          0.00884612
          0.761718
          0.25753
          1.08829
          0.244868
          -0.091564
          -0.753807
          0.139791
          0
          0
          -0.295539
          -0.335036
          -0.642243
          -0.0191653
          -0.334925
          0.108588
          0.895027
          0.400976
          0.835635
          0.855217
          -2.47608
          -7.82128
          0.0116766
          -0.0717361
          0
          0
          -1.44685
          1.60031
          -1.7352
          -0.125738
          -0.890593
          0.0322486
          1.32504
          -1.03668
          2.55217
          -1.9122
          32.4981
          -2.42601
          0.670262
          1.04124
          0
          0
          -0.392289
          -0.473094
          -0.96993
          -0.345804
          -0.101047
          0.633633
          -0.0447062
          0.241349
          0.334591
          1.21999
          1.36014
          0.504602
          -1.38118
          0.0795385
          0
          0
          -0.286615
          0.101736
          -1.05139
          -0.211644
          -0.0243362
          -21.1552
          -0.00397795
          -0.161599
          0.830173
          1.26761
          -1.6239
          -0.0240367
          -0.248342
          0.5481
          0
          0
          -0.0870384
          0.0497214
          -0.21434
          -0.0182378
          -0.374705
          -0.123439
          0.932368
          0.0932058
          1.55109
          0.928816
          -0.275842
          2.006
          -0.485124
          0.189336
          0
          0
          -0.180041
          -0.0198917
          -0.177339
          0.620291
          -0.0801023
          0.448026
          0.718519
          -1.07649
          0.571918
          0.564126
          27.4447
          -0.771801
          1.26476
          2.02336
          0
          0
          -0.185098
          0.436655
          0.124055
          0.173706
          0.32684
          0.459181
          1.07932
          0.118672
          1.76337
          1.2377
          -1.8157
          0.0432281
          1.04282
          -1.48184
          0
          0
          -0.0697532
          -2.40444
          -0.0691329
          -0.0192852
          -0.0949629
          -0.150234
          1.05239
          0.0781874
          0.0899788
          0.117235
          -0.0698855
          -1.39371
          0.889799
          -0.989828
          0
          0
          -0.210569
          0.08712
          0.329843
          0.462659
          1.04279
          0.30422
          1.02368
          0.282151
          1.24916
          0.00775662
          12.1375
          0.867397
          0.0706368
          0.294592
          0
          0
          -0.188454
          -0.106958
          0.12827
          0.0129371
          1.0223
          0.287564
          1.02041
          0.333475
          1.17679
          -0.0639437
          0.988096
          0.245572
          -0.342857
          -0.153376
          0
          0
          0.000212882
          0.272216
          1.00122
          0.394436
          1.01466
          0.377741
          1.01405
          0.450168
          0.917306
          -0.825357
          9.63509
          0.220172
          1.72254
          0.828295
          0
          0
          0.092626
          0.11074
          0.998534
          0.113634
          0.515971
          0.443474
          0.946378
          0.747256
          0.987006
          0.436015
          1.00084
          -2.59764
          -1.577
          0.788005
          0
          0
          1.012
          0.272382
          1.00142
          -0.127397
          1.00879
          0.171686
          1.17133
          0.756791
          0.95308
          0.312849
          4.14289
          -3.74734
          0.221401
          -1.889
          0
          0.0256
          0.0256
          0.0256
          0.0256
          0.0256
          0.0256
          0.0256
          0.0256
          0.0256
          0.0256
          0.0256
          0.0256
          0.0256
          0.0256
          0.0256
          0.0256
        </DataArray>
        <DataArray type="Float32" Name="uy" format="ascii">
          0
          0
          0
          0
          0
          0
          0
          0
          0
          0
          0
          0
          0
          0
          0
          0
          0
          -1.00911
          -7.93801
          0.412589
          -0.207406
          0.0563928
          -0.314458
          -0.243048
          -0.286581
          -0.147131
          -0.167778
          23.0938
          -0.145765
          -1.1312
          -0.529804
          0
          0
          -0.058982
          0.055041
          0.218937
          -0.0128724
          0.188098
          -0.932471
          -0.439459
          0.198934
          0.316695
          0.258257
          1.07033
          5.54858
          -0.119796
          -0.210146
          0
          0
          1.40793
          0.791233
          0.686647
          0.807863
          -0.165126
          0.0302835
          0.374731
          -4.79781
          1.63933
          -0.0672697
          10.6602
          -2.6374
          -7.85467
          0.0790147
          0
          0
          -1.05244
          -0.63816
          -1.05178
          -1.20536
          -0.771722
          0.429667
          -0.0692524
          -0.235007
          -0.113418
          -0.401408
          -0.0486869
          1.3257
          -0.916462
          -0.00920427
          0
          0
          -0.360383
          -1.33785
          0.597414
          -0.267989
          -0.456374
          26.1797
          0.020661
          1.04309
          2.97201
          0.57198
          2.04873
          0.849533
          -0.12397
          -1.18801
          0
          0
          -1.00421
          -1.01019
          -0.734052
          -0.953468
          -0.284373
          -0.692627
          -0.319949
          0.674967
          -0.213733
          1.19668
          0.140888
          0.05805
          1.55993
          0.211463
          0
          0
          -0.363413
          -0.334485
          -0.413378
          -0.45429
          0.198774
          0.0956951
          -0.184815
          -0.189527
          0.0941628
          0.319808
          -30.8214
          5.16451
          -1.21702
          4.91997
          0
          0
          -1.01422
          -1.02204
          -1.09522
          -0.963374
          -0.487219
          -0.535277
          -0.590346
          0.0329764
          -1.77821
          1.70664
          1.96246
          -0.081066
          -0.180184
          2.33371
          0
          0
          -0.166693
          -0.953064
          -0.310202
          -0.305738
          -0.348477
          0.158744
          -0.576329
          -0.41276
          -0.719894
          -1.13393
          0.104379
          1.61777
          0.480216
          1.36384
          0
          0
          -1.10532
          -1.0006
          -1.01746
          -1.01956
          -1.04163
          0.0878588
          -0.449923
          0.0789556
          -0.308876
          -0.0329074
          -14.0494
          0.676535
          0.501997
          0.31884
          0
          0
          -0.735234
          -0.377871
          -0.388118
          -0.0113468
          -0.465143
          0.0395379
          -0.279553
          0.0670765
          -0.192424
          1.16772
          1.02626
          1.07778
          1.29412
          1.3148
          0
          0
          -0.999693
          -1.00057
          -1.00125
          -0.114267
          -0.3327
          -0.0222843
          -0.162485
          0.122934
          -0.0808103
          2.19444
          -17.9144
          -0.506157
          5.48517
          -0.0590912
          0
          0
          -0.272461
          -0.111886
          -0.272756
          -0.705816
          -12.4015
          0.00811406
          0.0311768
          -0.5556
          -0.0534807
          -0.0486761
          -0.0468894
          1.08253
          -2.3547
          0.0997191
          0
          0
          -1.01199
          -0.0906121
          -0.00184108
          0.00137984
          -0.202816
          0.0659332
          0.159027
          0.0784181
          0.104142
          0.12449
          4.77254
          -3.49609
          0.751325
          0.904137
          0
          0
          0
          0
          0
          0
          0
          0
          0
          0
          0
          0
          0
          0
          0
          0
          0
        </DataArray>
        <DataArray type="Float32" Name="velocity" NumberOfComponents="3" format="ascii">
          0 0 0
          0 0 0
          0 0 0
          0 0 0
          0 0 0
          0 0 0
          0 0 0
          0 0 0
          0 0 0
          0 0 0
          0 0 0
          0 0 0
          0 0 0
          0 0 0
          0 0 0
          0 0 0
          0 0 0
          -1.16806 -1.00911 0
          6.99223 -7.93801 0
          -0.69807 0.412589 0
          -0.52408 -0.207406 0
          -1.42479 0.0563928 0
          -0.553142 -0.314458 0
          0.00884612 -0.243048 0
          0.761718 -0.286581 0
          0.25753 -0.147131 0
          1.08829 -0.167778 0
          0.244868 23.0938 0
          -0.091564 -0.145765 0
          -0.753807 -1.1312 0
          0.139791 -0.529804 0
          0 0 0
          0 0 0
          -0.295539 -0.058982 0
          -0.335036 0.055041 0
          -0.642243 0.218937 0
          -0.0191653 -0.0128724 0
          -0.334925 0.188098 0
          0.108588 -0.932471 0
          0.895027 -0.439459 0
          0.400976 0.198934 0
          0.835635 0.316695 0
          0.855217 0.258257 0
          -2.47608 1.07033 0
          -7.82128 5.54858 0
          0.0116766 -0.119796 0
          -0.0717361 -0.210146 0
          0 0 0
          0 0 0
          -1.44685 1.40793 0
          1.60031 0.791233 0
          -1.7352 0.686647 0
          -0.125738 0.807863 0
          -0.890593 -0.165126 0
          0.0322486 0.0302835 0
          1.32504 0.374731 0
          -1.03668 -4.79781 0
          2.55217 1.63933 0
          -1.9122 -0.0672697 0
          32.4981 10.6602 0
          -2.42601 -2.6374 0
          0.670262 -7.85467 0
          1.04124 0.0790147 0
          0 0 0
          0 0 0
          -0.392289 -1.05244 0
          -0.473094 -0.63816 0
          -0.96993 -1.05178 0
          -0.345804 -1.20536 0
          -0.101047 -0.771722 0
          0.633633 0.429667 0
          -0.0447062 -0.0692524 0
          0.241349 -0.235007 0
          0.334591 -0.113418 0
          1.21999 -0.401408 0
          1.36014 -0.0486869 0
          0.504602 1.3257 0
          -1.38118 -0.916462 0
          0.0795385 -0.00920427 0
          0 0 0
          0 0 0
          -0.286615 -0.360383 0
          0.101736 -1.33785 0
          -1.05139 0.597414 0
          -0.211644 -0.267989 0
          -0.0243362 -0.456374 0
          -21.1552 26.1797 0
          -0.00397795 0.020661 0
          -0.161599 1.04309 0
          0.830173 2.97201 0
          1.26761 0.57198 0
          -1.6239 2.04873 0
          -0.0240367 0.849533 0
          -0.248342 -0.12397 0
          0.5481 -1.18801 0
          0 0 0
          0 0 0
          -0.0870384 -1.00421 0
          0.0497214 -1.01019 0
          -0.21434 -0.734052 0
          -0.0182378 -0.953468 0
          -0.374705 -0.284373 0
          -0.123439 -0.692627 0
          0.932368 -0.319949 0
          0.0932058 0.674967 0
          1.55109 -0.213733 0
          0.928816 1.19668 0
          -0.275842 0.140888 0
          2.006 0.05805 0
          -0.485124 1.55993 0
          0.189336 0.211463 0
          0 0 0
          0 0 0
          -0.180041 -0.363413 0
          -0.0198917 -0.334485 0
          -0.177339 -0.413378 0
          0.620291 -0.45429 0
          -0.0801023 0.198774 0
          0.448026 0.0956951 0
          0.718519 -0.184815 0
          -1.07649 -0.189527 0
          0.571918 0.0941628 0
          0.564126 0.319808 0
          27.4447 -30.8214 0
          -0.771801 5.16451 0
          1.26476 -1.21702 0
          2.02336 4.91997 0
          0 0 0
          0 0 0
          -0.185098 -1.01422 0
          0.436655 -1.02204 0
          0.124055 -1.09522 0
          0.173706 -0.963374 0
          0.32684 -0.487219 0
          0.459181 -0.535277 0
          1.07932 -0.590346 0
          0.118672 0.0329764 0
          1.76337 -1.77821 0
          1.2377 1.70664 0
          -1.8157 1.96246 0
          0.0432281 -0.081066 0
          1.04282 -0.180184 0
          -1.48184 2.33371 0
          0 0 0
          0 0 0
          -0.0697532 -0.166693 0
          -2.40444 -0.953064 0
          -0.0691329 -0.310202 0
          -0.0192852 -0.305738 0
          -0.0949629 -0.348477 0
          -0.150234 0.158744 0
          1.05239 -0.576329 0
          0.0781874 -0.41276 0
          0.0899788 -0.719894 0
          0.117235 -1.13393 0
          -0.0698855 0.104379 0
          -1.39371 1.61777 0
          0.889799 0.480216 0
          -0.989828 1.36384 0
          0 0 0
          0 0 0
          -0.210569 -1.10532 0
          0.08712 -1.0006 0
          0.329843 -1.01746 0
          0.462659 -1.01956 0
          1.04279 -1.04163 0
          0.30422 0.0878588 0
          1.02368 -0.449923 0
          0.282151 0.0789556 0
          1.24916 -0.308876 0
          0.00775662 -0.0329074 0
          12.1375 -14.0494 0
          0.867397 0.676535 0
          0.0706368 0.501997 0
          0.294592 0.31884 0
          0 0 0
          0 0 0
          -0.188454 -0.735234 0
          -0.106958 -0.377871 0
          0.12827 -0.388118 0
          0.0129371 -0.0113468 0
          1.0223 -0.465143 0
          0.287564 0.0395379 0
          1.02041 -0.279553 0
          0.333475 0.0670765 0
          1.17679 -0.192424 0
          -0.0639437 1.16772 0
          0.988096 1.02626 0
          0.245572 1.07778 0
          -0.342857 1.29412 0
          -0.153376 1.3148 0
          0 0 0
          0 0 0
          0.000212882 -0.999693 0
          0.272216 -1.00057 0
          1.00122 -1.00125 0
          0.394436 -0.114267 0
          1.01466 -0.3327 0
          0.377741 -0.0222843 0
          1.01405 -0.162485 0
          0.450168 0.122934 0
          0.917306 -0.0808103 0
          -0.825357 2.19444 0
          9.63509 -17.9144 0
          0.220172 -0.506157 0
          1.72254 5.48517 0
          0.828295 -0.0590912 0
          0 0 0
          0 0 0
          0.092626 -0.272461 0
          0.11074 -0.111886 0
          0.998534 -0.272756 0
          0.113634 -0.705816 0
          0.515971 -12.4015 0
          0.443474 0.00811406 0
          0.946378 0.0311768 0
          0.747256 -0.5556 0
          0.987006 -0.0534807 0
          0.436015 -0.0486761 0
          1.00084 -0.0468894 0
          -2.59764 1.08253 0
          -1.577 -2.3547 0
          0.788005 0.0997191 0
          0 0 0
          0 0 0
          1.012 -1.01199 0
          0.272382 -0.0906121 0
          1.00142 -0.00184108 0
          -0.127397 0.00137984 0
          1.00879 -0.202816 0
          0.171686 0.0659332 0
          1.17133 0.159027 0
          0.756791 0.0784181 0
          0.95308 0.104142 0
          0.312849 0.12449 0
          4.14289 4.77254 0
          -3.74734 -3.49609 0
          0.221401 0.751325 0
          -1.889 0.904137 0
          0 0 0
          0.0256 0 0
          0.0256 0 0
          0.0256 0 0
          0.0256 0 0
          0.0256 0 0
          0.0256 0 0
          0.0256 0 0
          0.0256 0 0
          0.0256 0 0
          0.0256 0 0
          0.0256 0 0
          0.0256 0 0
          0.0256 0 0
          0.0256 0 0
          0.0256 0 0
          0.0256 0 0
        </DataArray>
      </PointData>
      <CellData>
      </CellData>
    </Piece>
  </ImageData>
</VTKFile>
