<?xml version="1.0"?>
<VTKFile type="ImageData" version="0.1" byte_order="LittleEndian">
  <ImageData WholeExtent="0 15 0 15 0 0" Origin="0 0 0" Spacing="1 1 1">
    <Piece Extent="0 15 0 15 0 0">
      <PointData>
        <DataArray type="Float32" Name="rho" format="ascii">
          0.997733
          0.999413
          0.996128
          0.999828
          0.997039
          0.998369
          0.996973
          0.99714
          0.996112
          0.99626
          0.994661
          0.996553
          0.9909
          1.00039
          0.98998
          0.995768
          0.99585
          0.995201
          0.995634
          0.995765
          0.996182
          0.996468
          0.996938
          0.9973
          0.997837
          0.998231
          0.998845
          0.999093
          0.999819
          0.999797
          1.00067
          0.999105
          0.995731
          0.995598
          0.995721
          0.995967
          0.996243
          0.996612
          0.996954
          0.997416
          0.997779
          0.998323
          0.998653
          0.999193
          0.999527
          0.999831
          0.999966
          1.00004
          0.995649
          0.995774
          0.995924
          0.996173
          0.996422
          0.996727
          0.99707
          0.997445
          0.997878
          0.998203
          0.998691
          0.999054
          0.999286
          0.999719
          0.999898
          0.999878
          0.995922
          0.996072
          0.996236
          0.996376
          0.996629
          0.996904
          0.99721
          0.997493
          0.997883
          0.998254
          0.998565
          0.998841
          0.999263
          0.99937
          0.999581
          0.999762
          0.99592
          0.996433
          0.99652
          0.996705
          0.99687
          0.997079
          0.997351
          0.997659
          0.997845
          0.998243
          0.998452
          0.998759
          0.99895
          0.999162
          0.999309
          0.999545
          0.996063
          0.996801
          0.99691
          0.996992
          0.997204
          0.997299
          0.997493
          0.997775
          0.997983
          0.998054
          0.99848
          0.998547
          0.998719
          0.998892
          0.998984
          0.999343
          0.996169
          0.997313
          0.997304
          0.997419
          0.99739
          0.997678
          0.997731
          0.997713
          0.998108
          0.998204
          0.998093
          0.998513
          0.99847
          0.998562
          0.998574
          0.999115
          0.996166
          0.997628
          0.997823
          0.997731
          0.997897
          0.997793
          0.99792
          0.998116
          0.997818
          0.998241
          0.998233
          0.997949
          0.998401
          0.998129
          0.998384
          0.998925
          0.996373
          0.99846
          0.998116
          0.998258
          0.998232
          0.998048
          0.998154
          0.998136
          0.998196
          0.997719
          0.998276
          0.998043
          0.99765
          0.998218
          0.997498
          0.998663
          0.995728
          0.998412
          0.998808
          0.998688
          0.998267
          0.99871
          0.998253
          0.998061
          0.998266
          0.998207
          0.997304
          0.998256
          0.997577
          0.997019
          0.998041
          0.998667
          0.997181
          0.999695
          0.999186
          0.998659
          0.999268
          0.99842
          0.998567
          0.998514
          0.997842
          0.998077
          0.998215
          0.996411
          0.998151
          0.997234
          0.995962
          0.998145
          0.992427
          0.999035
          0.999304
          0.999961
          0.998814
          0.998991
          0.998775
          0.998328
          0.998394
          0.997595
          0.997603
          0.99812
          0.995875
          0.997566
          0.997448
          0.998377
          0.996117
          1.00108
          0.999877
          0.999426
          0.999394
          0.999305
          0.998686
          0.998635
          0.998073
          0.998236
          0.996984
          0.997418
          0.997501
          0.994736
          0.993409
          1.00037
          0.976538
          0.998329
          1.00104
          0.999232
          1.00019
          0.998811
          0.999283
          0.998388
          0.998499
          0.997466
          0.998141
          0.99594
          0.997476
          0.993472
          1.00233
          1.00184
          0.940827
          0.990446
          0.99694
          1.00072
          0.999663
          0.999992
          0.999023
          0.998887
          0.997914
          0.997832
          0.99646
          0.997275
          0.994219
          0.999593
          0.993213
          1.02641
        </DataArray>
        <DataArray type="Float32" Name="ux" format="ascii">
          0
          0
          0
          0
          0
          0
          0
          0
          0
          0
          0
          0
          0
          0
          0
          0
          0
          0.000154937
          0.000245976
          0.000452385
          0.000893826
          0.000950838
          0.00118098
          0.00128121
          0.00128987
          0.00128023
          0.00100535
          0.00121052
          0.000370061
          0.000470099
          0.000631096
          0
          0
          6.53873e-05
          0.000641533
          0.000515523
          0.000705189
          0.0010317
          0.00103013
          0.0011488
          0.00119911
          0.0010525
          0.00122112
          0.000658087
          0.000654804
          0.00101808
          -0.000145926
          0
          0
          -0.000287694
          7.31444e-05
          0.000305582
          0.000429257
          0.00048662
          0.000812897
          0.000695306
          0.000659054
          0.000855365
          0.000359464
          0.000463028
          0.000320598
          -0.000189997
          -0.000585141
          0
          0
          -0.000214626
          0.000181937
          0.000119473
          0.000517489
          0.000474491
          0.000526758
          0.000756286
          0.000723282
          0.000458329
          0.000629364
          0.000633113
          -8.12153e-06
          0.000390726
          -0.000238371
          0
          0
          -0.000510406
          4.44671e-05
          -0.000158164
          0.000165661
          0.00032028
          0.000206235
          0.000367991
          0.000455581
          0.000256479
          0.000237361
          4.26498e-05
          -0.000168817
          6.07713e-05
          -0.000867823
          0
          0
          -0.000794675
          -0.00023304
          -0.000254658
          -0.000185253
          -9.7471e-05
          0.000385284
          -9.13537e-05
          -1.21018e-05
          0.000505688
          -0.000171234
          -0.000188835
          -0.000198852
          -0.000152679
          -0.0010391
          0
          0
          -0.000866041
          -0.00019931
          -0.000497037
          -0.00014922
          -0.000184424
          -0.000122548
          0.000222544
          -0.000155495
          -0.000260823
          0.000309773
          -0.000203418
          -0.000621773
          5.00784e-05
          -0.00121658
          0
          0
          -0.00159381
          -0.000899754
          -0.00119888
          -0.000561812
          -0.000604455
          -0.000983634
          -0.000364999
          -7.01326e-06
          -0.00100824
          -0.000765044
          -6.88897e-05
          -0.00104016
          -0.000778138
          -0.00192504
          0
          0
          -0.00103163
          -0.000398261
          -0.000555548
          -0.000569591
          -0.000751799
          0.000215192
          -0.00083541
          -0.000415315
          0.000876435
          -0.00108767
          -0.000567905
          0.000388367
          8.27409e-05
          -0.00154067
          0
          0
          -0.00358797
          -0.0021576
          -0.00258728
          -0.00272119
          -0.00181094
          -0.00205964
          -0.00156135
          -0.00228571
          -0.00193308
          -0.000238802
          -0.00320212
          -0.00246432
          -0.00064773
          -0.00437463
          0
          0
          0.000417826
          0.000458303
          -0.00114741
          0.00101468
          -3.72857e-05
          -0.000131729
          0.000771361
          0.00125908
          -0.000339192
          0.000576842
          0.00395527
          -0.000769112
          0.00207925
          0.00233782
          0
          0
          -0.00803445
          -0.00736983
          -0.00488759
          -0.00610646
          -0.00586495
          -0.00449606
          -0.00555847
          -0.00526289
          -0.0039369
          -0.00743931
          -0.00671628
          -0.00237822
          -0.010407
          -0.0141281
          0
          0
          0.000780987
          0.00439838
          0.00061153
          0.00131046
          0.00248561
          0.00146264
          0.00233196
          0.00245793
          0.00261509
          0.00582426
          0.00272573
          0.00486482
          0.0148994
          0.00571386
          0
          0
          -0.0118639
          -0.0121159
          -0.00986217
          -0.00713118
          -0.00774959
          -0.00632612
          -0.00667955
          -0.00717975
          -0.00798
          -0.0105022
          -0.00892705
          -0.0166349
          -0.0179033
          -0.0131553
          0
          0.0256
          0.0256
          0.0256
          0.0256
          0.0256
          0.0256
          0.0256
          0.0256
          0.0256
          0.0256
          0.0256
          0.0256
          0.0256
          0.0256
          0.0256
          0.0256
        </DataArray>
        <DataArray type="Float32" Name="uy" format="ascii">
          0
          0
          0
          0
          0
          0
          0
          0
          0
          0
          0
          0
          0
          0
          0
          0
          0
          0.00107705
          0.000597962
          0.000841403
          0.000519471
          0.000465018
          9.32614e-05
          -0.000105661
          -0.000402315
          -0.000700827
          -0.000964425
          -0.00133536
          -0.00154393
          -0.00116487
          -0.00229308
          0
          0
          0.00108513
          0.000674187
          0.000927892
          0.000314015
          0.000540757
          6.0592e-05
          -0.000154339
          -0.000348913
          -0.000600611
          -0.00111837
          -0.000836634
          -0.00173064
          -0.00133041
          -0.00196469
          0
          0
          0.00122685
          0.000328761
          0.00124438
          0.000173945
          0.000500647
          7.68058e-05
          5.77032e-07
          -0.000408604
          -0.000482361
          -0.000913708
          -0.000478448
          -0.00223473
          -0.000184461
          -0.00219301
          0
          0
          0.00140086
          0.000377496
          0.00112209
          0.000383184
          0.000471889
          1.17544e-05
          0.000102856
          -0.000388252
          -0.000470155
          -0.000791958
          -0.000735955
          -0.00173405
          -0.000308466
          -0.00222893
          0
          0
          0.00155041
          0.000362342
          0.00138962
          6.121e-05
          0.000864703
          -5.37867e-06
          -0.000162514
          -7.47656e-05
          -0.000315378
          -0.00128898
          1.51976e-05
          -0.00221192
          -1.19197e-05
          -0.00223724
          0
          0
          0.00188071
          0.000270063
          0.0016976
          9.87933e-05
          0.000759288
          0.000115001
          8.85498e-05
          -0.000519868
          -0.000167172
          -0.000984114
          -0.000229735
          -0.00250421
          0.000466142
          -0.00265861
          0
          0
          0.0021767
          0.00018703
          0.00194249
          0.000298641
          0.000607695
          3.30998e-05
          0.000489658
          -0.000631003
          -0.000608621
          -0.000604827
          -0.000126013
          -0.00305686
          0.000919785
          -0.00296898
          0
          0
          0.00277708
          4.81574e-05
          0.00254035
          -0.000293752
          0.00143118
          -0.000108845
          -0.000249052
          0.000234283
          -0.000532569
          -0.00198126
          0.00107098
          -0.00391077
          0.00140074
          -0.00363766
          0
          0
          0.00297122
          0.00033668
          0.0023256
          0.000159753
          0.00130812
          -0.000100681
          6.96213e-05
          -0.000889127
          0.000486722
          -0.00173817
          -0.000635661
          -0.00299243
          0.00152604
          -0.00393711
          0
          0
          0.00441758
          -0.000743519
          0.00371522
          0.000246669
          0.00070664
          0.00020371
          0.000551399
          -0.00119788
          -0.00108623
          -5.91419e-05
          -0.0002379
          -0.00679143
          0.00504702
          -0.00593119
          0
          0
          0.00403179
          3.47536e-05
          0.0042828
          -0.00127725
          0.0021359
          -0.000507387
          -5.64457e-05
          -0.000225754
          -0.00100941
          -0.00317093
          0.00322964
          -0.00749009
          0.00245857
          -0.0032048
          0
          0
          0.00627136
          0.000530215
          0.00288805
          0.000633401
          0.00142568
          -0.000372342
          -8.55565e-05
          -0.0010588
          8.63737e-06
          -0.00290277
          -0.00199001
          -0.00359897
          0.00428737
          -0.00852158
          0
          0
          0.0073037
          -0.00300991
          0.00606267
          -0.00109816
          0.00142321
          -0.000436227
          0.000282459
          -0.00157697
          -0.00041326
          -0.00149881
          -0.000165997
          -0.0117614
          0.0157398
          -0.0094678
          0
          0
          0.00672586
          -0.000873603
          0.00628877
          -0.00196063
          0.00232695
          -0.000784578
          -2.09886e-05
          -0.00167396
          -0.00120659
          -0.00405093
          0.00167968
          -0.0143633
          0.00744889
          -0.00716236
          0
          0
          0
          0
          0
          0
          0
          0
          0
          0
          0
          0
          0
          0
          0
          0
          0
        </DataArray>
        <DataArray type="Float32" Name="velocity" NumberOfComponents="3" format="ascii">
          0 0 0
          0 0 0
          0 0 0
          0 0 0
          0 0 0
          0 0 0
          0 0 0
          0 0 0
          0 0 0
          0 0 0
          0 0 0
          0 0 0
          0 0 0
          0 0 0
          0 0 0
          0 0 0
          0 0 0
          0.000154937 0.00107705 0
          0.000245976 0.000597962 0
          0.000452385 0.000841403 0
          0.000893826 0.000519471 0
          0.000950838 0.000465018 0
          0.00118098 9.32614e-05 0
          0.00128121 -0.000105661 0
          0.00128987 -0.000402315 0
          0.00128023 -0.000700827 0
          0.00100535 -0.000964425 0
          0.00121052 -0.00133536 0
          0.000370061 -0.00154393 0
          0.000470099 -0.00116487 0
          0.000631096 -0.00229308 0
          0 0 0
          0 0 0
          6.53873e-05 0.00108513 0
          0.000641533 0.000674187 0
          0.000515523 0.000927892 0
          0.000705189 0.000314015 0
          0.0010317 0.000540757 0
          0.00103013 6.0592e-05 0
          0.0011488 -0.000154339 0
          0.00119911 -0.000348913 0
          0.0010525 -0.000600611 0
          0.00122112 -0.00111837 0
          0.000658087 -0.000836634 0
          0.000654804 -0.00173064 0
          0.00101808 -0.00133041 0
          -0.000145926 -0.00196469 0
          0 0 0
          0 0 0
          -0.000287694 0.00122685 0
          7.31444e-05 0.000328761 0
          0.000305582 0.00124438 0
          0.000429257 0.000173945 0
          0.00048662 0.000500647 0
          0.000812897 7.68058e-05 0
          0.000695306 5.77032e-07 0
          0.000659054 -0.000408604 0
          0.000855365 -0.000482361 0
          0.000359464 -0.000913708 0
          0.000463028 -0.000478448 0
          0.000320598 -0.00223473 0
          -0.000189997 -0.000184461 0
          -0.000585141 -0.00219301 0
          0 0 0
          0 0 0
          -0.000214626 0.00140086 0
          0.000181937 0.000377496 0
          0.000119473 0.00112209 0
          0.000517489 0.000383184 0
          0.000474491 0.000471889 0
          0.000526758 1.17544e-05 0
          0.000756286 0.000102856 0
          0.000723282 -0.000388252 0
          0.000458329 -0.000470155 0
          0.000629364 -0.000791958 0
          0.000633113 -0.000735955 0
          -8.12153e-06 -0.00173405 0
          0.000390726 -0.000308466 0
          -0.000238371 -0.00222893 0
          0 0 0
          0 0 0
          -0.000510406 0.00155041 0
          4.44671e-05 0.000362342 0
          -0.000158164 0.00138962 0
          0.000165661 6.121e-05 0
          0.00032028 0.000864703 0
          0.000206235 -5.37867e-06 0
          0.000367991 -0.000162514 0
          0.000455581 -7.47656e-05 0
          0.000256479 -0.000315378 0
          0.000237361 -0.00128898 0
          4.26498e-05 1.51976e-05 0
          -0.000168817 -0.00221192 0
          6.07713e-05 -1.19197e-05 0
          -0.000867823 -0.00223724 0
          0 0 0
          0 0 0
          -0.000794675 0.00188071 0
          -0.00023304 0.000270063 0
          -0.000254658 0.0016976 0
          -0.000185253 9.87933e-05 0
          -9.7471e-05 0.000759288 0
          0.000385284 0.000115001 0
          -9.13537e-05 8.85498e-05 0
          -1.21018e-05 -0.000519868 0
          0.000505688 -0.000167172 0
          -0.000171234 -0.000984114 0
          -0.000188835 -0.000229735 0
          -0.000198852 -0.00250421 0
          -0.000152679 0.000466142 0
          -0.0010391 -0.00265861 0
          0 0 0
          0 0 0
          -0.000866041 0.0021767 0
          -0.00019931 0.00018703 0
          -0.000497037 0.00194249 0
          -0.00014922 0.000298641 0
          -0.000184424 0.000607695 0
          -0.000122548 3.30998e-05 0
          0.000222544 0.000489658 0
          -0.000155495 -0.000631003 0
          -0.000260823 -0.000608621 0
          0.000309773 -0.000604827 0
          -0.000203418 -0.000126013 0
          -0.000621773 -0.00305686 0
          5.00784e-05 0.000919785 0
          -0.00121658 -0.00296898 0
          0 0 0
          0 0 0
          -0.00159381 0.00277708 0
          -0.000899754 4.81574e-05 0
          -0.00119888 0.00254035 0
          -0.000561812 -0.000293752 0
          -0.000604455 0.00143118 0
          -0.000983634 -0.000108845 0
          -0.000364999 -0.000249052 0
          -7.01326e-06 0.000234283 0
          -0.00100824 -0.000532569 0
          -0.000765044 -0.00198126 0
          -6.88897e-05 0.00107098 0
          -0.00104016 -0.00391077 0
          -0.000778138 0.00140074 0
          -0.00192504 -0.00363766 0
          0 0 0
          0 0 0
          -0.00103163 0.00297122 0
          -0.000398261 0.00033668 0
          -0.000555548 0.0023256 0
          -0.000569591 0.000159753 0
          -0.000751799 0.00130812 0
          0.000215192 -0.000100681 0
          -0.00083541 6.96213e-05 0
          -0.000415315 -0.000889127 0
          0.000876435 0.000486722 0
          -0.00108767 -0.00173817 0
          -0.000567905 -0.000635661 0
          0.000388367 -0.00299243 0
          8.27409e-05 0.00152604 0
          -0.00154067 -0.00393711 0
          0 0 0
          0 0 0
          -0.00358797 0.00441758 0
          -0.0021576 -0.000743519 0
          -0.00258728 0.00371522 0
          -0.00272119 0.000246669 0
          -0.00181094 0.00070664 0
          -0.00205964 0.00020371 0
          -0.00156135 0.000551399 0
          -0.00228571 -0.00119788 0
          -0.00193308 -0.00108623 0
          -0.000238802 -5.91419e-05 0
          -0.00320212 -0.0002379 0
          -0.00246432 -0.00679143 0
          -0.00064773 0.00504702 0
          -0.00437463 -0.00593119 0
          0 0 0
          0 0 0
          0.000417826 0.00403179 0
          0.000458303 3.47536e-05 0
          -0.00114741 0.0042828 0
          0.00101468 -0.00127725 0
          -3.72857e-05 0.0021359 0
          -0.000131729 -0.000507387 0
          0.000771361 -5.64457e-05 0
          0.00125908 -0.000225754 0
          -0.000339192 -0.00100941 0
          0.000576842 -0.00317093 0
          0.00395527 0.00322964 0
          -0.000769112 -0.00749009 0
          0.00207925 0.00245857 0
          0.00233782 -0.0032048 0
          0 0 0
          0 0 0
          -0.00803445 0.00627136 0
          -0.00736983 0.000530215 0
          -0.00488759 0.00288805 0
          -0.00610646 0.000633401 0
          -0.00586495 0.00142568 0
          -0.00449606 -0.000372342 0
          -0.00555847 -8.55565e-05 0
          -0.00526289 -0.0010588 0
          -0.0039369 8.63737e-06 0
          -0.00743931 -0.00290277 0
          -0.00671628 -0.00199001 0
          -0.00237822 -0.00359897 0
          -0.010407 0.00428737 0
          -0.0141281 -0.00852158 0
          0 0 0
          0 0 0
          0.000780987 0.0073037 0
          0.00439838 -0.00300991 0
          0.00061153 0.00606267 0
          0.00131046 -0.00109816 0
          0.00248561 0.00142321 0
          0.00146264 -0.000436227 0
          0.00233196 0.000282459 0
          0.00245793 -0.00157697 0
          0.00261509 -0.00041326 0
          0.00582426 -0.00149881 0
          0.00272573 -0.000165997 0
          0.00486482 -0.0117614 0
          0.0148994 0.0157398 0
          0.00571386 -0.0094678 0
          0 0 0
          0 0 0
          -0.0118639 0.00672586 0
          -0.0121159 -0.000873603 0
          -0.00986217 0.00628877 0
          -0.00713118 -0.00196063 0
          -0.00774959 0.00232695 0
          -0.00632612 -0.000784578 0
          -0.00667955 -2.09886e-05 0
          -0.00717975 -0.00167396 0
          -0.00798 -0.00120659 0
          -0.0105022 -0.00405093 0
          -0.00892705 0.00167968 0
          -0.0166349 -0.0143633 0
          -0.0179033 0.00744889 0
          -0.0131553 -0.00716236 0
          0 0 0
          0.0256 0 0
          0.0256 0 0
          0.0256 0 0
          0.0256 0 0
          0.0256 0 0
          0.0256 0 0
          0.0256 0 0
          0.0256 0 0
          0.0256 0 0
          0.0256 0 0
          0.0256 0 0
          0.0256 0 0
          0.0256 0 0
          0.0256 0 0
          0.0256 0 0
          0.0256 0 0
        </DataArray>
      </PointData>
      <CellData>
      </CellData>
    </Piece>
  </ImageData>
</VTKFile>
