<?xml version="1.0"?>
<VTKFile type="ImageData" version="0.1" byte_order="LittleEndian">
  <ImageData WholeExtent="0 15 0 15 0 0" Origin="0 0 0" Spacing="1 1 1">
    <Piece Extent="0 15 0 15 0 0">
      <PointData>
        <DataArray type="Float32" Name="rho" format="ascii">
          0.994107
          0.996661
          0.993184
          0.997186
          0.995319
          0.997155
          0.996897
          0.997916
          0.997907
          0.998851
          0.998001
          1.00018
          0.995191
          1.00363
          0.992985
          0.999727
          0.99233
          0.992271
          0.993073
          0.993697
          0.994868
          0.995839
          0.997117
          0.998225
          0.999501
          1.00054
          1.00182
          1.00249
          1.00371
          1.00388
          1.00489
          1.00346
          0.992247
          0.992847
          0.993375
          0.994138
          0.995053
          0.996126
          0.99717
          0.998332
          0.999413
          1.00057
          1.00147
          1.00252
          1.00326
          1.00385
          1.0042
          1.00453
          0.992371
          0.993299
          0.993789
          0.994584
          0.995379
          0.996316
          0.997307
          0.998338
          0.999402
          1.00035
          1.00133
          1.00221
          1.00283
          1.00366
          1.004
          1.00445
          0.992833
          0.993863
          0.994385
          0.99497
          0.99578
          0.996561
          0.997451
          0.998372
          0.999319
          1.00024
          1.00106
          1.00176
          1.00265
          1.00309
          1.00359
          1.00436
          0.993097
          0.994484
          0.994915
          0.995471
          0.996117
          0.996833
          0.997593
          0.998442
          0.999247
          1.00009
          1.00076
          1.00151
          1.00212
          1.00268
          1.0031
          1.00412
          0.99347
          0.99509
          0.995465
          0.995951
          0.996519
          0.997095
          0.997782
          0.998528
          0.999267
          0.999859
          1.00062
          1.00116
          1.00168
          1.00222
          1.00256
          1.00383
          0.993799
          0.99574
          0.996042
          0.996438
          0.996862
          0.997468
          0.99799
          0.998536
          0.999263
          0.999851
          1.00022
          1.00089
          1.00131
          1.00166
          1.00198
          1.00352
          0.993964
          0.996253
          0.996646
          0.996862
          0.997362
          0.997682
          0.998172
          0.99873
          0.999049
          0.999714
          1.00013
          1.0003
          1.00098
          1.00111
          1.00155
          1.00317
          0.994262
          0.997081
          0.997053
          0.997461
          0.997703
          0.997934
          0.99838
          0.998757
          0.999171
          0.999258
          0.999993
          1.00021
          1.00017
          1.00095
          1.00064
          1.00288
          0.993824
          0.997229
          0.997773
          0.997865
          0.997826
          0.998447
          0.998471
          0.998667
          0.999172
          0.999491
          0.999164
          1.00022
          1.00006
          0.999798
          1.00093
          1.00259
          0.994907
          0.998373
          0.99819
          0.997862
          0.998646
          0.998271
          0.998663
          0.998945
          0.998807
          0.999312
          0.999778
          0.998682
          1.00043
          0.999903
          0.999023
          1.00221
          0.990903
          0.998079
          0.998189
          0.999088
          0.998307
          0.998691
          0.998835
          0.998813
          0.999126
          0.998862
          0.999269
          1.00006
          0.998247
          1.00031
          1.00021
          1.00212
          0.993519
          0.999641
          0.999057
          0.99855
          0.998779
          0.999
          0.998741
          0.998958
          0.998902
          0.999333
          0.998654
          0.999386
          0.99997
          0.997511
          0.996811
          1.00432
          0.974084
          0.997131
          0.999886
          0.998378
          0.999482
          0.998511
          0.999184
          0.998803
          0.999185
          0.998719
          0.999766
          0.99806
          0.999945
          0.996625
          1.00467
          1.00589
          0.936179
          0.988449
          0.995171
          0.999408
          0.998642
          0.999456
          0.998978
          0.999412
          0.999045
          0.999572
          0.998705
          1.00002
          0.997308
          1.00299
          0.996828
          1.03462
        </DataArray>
        <DataArray type="Float32" Name="ux" format="ascii">
          0
          0
          0
          0
          0
          0
          0
          0
          0
          0
          0
          0
          0
          0
          0
          0
          0
          -5.8738e-05
          -0.000547881
          -0.000921312
          -0.000960566
          -0.0013015
          -0.0013275
          -0.00135668
          -0.00130206
          -0.00107817
          -0.00103238
          -0.000356258
          -0.00065867
          -2.58816e-05
          0.000655551
          0
          0
          -0.000407425
          -0.000385851
          -0.000892789
          -0.00120443
          -0.00128834
          -0.00148181
          -0.00148415
          -0.00141603
          -0.00134213
          -0.000916638
          -0.000971689
          -0.000473439
          0.000232508
          -0.00037566
          0
          0
          -0.000693588
          -0.000918436
          -0.00119363
          -0.00146168
          -0.00176123
          -0.00176724
          -0.00188272
          -0.00186955
          -0.00161425
          -0.00170066
          -0.00119796
          -0.000937064
          -0.000904906
          -0.00076075
          0
          0
          -0.00070777
          -0.00093176
          -0.0014523
          -0.00156056
          -0.00185316
          -0.00200092
          -0.001978
          -0.00194288
          -0.00194349
          -0.00162584
          -0.001242
          -0.00136404
          -0.000589098
          -0.000546743
          0
          0
          -0.00102719
          -0.00114069
          -0.00171465
          -0.00188941
          -0.00210147
          -0.00227802
          -0.00229953
          -0.00226451
          -0.00219155
          -0.00200289
          -0.0018139
          -0.0016043
          -0.000951992
          -0.0011668
          0
          0
          -0.00128506
          -0.0013976
          -0.00191133
          -0.00215657
          -0.00241512
          -0.00238698
          -0.00260717
          -0.00256359
          -0.00225431
          -0.00238116
          -0.00206631
          -0.00177485
          -0.00120808
          -0.00142829
          0
          0
          -0.00145151
          -0.00144447
          -0.00217668
          -0.00232367
          -0.00255669
          -0.00269739
          -0.00266403
          -0.00278472
          -0.00269949
          -0.00226109
          -0.00222495
          -0.00217895
          -0.001167
          -0.00163998
          0
          0
          -0.00199947
          -0.00202115
          -0.00271537
          -0.00265631
          -0.00295287
          -0.00324446
          -0.00307182
          -0.00289655
          -0.00323026
          -0.00297162
          -0.00231547
          -0.00262471
          -0.00193353
          -0.00236198
          0
          0
          -0.00191246
          -0.0018358
          -0.00246343
          -0.00272362
          -0.0031193
          -0.00280498
          -0.0032749
          -0.00309211
          -0.00239772
          -0.00323961
          -0.00267534
          -0.0018304
          -0.00140781
          -0.00233222
          0
          0
          -0.00368742
          -0.00305101
          -0.00387467
          -0.00434828
          -0.00401231
          -0.00422673
          -0.00411406
          -0.00446517
          -0.00410651
          -0.00307224
          -0.0046446
          -0.00385718
          -0.00210467
          -0.00447523
          0
          0
          -0.00103533
          -0.00133359
          -0.00319282
          -0.00203171
          -0.00281395
          -0.00306712
          -0.00257436
          -0.00220916
          -0.00305819
          -0.00228951
          8.39054e-05
          -0.00301337
          -0.000236018
          0.000182613
          0
          0
          -0.00798538
          -0.00788219
          -0.00621774
          -0.00698278
          -0.00700872
          -0.00604519
          -0.00672161
          -0.00665626
          -0.00575768
          -0.0082638
          -0.00770841
          -0.00466871
          -0.0104697
          -0.0131618
          0
          0
          -0.00128964
          0.00118991
          -0.00214707
          -0.00239521
          -0.00167241
          -0.00259817
          -0.00216486
          -0.00195083
          -0.00161804
          0.00114636
          -0.000829528
          0.00165125
          0.0107066
          0.00333397
          0
          0
          -0.0123361
          -0.0118623
          -0.0101962
          -0.00745832
          -0.00793428
          -0.00676586
          -0.00681019
          -0.00704987
          -0.00746325
          -0.00948453
          -0.00792
          -0.0145197
          -0.0159881
          -0.0139155
          0
          0.0256
          0.0256
          0.0256
          0.0256
          0.0256
          0.0256
          0.0256
          0.0256
          0.0256
          0.0256
          0.0256
          0.0256
          0.0256
          0.0256
          0.0256
          0.0256
        </DataArray>
        <DataArray type="Float32" Name="uy" format="ascii">
          0
          0
          0
          0
          0
          0
          0
          0
          0
          0
          0
          0
          0
          0
          0
          0
          0
          0.00113766
          0.000695989
          0.000625768
          0.000482699
          0.000182475
          1.06459e-05
          -0.000309527
          -0.000459241
          -0.000870742
          -0.000960871
          -0.00162095
          -0.00156996
          -0.00180959
          -0.00282368
          0
          0
          0.00101907
          0.000790395
          0.000594792
          0.000304516
          0.000118444
          -0.00011847
          -0.000451316
          -0.000595774
          -0.000980673
          -0.00124063
          -0.00150856
          -0.00185865
          -0.00227939
          -0.00253768
          0
          0
          0.00106823
          0.000371926
          0.000811193
          8.97921e-05
          9.40019e-05
          -0.000228575
          -0.000420509
          -0.000733317
          -0.000951034
          -0.00129732
          -0.00125789
          -0.00249183
          -0.00131973
          -0.00280608
          0
          0
          0.00106486
          0.000388157
          0.000620738
          0.000167295
          1.58796e-05
          -0.000276034
          -0.000452499
          -0.000751059
          -0.000979135
          -0.00125107
          -0.00153403
          -0.00203548
          -0.00156482
          -0.00278213
          0
          0
          0.00109442
          0.000314327
          0.00074984
          -5.71107e-05
          0.000176869
          -0.000331111
          -0.000530373
          -0.000681364
          -0.000871359
          -0.0015751
          -0.0010095
          -0.00232146
          -0.00141182
          -0.00269951
          0
          0
          0.00129265
          0.000207529
          0.000910959
          -6.60577e-05
          0.000154054
          -0.000328778
          -0.0004416
          -0.000851279
          -0.000831679
          -0.00142838
          -0.0010684
          -0.00255614
          -0.000992276
          -0.00295758
          0
          0
          0.00154142
          9.95669e-05
          0.00116078
          -3.91863e-05
          0.00013601
          -0.000351935
          -0.000301135
          -0.000877293
          -0.00100287
          -0.00128346
          -0.000901142
          -0.00294056
          -0.000615113
          -0.00311786
          0
          0
          0.00201941
          5.67739e-05
          0.00160247
          -0.000329871
          0.00054392
          -0.00037977
          -0.000541889
          -0.00056757
          -0.000886109
          -0.0020173
          -0.000156272
          -0.0034544
          -0.000256317
          -0.00358923
          0
          0
          0.00242266
          0.000228376
          0.00161069
          -2.2547e-05
          0.000605756
          -0.000369798
          -0.000362519
          -0.00101491
          -0.000375421
          -0.00184333
          -0.00105824
          -0.00297042
          5.94997e-05
          -0.00399174
          0
          0
          0.00380203
          -0.000539041
          0.00282227
          7.78509e-05
          0.000432713
          -0.000191482
          -7.3087e-05
          -0.00111985
          -0.00121758
          -0.000985953
          -0.000649438
          -0.00579845
          0.00271802
          -0.00577266
          0
          0
          0.0038386
          0.000234578
          0.00360179
          -0.000759186
          0.00136345
          -0.000435501
          -0.000332305
          -0.000637963
          -0.00106321
          -0.00296758
          0.00163563
          -0.0063138
          0.000732082
          -0.00406506
          0
          0
          0.00626546
          0.000775673
          0.00281935
          0.000589768
          0.00103209
          -0.000307003
          -0.000264107
          -0.00106834
          -0.000450328
          -0.00258174
          -0.00190835
          -0.00371801
          0.00240287
          -0.00935476
          0
          0
          0.00813499
          -0.00233165
          0.00552291
          -0.000684087
          0.00114466
          -0.000317644
          0.000197741
          -0.00129502
          -0.000509313
          -0.00166361
          -8.63493e-06
          -0.0106349
          0.011722
          -0.0107359
          0
          0
          0.00849852
          -0.000326583
          0.0060831
          -0.000937441
          0.00195645
          -0.000322404
          -4.73343e-05
          -0.00146137
          -0.00130672
          -0.00380289
          0.00080554
          -0.0131063
          0.00508115
          -0.00967816
          0
          0
          0
          0
          0
          0
          0
          0
          0
          0
          0
          0
          0
          0
          0
          0
          0
        </DataArray>
        <DataArray type="Float32" Name="velocity" NumberOfComponents="3" format="ascii">
          0 0 0
          0 0 0
          0 0 0
          0 0 0
          0 0 0
          0 0 0
          0 0 0
          0 0 0
          0 0 0
          0 0 0
          0 0 0
          0 0 0
          0 0 0
          0 0 0
          0 0 0
          0 0 0
          0 0 0
          -5.8738e-05 0.00113766 0
          -0.000547881 0.000695989 0
          -0.000921312 0.000625768 0
          -0.000960566 0.000482699 0
          -0.0013015 0.000182475 0
          -0.0013275 1.06459e-05 0
          -0.00135668 -0.000309527 0
          -0.00130206 -0.000459241 0
          -0.00107817 -0.000870742 0
          -0.00103238 -0.000960871 0
          -0.000356258 -0.00162095 0
          -0.00065867 -0.00156996 0
          -2.58816e-05 -0.00180959 0
          0.000655551 -0.00282368 0
          0 0 0
          0 0 0
          -0.000407425 0.00101907 0
          -0.000385851 0.000790395 0
          -0.000892789 0.000594792 0
          -0.00120443 0.000304516 0
          -0.00128834 0.000118444 0
          -0.00148181 -0.00011847 0
          -0.00148415 -0.000451316 0
          -0.00141603 -0.000595774 0
          -0.00134213 -0.000980673 0
          -0.000916638 -0.00124063 0
          -0.000971689 -0.00150856 0
          -0.000473439 -0.00185865 0
          0.000232508 -0.00227939 0
          -0.00037566 -0.00253768 0
          0 0 0
          0 0 0
          -0.000693588 0.00106823 0
          -0.000918436 0.000371926 0
          -0.00119363 0.000811193 0
          -0.00146168 8.97921e-05 0
          -0.00176123 9.40019e-05 0
          -0.00176724 -0.000228575 0
          -0.00188272 -0.000420509 0
          -0.00186955 -0.000733317 0
          -0.00161425 -0.000951034 0
          -0.00170066 -0.00129732 0
          -0.00119796 -0.00125789 0
          -0.000937064 -0.00249183 0
          -0.000904906 -0.00131973 0
          -0.00076075 -0.00280608 0
          0 0 0
          0 0 0
          -0.00070777 0.00106486 0
          -0.00093176 0.000388157 0
          -0.0014523 0.000620738 0
          -0.00156056 0.000167295 0
          -0.00185316 1.58796e-05 0
          -0.00200092 -0.000276034 0
          -0.001978 -0.000452499 0
          -0.00194288 -0.000751059 0
          -0.00194349 -0.000979135 0
          -0.00162584 -0.00125107 0
          -0.001242 -0.00153403 0
          -0.00136404 -0.00203548 0
          -0.000589098 -0.00156482 0
          -0.000546743 -0.00278213 0
          0 0 0
          0 0 0
          -0.00102719 0.00109442 0
          -0.00114069 0.000314327 0
          -0.00171465 0.00074984 0
          -0.00188941 -5.71107e-05 0
          -0.00210147 0.000176869 0
          -0.00227802 -0.000331111 0
          -0.00229953 -0.000530373 0
          -0.00226451 -0.000681364 0
          -0.00219155 -0.000871359 0
          -0.00200289 -0.0015751 0
          -0.0018139 -0.0010095 0
          -0.0016043 -0.00232146 0
          -0.000951992 -0.00141182 0
          -0.0011668 -0.00269951 0
          0 0 0
          0 0 0
          -0.00128506 0.00129265 0
          -0.0013976 0.000207529 0
          -0.00191133 0.000910959 0
          -0.00215657 -6.60577e-05 0
          -0.00241512 0.000154054 0
          -0.00238698 -0.000328778 0
          -0.00260717 -0.0004416 0
          -0.00256359 -0.000851279 0
          -0.00225431 -0.000831679 0
          -0.00238116 -0.00142838 0
          -0.00206631 -0.0010684 0
          -0.00177485 -0.00255614 0
          -0.00120808 -0.000992276 0
          -0.00142829 -0.00295758 0
          0 0 0
          0 0 0
          -0.00145151 0.00154142 0
          -0.00144447 9.95669e-05 0
          -0.00217668 0.00116078 0
          -0.00232367 -3.91863e-05 0
          -0.00255669 0.00013601 0
          -0.00269739 -0.000351935 0
          -0.00266403 -0.000301135 0
          -0.00278472 -0.000877293 0
          -0.00269949 -0.00100287 0
          -0.00226109 -0.00128346 0
          -0.00222495 -0.000901142 0
          -0.00217895 -0.00294056 0
          -0.001167 -0.000615113 0
          -0.00163998 -0.00311786 0
          0 0 0
          0 0 0
          -0.00199947 0.00201941 0
          -0.00202115 5.67739e-05 0
          -0.00271537 0.00160247 0
          -0.00265631 -0.000329871 0
          -0.00295287 0.00054392 0
          -0.00324446 -0.00037977 0
          -0.00307182 -0.000541889 0
          -0.00289655 -0.00056757 0
          -0.00323026 -0.000886109 0
          -0.00297162 -0.0020173 0
          -0.00231547 -0.000156272 0
          -0.00262471 -0.0034544 0
          -0.00193353 -0.000256317 0
          -0.00236198 -0.00358923 0
          0 0 0
          0 0 0
          -0.00191246 0.00242266 0
          -0.0018358 0.000228376 0
          -0.00246343 0.00161069 0
          -0.00272362 -2.2547e-05 0
          -0.0031193 0.000605756 0
          -0.00280498 -0.000369798 0
          -0.0032749 -0.000362519 0
          -0.00309211 -0.00101491 0
          -0.00239772 -0.000375421 0
          -0.00323961 -0.00184333 0
          -0.00267534 -0.00105824 0
          -0.0018304 -0.00297042 0
          -0.00140781 5.94997e-05 0
          -0.00233222 -0.00399174 0
          0 0 0
          0 0 0
          -0.00368742 0.00380203 0
          -0.00305101 -0.000539041 0
          -0.00387467 0.00282227 0
          -0.00434828 7.78509e-05 0
          -0.00401231 0.000432713 0
          -0.00422673 -0.000191482 0
          -0.00411406 -7.3087e-05 0
          -0.00446517 -0.00111985 0
          -0.00410651 -0.00121758 0
          -0.00307224 -0.000985953 0
          -0.0046446 -0.000649438 0
          -0.00385718 -0.00579845 0
          -0.00210467 0.00271802 0
          -0.00447523 -0.00577266 0
          0 0 0
          0 0 0
          -0.00103533 0.0038386 0
          -0.00133359 0.000234578 0
          -0.00319282 0.00360179 0
          -0.00203171 -0.000759186 0
          -0.00281395 0.00136345 0
          -0.00306712 -0.000435501 0
          -0.00257436 -0.000332305 0
          -0.00220916 -0.000637963 0
          -0.00305819 -0.00106321 0
          -0.00228951 -0.00296758 0
          8.39054e-05 0.00163563 0
          -0.00301337 -0.0063138 0
          -0.000236018 0.000732082 0
          0.000182613 -0.00406506 0
          0 0 0
          0 0 0
          -0.00798538 0.00626546 0
          -0.00788219 0.000775673 0
          -0.00621774 0.00281935 0
          -0.00698278 0.000589768 0
          -0.00700872 0.00103209 0
          -0.00604519 -0.000307003 0
          -0.00672161 -0.000264107 0
          -0.00665626 -0.00106834 0
          -0.00575768 -0.000450328 0
          -0.0082638 -0.00258174 0
          -0.00770841 -0.00190835 0
          -0.00466871 -0.00371801 0
          -0.0104697 0.00240287 0
          -0.0131618 -0.00935476 0
          0 0 0
          0 0 0
          -0.00128964 0.00813499 0
          0.00118991 -0.00233165 0
          -0.00214707 0.00552291 0
          -0.00239521 -0.000684087 0
          -0.00167241 0.00114466 0
          -0.00259817 -0.000317644 0
          -0.00216486 0.000197741 0
          -0.00195083 -0.00129502 0
          -0.00161804 -0.000509313 0
          0.00114636 -0.00166361 0
          -0.000829528 -8.63493e-06 0
          0.00165125 -0.0106349 0
          0.0107066 0.011722 0
          0.00333397 -0.0107359 0
          0 0 0
          0 0 0
          -0.0123361 0.00849852 0
          -0.0118623 -0.000326583 0
          -0.0101962 0.0060831 0
          -0.00745832 -0.000937441 0
          -0.00793428 0.00195645 0
          -0.00676586 -0.000322404 0
          -0.00681019 -4.73343e-05 0
          -0.00704987 -0.00146137 0
          -0.00746325 -0.00130672 0
          -0.00948453 -0.00380289 0
          -0.00792 0.00080554 0
          -0.0145197 -0.0131063 0
          -0.0159881 0.00508115 0
          -0.0139155 -0.00967816 0
          0 0 0
          0.0256 0 0
          0.0256 0 0
          0.0256 0 0
          0.0256 0 0
          0.0256 0 0
          0.0256 0 0
          0.0256 0 0
          0.0256 0 0
          0.0256 0 0
          0.0256 0 0
          0.0256 0 0
          0.0256 0 0
          0.0256 0 0
          0.0256 0 0
          0.0256 0 0
          0.0256 0 0
        </DataArray>
      </PointData>
      <CellData>
      </CellData>
    </Piece>
  </ImageData>
</VTKFile>
