<?xml version="1.0"?>
<VTKFile type="ImageData" version="0.1" byte_order="LittleEndian">
  <ImageData WholeExtent="0 15 0 15 0 0" Origin="0 0 0" Spacing="1 1 1">
    <Piece Extent="0 15 0 15 0 0">
      <PointData>
        <DataArray type="Float32" Name="rho" format="ascii">
          0.977822
          0.967007
          0.966075
          0.961699
          0.963731
          0.957103
          0.958545
          0.947721
          0.949986
          0.9413
          0.946767
          0.958811
          0.957785
          0.998453
          1.02278
          0.998448
          0.98368
          0.986071
          0.985637
          0.985286
          0.984004
          0.983876
          0.982112
          0.981694
          0.980038
          0.979542
          0.978764
          0.978726
          0.978912
          0.980152
          0.98104
          0.984091
          0.985649
          0.986306
          0.985942
          0.985527
          0.984978
          0.983866
          0.983283
          0.982158
          0.981303
          0.980711
          0.980045
          0.979789
          0.980078
          0.980423
          0.980204
          0.981105
          0.9863
          0.986879
          0.986704
          0.985947
          0.985542
          0.984725
          0.983724
          0.983074
          0.982171
          0.981444
          0.980876
          0.980555
          0.980414
          0.980224
          0.980323
          0.980491
          0.987321
          0.987624
          0.987267
          0.986988
          0.985926
          0.985466
          0.984551
          0.98357
          0.983017
          0.98184
          0.981578
          0.980921
          0.980436
          0.980318
          0.980354
          0.979307
          0.989611
          0.98859
          0.98814
          0.987595
          0.987044
          0.985895
          0.985402
          0.98423
          0.983114
          0.98285
          0.981478
          0.981175
          0.980317
          0.980244
          0.979283
          0.979553
          0.989054
          0.989836
          0.98938
          0.988439
          0.987793
          0.98713
          0.985417
          0.985057
          0.983782
          0.982668
          0.982163
          0.980493
          0.980634
          0.97906
          0.980392
          0.976791
          0.995103
          0.99073
          0.990506
          0.989898
          0.988553
          0.987407
          0.986669
          0.984992
          0.984718
          0.982507
          0.981722
          0.981139
          0.978985
          0.979952
          0.975845
          0.978037
          0.98854
          0.993235
          0.99198
          0.990811
          0.989382
          0.98826
          0.987259
          0.986273
          0.983572
          0.984241
          0.980969
          0.980381
          0.979321
          0.976037
          0.980625
          0.970591
          1.00721
          0.993764
          0.993505
          0.991832
          0.990542
          0.989588
          0.987229
          0.986008
          0.98535
          0.981504
          0.983324
          0.977295
          0.9782
          0.977286
          0.967925
          0.976438
          0.983453
          0.996611
          0.995064
          0.992856
          0.99193
          0.989218
          0.987815
          0.98698
          0.985094
          0.984259
          0.979514
          0.981933
          0.974618
          0.972818
          0.978991
          0.958515
          1.02455
          0.996604
          0.995247
          0.993303
          0.988599
          0.989842
          0.988178
          0.988465
          0.984263
          0.984145
          0.981967
          0.969547
          0.980104
          0.966811
          0.950343
          0.977398
          0.979364
          0.999942
          0.992344
          0.984686
          0.990092
          0.989424
          0.99016
          0.987588
          0.987884
          0.984328
          0.980377
          0.978264
          0.974285
          0.961053
          0.977999
          0.9533
          1.05027
          1.0089
          0.995565
          0.989655
          0.991658
          0.988858
          0.989822
          0.990184
          0.984765
          0.987269
          0.970397
          0.973455
          0.975096
          0.939267
          0.944868
          1.00176
          0.997529
          1.03016
          0.999808
          0.997978
          0.990604
          0.993093
          0.989333
          0.991946
          0.987286
          0.985853
          0.980547
          0.977669
          0.971179
          0.941627
          0.966576
          0.955995
          0.956048
          1.01374
          1.00311
          0.996886
          0.992353
          0.988663
          0.991137
          0.984018
          0.98936
          0.977402
          0.983889
          0.978108
          0.966709
          0.965226
          0.9689
          0.859701
        </DataArray>
        <DataArray type="Float32" Name="ux" format="ascii">
          0
          0
          0
          0
          0
          0
          0
          0
          0
          0
          0
          0
          0
          0
          0
          0
          0
          0.000728829
          0.00303
          0.00361593
          0.00515243
          0.00563143
          0.00589512
          0.00535164
          0.00378928
          0.00173024
          -0.0016582
          -0.00362978
          -0.00659804
          -0.00820648
          -0.00477164
          0
          0
          0.00117397
          0.00280546
          0.00423325
          0.0053264
          0.00622641
          0.00636763
          0.00574744
          0.00493566
          0.00298414
          0.00107322
          -0.00147849
          -0.003582
          -0.00285752
          -0.00121968
          0
          0
          0.000390394
          0.00249315
          0.00422178
          0.00502765
          0.00554743
          0.00624048
          0.00550686
          0.00503193
          0.00374426
          0.00164102
          0.000524597
          -0.000555968
          -0.000692326
          -0.00103896
          0
          0
          0.00211185
          0.003836
          0.00487058
          0.00714684
          0.00693954
          0.0076269
          0.00805673
          0.00665576
          0.00544764
          0.0042999
          0.00361435
          0.00164944
          0.000481689
          -0.000168668
          0
          0
          0.00177836
          0.00486449
          0.0060487
          0.0072862
          0.00964143
          0.00932972
          0.00874067
          0.00897203
          0.00760784
          0.00790398
          0.0058347
          0.00391597
          0.00464656
          0.00198973
          0
          0
          0.00258629
          0.0057181
          0.00843985
          0.010102
          0.0100228
          0.0116483
          0.00909531
          0.0104767
          0.0107049
          0.0072531
          0.00634492
          0.00455298
          0.00270509
          -0.00027087
          0
          0
          0.00412765
          0.00851791
          0.011266
          0.0139759
          0.012825
          0.0132477
          0.0166607
          0.0152597
          0.0146526
          0.0147123
          0.0137533
          0.0116951
          0.0112977
          0.00838981
          0
          0
          0.00519389
          0.0119119
          0.0129512
          0.0126918
          0.0154852
          0.0170334
          0.014613
          0.0149941
          0.00860089
          0.0112462
          0.00675919
          0.00280089
          -0.00225314
          -0.00959453
          0
          0
          0.00793266
          0.0148101
          0.0188454
          0.021821
          0.0241058
          0.0269891
          0.0219933
          0.0238087
          0.0287932
          0.0240021
          0.0320286
          0.0262943
          0.0322094
          0.0314487
          0
          0
          0.0103634
          0.0244995
          0.0314849
          0.0312863
          0.0224521
          0.0136014
          0.0141668
          0.0122482
          0.0073717
          0.0117933
          -0.00793197
          0.00140025
          -0.0141449
          -0.0322388
          0
          0
          0.0219082
          0.0472548
          0.0576291
          0.0461847
          0.0363509
          0.0366077
          0.034336
          0.0429687
          0.0401976
          0.0468629
          0.0578356
          0.0401982
          0.0673231
          0.0631873
          0
          0
          0.0163841
          0.0320065
          0.0253322
          0.0203182
          0.0274603
          0.0218395
          0.0142209
          0.00330186
          -0.00539966
          -0.0223646
          -0.0435521
          -0.0290187
          -0.0769164
          -0.068311
          0
          0
          -0.00406223
          -0.047119
          -0.0500711
          -0.0363776
          -0.0250816
          -0.011354
          0.00134592
          0.0212054
          0.0292905
          0.0679841
          0.0695451
          0.0851744
          0.130825
          0.0924486
          0
          0
          -0.0712107
          -0.132316
          -0.150849
          -0.167316
          -0.173194
          -0.178918
          -0.17906
          -0.180257
          -0.17614
          -0.169028
          -0.148603
          -0.126927
          -0.122752
          -0.0460305
          0
          0.0256
          0.0256
          0.0256
          0.0256
          0.0256
          0.0256
          0.0256
          0.0256
          0.0256
          0.0256
          0.0256
          0.0256
          0.0256
          0.0256
          0.0256
          0.0256
        </DataArray>
        <DataArray type="Float32" Name="uy" format="ascii">
          0
          0
          0
          0
          0
          0
          0
          0
          0
          0
          0
          0
          0
          0
          0
          0
          0
          -0.00766231
          -0.00778456
          -0.00753055
          -0.00862461
          -0.00741824
          -0.00932644
          -0.00852175
          -0.0100756
          -0.00883461
          -0.00895699
          -0.00397349
          -0.00430563
          0.00695919
          0.00981558
          0
          0
          -0.0100743
          -0.00896539
          -0.0085931
          -0.00977049
          -0.00756314
          -0.00903459
          -0.00732967
          -0.0081264
          -0.00597062
          -0.00602973
          -0.000960788
          -0.00178187
          0.00592021
          0.00646766
          0
          0
          -0.011448
          -0.0107711
          -0.00982229
          -0.00980496
          -0.00882203
          -0.00775398
          -0.0068827
          -0.00654946
          -0.00372505
          -0.00374386
          0.00163038
          -0.00113921
          0.00582295
          0.00615266
          0
          0
          -0.0135191
          -0.0122318
          -0.0114394
          -0.0106771
          -0.00833241
          -0.00906271
          -0.00516873
          -0.00587223
          -0.00150928
          -0.00224831
          0.00267219
          0.000629612
          0.00680158
          0.00593197
          0
          0
          -0.0163779
          -0.0135698
          -0.0124913
          -0.0124484
          -0.00869801
          -0.00842058
          -0.00574927
          -0.00302374
          -0.00137379
          -0.00094811
          0.00522653
          0.0021872
          0.00788916
          0.00828024
          0
          0
          -0.0195592
          -0.0164971
          -0.0139332
          -0.0134963
          -0.0107381
          -0.0069973
          -0.00450895
          -0.0051503
          0.00167392
          -0.000868489
          0.00869783
          0.00161623
          0.0108444
          0.00960667
          0
          0
          -0.0235564
          -0.019178
          -0.0172737
          -0.0138391
          -0.0094359
          -0.00885264
          -0.00360618
          -0.00481405
          0.00198586
          0.00401521
          0.00722757
          0.00761304
          0.0100999
          0.0173814
          0
          0
          -0.0310228
          -0.0232592
          -0.0184807
          -0.0149611
          -0.010709
          -0.00922739
          -0.00675528
          -0.000178371
          0.00209375
          0.00062699
          0.0153069
          0.00279472
          0.0209306
          0.0136201
          0
          0
          -0.0380335
          -0.0279023
          -0.0184354
          -0.0166902
          -0.0146615
          -0.00755778
          -0.000918507
          -0.00352027
          0.00885341
          0.000454518
          0.0164096
          0.0158024
          0.0141235
          0.0331231
          0
          0
          -0.0514564
          -0.0349131
          -0.0244453
          -0.0172098
          -0.0123371
          -0.00540565
          -0.00360933
          -0.00242701
          3.5275e-06
          0.00667423
          0.0129783
          0.00709111
          0.028893
          0.0265864
          0
          0
          -0.0723747
          -0.051193
          -0.0249723
          -0.00399168
          -0.00145297
          -0.00111484
          -0.00303429
          0.000729686
          0.0085535
          0.00237937
          0.0376482
          0.00570983
          0.0375118
          0.0569069
          0
          0
          -0.103692
          -0.0675047
          -0.014378
          -0.0018191
          -0.00298121
          -0.00122309
          -0.0045108
          -0.00398675
          0.0033818
          0.0054535
          0.0160655
          0.0142576
          0.0289526
          0.0421988
          0
          0
          -0.103959
          -0.0494744
          -0.0203379
          -0.00508343
          -0.00951149
          0.00835624
          -0.00201216
          0.013457
          0.0104139
          0.0266467
          0.0396691
          0.00879993
          0.0750712
          0.0527809
          0
          0
          -0.0378723
          -0.0191104
          -0.0245043
          -0.0132108
          -0.0227522
          -0.0132035
          -0.0257409
          -0.0192886
          -0.0237422
          -0.0281003
          0.00895956
          -0.0310416
          0.0228624
          0.0893094
          0
          0
          0
          0
          0
          0
          0
          0
          0
          0
          0
          0
          0
          0
          0
          0
          0
        </DataArray>
        <DataArray type="Float32" Name="velocity" NumberOfComponents="3" format="ascii">
          0 0 0
          0 0 0
          0 0 0
          0 0 0
          0 0 0
          0 0 0
          0 0 0
          0 0 0
          0 0 0
          0 0 0
          0 0 0
          0 0 0
          0 0 0
          0 0 0
          0 0 0
          0 0 0
          0 0 0
          0.000728829 -0.00766231 0
          0.00303 -0.00778456 0
          0.00361593 -0.00753055 0
          0.00515243 -0.00862461 0
          0.00563143 -0.00741824 0
          0.00589512 -0.00932644 0
          0.00535164 -0.00852175 0
          0.00378928 -0.0100756 0
          0.00173024 -0.00883461 0
          -0.0016582 -0.00895699 0
          -0.00362978 -0.00397349 0
          -0.00659804 -0.00430563 0
          -0.00820648 0.00695919 0
          -0.00477164 0.00981558 0
          0 0 0
          0 0 0
          0.00117397 -0.0100743 0
          0.00280546 -0.00896539 0
          0.00423325 -0.0085931 0
          0.0053264 -0.00977049 0
          0.00622641 -0.00756314 0
          0.00636763 -0.00903459 0
          0.00574744 -0.00732967 0
          0.00493566 -0.0081264 0
          0.00298414 -0.00597062 0
          0.00107322 -0.00602973 0
          -0.00147849 -0.000960788 0
          -0.003582 -0.00178187 0
          -0.00285752 0.00592021 0
          -0.00121968 0.00646766 0
          0 0 0
          0 0 0
          0.000390394 -0.011448 0
          0.00249315 -0.0107711 0
          0.00422178 -0.00982229 0
          0.00502765 -0.00980496 0
          0.00554743 -0.00882203 0
          0.00624048 -0.00775398 0
          0.00550686 -0.0068827 0
          0.00503193 -0.00654946 0
          0.00374426 -0.00372505 0
          0.00164102 -0.00374386 0
          0.000524597 0.00163038 0
          -0.000555968 -0.00113921 0
          -0.000692326 0.00582295 0
          -0.00103896 0.00615266 0
          0 0 0
          0 0 0
          0.00211185 -0.0135191 0
          0.003836 -0.0122318 0
          0.00487058 -0.0114394 0
          0.00714684 -0.0106771 0
          0.00693954 -0.00833241 0
          0.0076269 -0.00906271 0
          0.00805673 -0.00516873 0
          0.00665576 -0.00587223 0
          0.00544764 -0.00150928 0
          0.0042999 -0.00224831 0
          0.00361435 0.00267219 0
          0.00164944 0.000629612 0
          0.000481689 0.00680158 0
          -0.000168668 0.00593197 0
          0 0 0
          0 0 0
          0.00177836 -0.0163779 0
          0.00486449 -0.0135698 0
          0.0060487 -0.0124913 0
          0.0072862 -0.0124484 0
          0.00964143 -0.00869801 0
          0.00932972 -0.00842058 0
          0.00874067 -0.00574927 0
          0.00897203 -0.00302374 0
          0.00760784 -0.00137379 0
          0.00790398 -0.00094811 0
          0.0058347 0.00522653 0
          0.00391597 0.0021872 0
          0.00464656 0.00788916 0
          0.00198973 0.00828024 0
          0 0 0
          0 0 0
          0.00258629 -0.0195592 0
          0.0057181 -0.0164971 0
          0.00843985 -0.0139332 0
          0.010102 -0.0134963 0
          0.0100228 -0.0107381 0
          0.0116483 -0.0069973 0
          0.00909531 -0.00450895 0
          0.0104767 -0.0051503 0
          0.0107049 0.00167392 0
          0.0072531 -0.000868489 0
          0.00634492 0.00869783 0
          0.00455298 0.00161623 0
          0.00270509 0.0108444 0
          -0.00027087 0.00960667 0
          0 0 0
          0 0 0
          0.00412765 -0.0235564 0
          0.00851791 -0.019178 0
          0.011266 -0.0172737 0
          0.0139759 -0.0138391 0
          0.012825 -0.0094359 0
          0.0132477 -0.00885264 0
          0.0166607 -0.00360618 0
          0.0152597 -0.00481405 0
          0.0146526 0.00198586 0
          0.0147123 0.00401521 0
          0.0137533 0.00722757 0
          0.0116951 0.00761304 0
          0.0112977 0.0100999 0
          0.00838981 0.0173814 0
          0 0 0
          0 0 0
          0.00519389 -0.0310228 0
          0.0119119 -0.0232592 0
          0.0129512 -0.0184807 0
          0.0126918 -0.0149611 0
          0.0154852 -0.010709 0
          0.0170334 -0.00922739 0
          0.014613 -0.00675528 0
          0.0149941 -0.000178371 0
          0.00860089 0.00209375 0
          0.0112462 0.00062699 0
          0.00675919 0.0153069 0
          0.00280089 0.00279472 0
          -0.00225314 0.0209306 0
          -0.00959453 0.0136201 0
          0 0 0
          0 0 0
          0.00793266 -0.0380335 0
          0.0148101 -0.0279023 0
          0.0188454 -0.0184354 0
          0.021821 -0.0166902 0
          0.0241058 -0.0146615 0
          0.0269891 -0.00755778 0
          0.0219933 -0.000918507 0
          0.0238087 -0.00352027 0
          0.0287932 0.00885341 0
          0.0240021 0.000454518 0
          0.0320286 0.0164096 0
          0.0262943 0.0158024 0
          0.0322094 0.0141235 0
          0.0314487 0.0331231 0
          0 0 0
          0 0 0
          0.0103634 -0.0514564 0
          0.0244995 -0.0349131 0
          0.0314849 -0.0244453 0
          0.0312863 -0.0172098 0
          0.0224521 -0.0123371 0
          0.0136014 -0.00540565 0
          0.0141668 -0.00360933 0
          0.0122482 -0.00242701 0
          0.0073717 3.5275e-06 0
          0.0117933 0.00667423 0
          -0.00793197 0.0129783 0
          0.00140025 0.00709111 0
          -0.0141449 0.028893 0
          -0.0322388 0.0265864 0
          0 0 0
          0 0 0
          0.0219082 -0.0723747 0
          0.0472548 -0.051193 0
          0.0576291 -0.0249723 0
          0.0461847 -0.00399168 0
          0.0363509 -0.00145297 0
          0.0366077 -0.00111484 0
          0.034336 -0.00303429 0
          0.0429687 0.000729686 0
          0.0401976 0.0085535 0
          0.0468629 0.00237937 0
          0.0578356 0.0376482 0
          0.0401982 0.00570983 0
          0.0673231 0.0375118 0
          0.0631873 0.0569069 0
          0 0 0
          0 0 0
          0.0163841 -0.103692 0
          0.0320065 -0.0675047 0
          0.0253322 -0.014378 0
          0.0203182 -0.0018191 0
          0.0274603 -0.00298121 0
          0.0218395 -0.00122309 0
          0.0142209 -0.0045108 0
          0.00330186 -0.00398675 0
          -0.00539966 0.0033818 0
          -0.0223646 0.0054535 0
          -0.0435521 0.0160655 0
          -0.0290187 0.0142576 0
          -0.0769164 0.0289526 0
          -0.068311 0.0421988 0
          0 0 0
          0 0 0
          -0.00406223 -0.103959 0
          -0.047119 -0.0494744 0
          -0.0500711 -0.0203379 0
          -0.0363776 -0.00508343 0
          -0.0250816 -0.00951149 0
          -0.011354 0.00835624 0
          0.00134592 -0.00201216 0
          0.0212054 0.013457 0
          0.0292905 0.0104139 0
          0.0679841 0.0266467 0
          0.0695451 0.0396691 0
          0.0851744 0.00879993 0
          0.130825 0.0750712 0
          0.0924486 0.0527809 0
          0 0 0
          0 0 0
          -0.0712107 -0.0378723 0
          -0.132316 -0.0191104 0
          -0.150849 -0.0245043 0
          -0.167316 -0.0132108 0
          -0.173194 -0.0227522 0
          -0.178918 -0.0132035 0
          -0.17906 -0.0257409 0
          -0.180257 -0.0192886 0
          -0.17614 -0.0237422 0
          -0.169028 -0.0281003 0
          -0.148603 0.00895956 0
          -0.126927 -0.0310416 0
          -0.122752 0.0228624 0
          -0.0460305 0.0893094 0
          0 0 0
          0.0256 0 0
          0.0256 0 0
          0.0256 0 0
          0.0256 0 0
          0.0256 0 0
          0.0256 0 0
          0.0256 0 0
          0.0256 0 0
          0.0256 0 0
          0.0256 0 0
          0.0256 0 0
          0.0256 0 0
          0.0256 0 0
          0.0256 0 0
          0.0256 0 0
          0.0256 0 0
        </DataArray>
      </PointData>
      <CellData>
      </CellData>
    </Piece>
  </ImageData>
</VTKFile>
