<?xml version="1.0"?>
<VTKFile type="ImageData" version="0.1" byte_order="LittleEndian">
  <ImageData WholeExtent="0 15 0 15 0 0" Origin="0 0 0" Spacing="1 1 1">
    <Piece Extent="0 15 0 15 0 0">
      <PointData>
        <DataArray type="Float32" Name="rho" format="ascii">
          0.99374
          0.995306
          0.993206
          0.996663
          0.993994
          0.995807
          0.99432
          0.994866
          0.993957
          0.994452
          0.9931
          0.995476
          0.989978
          1.00104
          0.99081
          0.995984
          0.99329
          0.994285
          0.994661
          0.994814
          0.994983
          0.995336
          0.995604
          0.995902
          0.99627
          0.996576
          0.996902
          0.997157
          0.997507
          0.997496
          0.998239
          0.997634
          0.993555
          0.994668
          0.994676
          0.994886
          0.995118
          0.995319
          0.995641
          0.995965
          0.996203
          0.996588
          0.996809
          0.997129
          0.997367
          0.997526
          0.997499
          0.99836
          0.993231
          0.994678
          0.994816
          0.994941
          0.995199
          0.995415
          0.995629
          0.995963
          0.996254
          0.996463
          0.996822
          0.997033
          0.997189
          0.99744
          0.997606
          0.998344
          0.993463
          0.994805
          0.99496
          0.995077
          0.9952
          0.995511
          0.995731
          0.995868
          0.99626
          0.996481
          0.996677
          0.996921
          0.997155
          0.997258
          0.99733
          0.998318
          0.993277
          0.99498
          0.99501
          0.995229
          0.99535
          0.995456
          0.995777
          0.996024
          0.99607
          0.996483
          0.996601
          0.996817
          0.996981
          0.997109
          0.997219
          0.998252
          0.993217
          0.99509
          0.995221
          0.995216
          0.995526
          0.995589
          0.995686
          0.996057
          0.996194
          0.996208
          0.996669
          0.996636
          0.996848
          0.996954
          0.99704
          0.99826
          0.993164
          0.995337
          0.995305
          0.99549
          0.995401
          0.995808
          0.995872
          0.995718
          0.99635
          0.996336
          0.996206
          0.996787
          0.996588
          0.99682
          0.996724
          0.998194
          0.992945
          0.995275
          0.995558
          0.995506
          0.995736
          0.995623
          0.995872
          0.996217
          0.995737
          0.99647
          0.996412
          0.996131
          0.996798
          0.996354
          0.996861
          0.998196
          0.993191
          0.995863
          0.995517
          0.995726
          0.995819
          0.995733
          0.995942
          0.996004
          0.996301
          0.995707
          0.996612
          0.99635
          0.996053
          0.996882
          0.99588
          0.998022
          0.991856
          0.995371
          0.995921
          0.995863
          0.99559
          0.996264
          0.995852
          0.995842
          0.996233
          0.996386
          0.995476
          0.996845
          0.995983
          0.995599
          0.997007
          0.998286
          0.994208
          0.996514
          0.995879
          0.995651
          0.996411
          0.995634
          0.996102
          0.996244
          0.995683
          0.996238
          0.996629
          0.994673
          0.997047
          0.996001
          0.994605
          0.997821
          0.987506
          0.995033
          0.996034
          0.99664
          0.995633
          0.996195
          0.996161
          0.995887
          0.996354
          0.995741
          0.995945
          0.996733
          0.994834
          0.996543
          0.99697
          0.998241
          0.992363
          0.997635
          0.995972
          0.995955
          0.996166
          0.996267
          0.995954
          0.996279
          0.995884
          0.996417
          0.995374
          0.996252
          0.996196
          0.993731
          0.991933
          0.999987
          0.972742
          0.994332
          0.997022
          0.995662
          0.996789
          0.995614
          0.996586
          0.995822
          0.996414
          0.995596
          0.996501
          0.994709
          0.996375
          0.992399
          1.00257
          1.00202
          0.939538
          0.985955
          0.992425
          0.996077
          0.995713
          0.996274
          0.996003
          0.996335
          0.995979
          0.996338
          0.99561
          0.996763
          0.994176
          0.999818
          0.993427
          1.02079
        </DataArray>
        <DataArray type="Float32" Name="ux" format="ascii">
          0
          0
          0
          0
          0
          0
          0
          0
          0
          0
          0
          0
          0
          0
          0
          0
          0
          -0.00104819
          -0.00124747
          -0.00133328
          -0.00117949
          -0.00138165
          -0.00137921
          -0.00130927
          -0.00134488
          -0.00135732
          -0.00140052
          -0.00108918
          -0.00159567
          -0.00108367
          -0.000632877
          0
          0
          -0.000509852
          -0.000355967
          -0.00104703
          -0.0011176
          -0.000934636
          -0.00121212
          -0.00122424
          -0.00114314
          -0.00122901
          -0.000882095
          -0.00127933
          -0.000995076
          -2.14399e-05
          -0.0006793
          0
          0
          -0.00131143
          -0.00119335
          -0.00121269
          -0.0016164
          -0.00173227
          -0.00135859
          -0.00178558
          -0.00183856
          -0.00140794
          -0.0019074
          -0.00160633
          -0.00129402
          -0.00155807
          -0.00166072
          0
          0
          -0.000947591
          -0.000987963
          -0.00132056
          -0.00103927
          -0.00161783
          -0.0017077
          -0.00127116
          -0.00143387
          -0.00177709
          -0.00128956
          -0.00100654
          -0.0014308
          -0.00057228
          -0.00091643
          0
          0
          -0.00117057
          -0.000911573
          -0.00171828
          -0.00153658
          -0.00140028
          -0.00209927
          -0.00184956
          -0.00153988
          -0.00191003
          -0.001601
          -0.00167496
          -0.00157781
          -0.000816581
          -0.00160742
          0
          0
          -0.00156376
          -0.00126105
          -0.0015518
          -0.00207359
          -0.00203932
          -0.0011956
          -0.00254402
          -0.00228435
          -0.00101162
          -0.00214664
          -0.00184271
          -0.00139373
          -0.0011067
          -0.00174426
          0
          0
          -0.00136286
          -0.00116827
          -0.00171505
          -0.00145301
          -0.0020944
          -0.0021278
          -0.00128648
          -0.00217406
          -0.00231765
          -0.000969864
          -0.00161115
          -0.00172833
          -0.000559023
          -0.00181946
          0
          0
          -0.00229311
          -0.00186484
          -0.00265484
          -0.00210037
          -0.00235541
          -0.00340605
          -0.00224231
          -0.00146417
          -0.00326903
          -0.0024027
          -0.00109085
          -0.00220922
          -0.00133391
          -0.00247565
          0
          0
          -0.000955282
          -0.000891238
          -0.00141761
          -0.00195141
          -0.00225616
          -0.000635246
          -0.00297726
          -0.00199736
          0.000607341
          -0.00266488
          -0.00135248
          0.000371533
          6.63102e-05
          -0.00123503
          0
          0
          -0.00450978
          -0.00335419
          -0.00424587
          -0.00445124
          -0.00340869
          -0.00431897
          -0.00323687
          -0.00461717
          -0.00413287
          -0.000876688
          -0.00536078
          -0.0033146
          -0.000891751
          -0.00593083
          0
          0
          0.00113346
          0.000222458
          -0.00158981
          0.000964418
          -0.00132186
          -0.00122631
          -6.16822e-05
          0.000903002
          -0.00110423
          0.00053058
          0.00630206
          0.000210316
          0.00461369
          0.00542048
          0
          0
          -0.0091536
          -0.00837733
          -0.00603868
          -0.00878633
          -0.00842251
          -0.00713157
          -0.00854859
          -0.00772404
          -0.0057138
          -0.00977366
          -0.00862847
          -0.00243124
          -0.0136547
          -0.017412
          0
          0
          0.0033931
          0.0071742
          0.00142452
          0.00311609
          0.00388869
          0.00255438
          0.00367338
          0.00367868
          0.0038465
          0.00759634
          0.00379931
          0.0062168
          0.0170326
          0.00707357
          0
          0
          -0.0146113
          -0.0176064
          -0.0156734
          -0.0147727
          -0.0164959
          -0.0156544
          -0.0170627
          -0.0180514
          -0.019128
          -0.0212758
          -0.0188264
          -0.0260824
          -0.0243736
          -0.0143064
          0
          0.0256
          0.0256
          0.0256
          0.0256
          0.0256
          0.0256
          0.0256
          0.0256
          0.0256
          0.0256
          0.0256
          0.0256
          0.0256
          0.0256
          0.0256
          0.0256
        </DataArray>
        <DataArray type="Float32" Name="uy" format="ascii">
          0
          0
          0
          0
          0
          0
          0
          0
          0
          0
          0
          0
          0
          0
          0
          0
          0
          0.000151784
          -0.00040901
          0.000302423
          -0.000372221
          0.000228259
          -0.000602113
          -0.000265156
          -0.000761068
          -0.000588252
          -0.0011491
          -0.000718367
          -0.00154085
          0.000154301
          -0.00147111
          0
          0
          0.000253957
          -0.000257486
          0.000459162
          -0.000704861
          0.000369552
          -0.000609959
          -0.000462494
          -0.00066706
          -0.000605367
          -0.00144005
          -0.000208544
          -0.00208504
          -0.000289914
          -0.00157765
          0
          0
          0.000393132
          -0.000612169
          0.000873076
          -0.000780463
          3.67022e-05
          -0.00042772
          -0.000283823
          -0.000853487
          -0.000598372
          -0.00108117
          -7.36776e-05
          -0.00269817
          0.000688347
          -0.00210209
          0
          0
          0.000753836
          -0.000769212
          0.000680319
          -0.000430632
          2.58784e-05
          -0.000825725
          3.67005e-05
          -0.000976347
          -0.000570868
          -0.00105435
          -0.000431929
          -0.00238334
          0.000663711
          -0.00252848
          0
          0
          0.000797752
          -0.000654787
          0.000846865
          -0.00100788
          0.000742597
          -0.000811645
          -0.000810811
          -0.000161829
          -0.000540782
          -0.00178842
          0.000530666
          -0.00310371
          0.000956469
          -0.00256427
          0
          0
          0.00109381
          -0.000913099
          0.00140893
          -0.00111722
          0.000292867
          -0.000396461
          -0.000312214
          -0.0012699
          -0.000122021
          -0.00131911
          0.000130156
          -0.00347064
          0.00153403
          -0.00302068
          0
          0
          0.00129006
          -0.00103991
          0.00137215
          -0.000567253
          -0.000180506
          -0.000757352
          0.000628565
          -0.00157347
          -0.000939126
          -0.000440066
          7.20177e-05
          -0.00399549
          0.00220482
          -0.00322157
          0
          0
          0.00189888
          -0.00131186
          0.00197066
          -0.00158819
          0.00136501
          -0.0011637
          -0.00108472
          0.000497007
          -0.00100476
          -0.00266189
          0.00222554
          -0.00535179
          0.00313055
          -0.00369496
          0
          0
          0.00174489
          -0.000844985
          0.0015622
          -0.00096984
          0.000836345
          -0.000993903
          -0.000442767
          -0.00182786
          0.00104694
          -0.00232875
          -0.000340879
          -0.00339025
          0.00273301
          -0.00300518
          0
          0
          0.00316913
          -0.00204138
          0.00314232
          -0.00101363
          -0.000297925
          -0.000413266
          0.000342108
          -0.00228649
          -0.00159943
          0.000717264
          -7.86281e-06
          -0.00842583
          0.00802967
          -0.00514697
          0
          0
          0.00250388
          -0.000981673
          0.0031597
          -0.00304452
          0.00201911
          -0.00175289
          -0.000597026
          -0.000522322
          -0.00163942
          -0.00383849
          0.00498662
          -0.00958215
          0.00504953
          2.31284e-05
          0
          0
          0.00491182
          -0.00073603
          0.00147837
          -0.000200516
          0.000851524
          -0.00155743
          -0.000881204
          -0.00209291
          -0.000141446
          -0.00405314
          -0.00228112
          -0.00355777
          0.00666616
          -0.00482901
          0
          0
          0.00393733
          -0.00391843
          0.0053784
          -0.00246044
          0.00102495
          -0.00153878
          -0.000590242
          -0.00259072
          -0.000726251
          -0.0014343
          -0.000254875
          -0.0117544
          0.0220705
          -0.00658953
          0
          0
          0.00310037
          -0.000877243
          0.00549624
          -0.00351244
          0.00237721
          -0.00202387
          -0.000459479
          -0.00253898
          -0.00137392
          -0.0045403
          0.00233647
          -0.0150816
          0.0110482
          -0.00386116
          0
          0
          0
          0
          0
          0
          0
          0
          0
          0
          0
          0
          0
          0
          0
          0
          0
        </DataArray>
        <DataArray type="Float32" Name="velocity" NumberOfComponents="3" format="ascii">
          0 0 0
          0 0 0
          0 0 0
          0 0 0
          0 0 0
          0 0 0
          0 0 0
          0 0 0
          0 0 0
          0 0 0
          0 0 0
          0 0 0
          0 0 0
          0 0 0
          0 0 0
          0 0 0
          0 0 0
          -0.00104819 0.000151784 0
          -0.00124747 -0.00040901 0
          -0.00133328 0.000302423 0
          -0.00117949 -0.000372221 0
          -0.00138165 0.000228259 0
          -0.00137921 -0.000602113 0
          -0.00130927 -0.000265156 0
          -0.00134488 -0.000761068 0
          -0.00135732 -0.000588252 0
          -0.00140052 -0.0011491 0
          -0.00108918 -0.000718367 0
          -0.00159567 -0.00154085 0
          -0.00108367 0.000154301 0
          -0.000632877 -0.00147111 0
          0 0 0
          0 0 0
          -0.000509852 0.000253957 0
          -0.000355967 -0.000257486 0
          -0.00104703 0.000459162 0
          -0.0011176 -0.000704861 0
          -0.000934636 0.000369552 0
          -0.00121212 -0.000609959 0
          -0.00122424 -0.000462494 0
          -0.00114314 -0.00066706 0
          -0.00122901 -0.000605367 0
          -0.000882095 -0.00144005 0
          -0.00127933 -0.000208544 0
          -0.000995076 -0.00208504 0
          -2.14399e-05 -0.000289914 0
          -0.0006793 -0.00157765 0
          0 0 0
          0 0 0
          -0.00131143 0.000393132 0
          -0.00119335 -0.000612169 0
          -0.00121269 0.000873076 0
          -0.0016164 -0.000780463 0
          -0.00173227 3.67022e-05 0
          -0.00135859 -0.00042772 0
          -0.00178558 -0.000283823 0
          -0.00183856 -0.000853487 0
          -0.00140794 -0.000598372 0
          -0.0019074 -0.00108117 0
          -0.00160633 -7.36776e-05 0
          -0.00129402 -0.00269817 0
          -0.00155807 0.000688347 0
          -0.00166072 -0.00210209 0
          0 0 0
          0 0 0
          -0.000947591 0.000753836 0
          -0.000987963 -0.000769212 0
          -0.00132056 0.000680319 0
          -0.00103927 -0.000430632 0
          -0.00161783 2.58784e-05 0
          -0.0017077 -0.000825725 0
          -0.00127116 3.67005e-05 0
          -0.00143387 -0.000976347 0
          -0.00177709 -0.000570868 0
          -0.00128956 -0.00105435 0
          -0.00100654 -0.000431929 0
          -0.0014308 -0.00238334 0
          -0.00057228 0.000663711 0
          -0.00091643 -0.00252848 0
          0 0 0
          0 0 0
          -0.00117057 0.000797752 0
          -0.000911573 -0.000654787 0
          -0.00171828 0.000846865 0
          -0.00153658 -0.00100788 0
          -0.00140028 0.000742597 0
          -0.00209927 -0.000811645 0
          -0.00184956 -0.000810811 0
          -0.00153988 -0.000161829 0
          -0.00191003 -0.000540782 0
          -0.001601 -0.00178842 0
          -0.00167496 0.000530666 0
          -0.00157781 -0.00310371 0
          -0.000816581 0.000956469 0
          -0.00160742 -0.00256427 0
          0 0 0
          0 0 0
          -0.00156376 0.00109381 0
          -0.00126105 -0.000913099 0
          -0.0015518 0.00140893 0
          -0.00207359 -0.00111722 0
          -0.00203932 0.000292867 0
          -0.0011956 -0.000396461 0
          -0.00254402 -0.000312214 0
          -0.00228435 -0.0012699 0
          -0.00101162 -0.000122021 0
          -0.00214664 -0.00131911 0
          -0.00184271 0.000130156 0
          -0.00139373 -0.00347064 0
          -0.0011067 0.00153403 0
          -0.00174426 -0.00302068 0
          0 0 0
          0 0 0
          -0.00136286 0.00129006 0
          -0.00116827 -0.00103991 0
          -0.00171505 0.00137215 0
          -0.00145301 -0.000567253 0
          -0.0020944 -0.000180506 0
          -0.0021278 -0.000757352 0
          -0.00128648 0.000628565 0
          -0.00217406 -0.00157347 0
          -0.00231765 -0.000939126 0
          -0.000969864 -0.000440066 0
          -0.00161115 7.20177e-05 0
          -0.00172833 -0.00399549 0
          -0.000559023 0.00220482 0
          -0.00181946 -0.00322157 0
          0 0 0
          0 0 0
          -0.00229311 0.00189888 0
          -0.00186484 -0.00131186 0
          -0.00265484 0.00197066 0
          -0.00210037 -0.00158819 0
          -0.00235541 0.00136501 0
          -0.00340605 -0.0011637 0
          -0.00224231 -0.00108472 0
          -0.00146417 0.000497007 0
          -0.00326903 -0.00100476 0
          -0.0024027 -0.00266189 0
          -0.00109085 0.00222554 0
          -0.00220922 -0.00535179 0
          -0.00133391 0.00313055 0
          -0.00247565 -0.00369496 0
          0 0 0
          0 0 0
          -0.000955282 0.00174489 0
          -0.000891238 -0.000844985 0
          -0.00141761 0.0015622 0
          -0.00195141 -0.00096984 0
          -0.00225616 0.000836345 0
          -0.000635246 -0.000993903 0
          -0.00297726 -0.000442767 0
          -0.00199736 -0.00182786 0
          0.000607341 0.00104694 0
          -0.00266488 -0.00232875 0
          -0.00135248 -0.000340879 0
          0.000371533 -0.00339025 0
          6.63102e-05 0.00273301 0
          -0.00123503 -0.00300518 0
          0 0 0
          0 0 0
          -0.00450978 0.00316913 0
          -0.00335419 -0.00204138 0
          -0.00424587 0.00314232 0
          -0.00445124 -0.00101363 0
          -0.00340869 -0.000297925 0
          -0.00431897 -0.000413266 0
          -0.00323687 0.000342108 0
          -0.00461717 -0.00228649 0
          -0.00413287 -0.00159943 0
          -0.000876688 0.000717264 0
          -0.00536078 -7.86281e-06 0
          -0.0033146 -0.00842583 0
          -0.000891751 0.00802967 0
          -0.00593083 -0.00514697 0
          0 0 0
          0 0 0
          0.00113346 0.00250388 0
          0.000222458 -0.000981673 0
          -0.00158981 0.0031597 0
          0.000964418 -0.00304452 0
          -0.00132186 0.00201911 0
          -0.00122631 -0.00175289 0
          -6.16822e-05 -0.000597026 0
          0.000903002 -0.000522322 0
          -0.00110423 -0.00163942 0
          0.00053058 -0.00383849 0
          0.00630206 0.00498662 0
          0.000210316 -0.00958215 0
          0.00461369 0.00504953 0
          0.00542048 2.31284e-05 0
          0 0 0
          0 0 0
          -0.0091536 0.00491182 0
          -0.00837733 -0.00073603 0
          -0.00603868 0.00147837 0
          -0.00878633 -0.000200516 0
          -0.00842251 0.000851524 0
          -0.00713157 -0.00155743 0
          -0.00854859 -0.000881204 0
          -0.00772404 -0.00209291 0
          -0.0057138 -0.000141446 0
          -0.00977366 -0.00405314 0
          -0.00862847 -0.00228112 0
          -0.00243124 -0.00355777 0
          -0.0136547 0.00666616 0
          -0.017412 -0.00482901 0
          0 0 0
          0 0 0
          0.0033931 0.00393733 0
          0.0071742 -0.00391843 0
          0.00142452 0.0053784 0
          0.00311609 -0.00246044 0
          0.00388869 0.00102495 0
          0.00255438 -0.00153878 0
          0.00367338 -0.000590242 0
          0.00367868 -0.00259072 0
          0.0038465 -0.000726251 0
          0.00759634 -0.0014343 0
          0.00379931 -0.000254875 0
          0.0062168 -0.0117544 0
          0.0170326 0.0220705 0
          0.00707357 -0.00658953 0
          0 0 0
          0 0 0
          -0.0146113 0.00310037 0
          -0.0176064 -0.000877243 0
          -0.0156734 0.00549624 0
          -0.0147727 -0.00351244 0
          -0.0164959 0.00237721 0
          -0.0156544 -0.00202387 0
          -0.0170627 -0.000459479 0
          -0.0180514 -0.00253898 0
          -0.019128 -0.00137392 0
          -0.0212758 -0.0045403 0
          -0.0188264 0.00233647 0
          -0.0260824 -0.0150816 0
          -0.0243736 0.0110482 0
          -0.0143064 -0.00386116 0
          0 0 0
          0.0256 0 0
          0.0256 0 0
          0.0256 0 0
          0.0256 0 0
          0.0256 0 0
          0.0256 0 0
          0.0256 0 0
          0.0256 0 0
          0.0256 0 0
          0.0256 0 0
          0.0256 0 0
          0.0256 0 0
          0.0256 0 0
          0.0256 0 0
          0.0256 0 0
          0.0256 0 0
        </DataArray>
      </PointData>
      <CellData>
      </CellData>
    </Piece>
  </ImageData>
</VTKFile>
