<?xml version="1.0"?>
<VTKFile type="ImageData" version="0.1" byte_order="LittleEndian">
  <ImageData WholeExtent="0 15 0 15 0 0" Origin="0 0 0" Spacing="1 1 1">
    <Piece Extent="0 15 0 15 0 0">
      <PointData>
        <DataArray type="Float32" Name="rho" format="ascii">
          0.984706
          0.979282
          0.982982
          0.983087
          0.983142
          0.984867
          0.983566
          0.985848
          0.985128
          0.987657
          0.987611
          0.992288
          0.988131
          1.00162
          0.993903
          0.993359
          0.987581
          0.989725
          0.989842
          0.990043
          0.989785
          0.990214
          0.990096
          0.990286
          0.990391
          0.990531
          0.990585
          0.990876
          0.990828
          0.990932
          0.991519
          0.991322
          0.989152
          0.990045
          0.989846
          0.990063
          0.990171
          0.990027
          0.990346
          0.990301
          0.990414
          0.990564
          0.990638
          0.990697
          0.990897
          0.990917
          0.990763
          0.991482
          0.988687
          0.990082
          0.990198
          0.99003
          0.990272
          0.990311
          0.990197
          0.990494
          0.990423
          0.990543
          0.990643
          0.990674
          0.990773
          0.990793
          0.990935
          0.991434
          0.989241
          0.990194
          0.9903
          0.990371
          0.990177
          0.990447
          0.99042
          0.990304
          0.990649
          0.990432
          0.990612
          0.990695
          0.990634
          0.990777
          0.990702
          0.991145
          0.989411
          0.990463
          0.990334
          0.990503
          0.990502
          0.990258
          0.99062
          0.990514
          0.9903
          0.990739
          0.990439
          0.990598
          0.990618
          0.990587
          0.990599
          0.991099
          0.989253
          0.990637
          0.990676
          0.990433
          0.99064
          0.990679
          0.990307
          0.990681
          0.990495
          0.990356
          0.990732
          0.990274
          0.990641
          0.9904
          0.990687
          0.990749
          0.989939
          0.990833
          0.990765
          0.990844
          0.990607
          0.990752
          0.99064
          0.990223
          0.990919
          0.990274
          0.990249
          0.990784
          0.990048
          0.990751
          0.989783
          0.990892
          0.988924
          0.991047
          0.990992
          0.991071
          0.990912
          0.990453
          0.990809
          0.990849
          0.989887
          0.990991
          0.990092
          0.990049
          0.990666
          0.98938
          0.99114
          0.989886
          0.992182
          0.991405
          0.991427
          0.991039
          0.990891
          0.991084
          0.990614
          0.990492
          0.990768
          0.989557
          0.991035
          0.989681
          0.989892
          0.99091
          0.988405
          0.990388
          0.986361
          0.991894
          0.991528
          0.991168
          0.991349
          0.99122
          0.990461
          0.990479
          0.9905
          0.990484
          0.989266
          0.991192
          0.989063
          0.989135
          0.991493
          0.988183
          0.995657
          0.992469
          0.991338
          0.992274
          0.991462
          0.99045
          0.991
          0.990558
          0.989825
          0.99039
          0.990543
          0.987547
          0.991461
          0.989044
          0.985428
          0.990841
          0.981622
          0.991207
          0.9939
          0.991672
          0.990843
          0.991453
          0.99058
          0.990246
          0.990308
          0.989651
          0.989589
          0.990119
          0.988766
          0.98901
          0.992839
          0.985317
          0.995361
          0.995349
          0.992153
          0.991714
          0.991476
          0.991016
          0.99002
          0.990221
          0.989448
          0.989811
          0.988225
          0.990011
          0.989746
          0.986134
          0.982968
          0.991399
          0.976392
          0.995245
          0.990744
          0.993664
          0.991569
          0.990246
          0.991306
          0.989158
          0.990466
          0.988725
          0.989955
          0.988582
          0.988857
          0.985493
          0.996808
          0.997211
          0.942894
          0.987086
          0.990388
          0.991511
          0.992026
          0.990577
          0.990674
          0.989999
          0.98957
          0.989635
          0.988985
          0.990142
          0.987012
          0.992216
          0.98591
          0.990492
        </DataArray>
        <DataArray type="Float32" Name="ux" format="ascii">
          0
          0
          0
          0
          0
          0
          0
          0
          0
          0
          0
          0
          0
          0
          0
          0
          0
          -0.00137675
          -0.00122749
          -0.00101858
          -0.000804431
          -0.000826961
          -0.000940952
          -0.00090524
          -0.00112814
          -0.00140154
          -0.00152501
          -0.00163524
          -0.00212353
          -0.00164935
          -0.00142976
          0
          0
          7.46078e-05
          0.000228023
          -0.000270006
          4.83264e-05
          0.000412356
          0.000109352
          2.11976e-06
          -3.55861e-05
          -0.000287611
          -0.00021618
          -0.000802194
          -0.000802462
          0.000420375
          -4.52236e-05
          0
          0
          -0.00125404
          -0.000651665
          -0.000189636
          -0.000698889
          -0.000468942
          0.000117254
          -0.000590298
          -0.000481032
          -0.000398536
          -0.00126331
          -0.00116184
          -0.000959106
          -0.00137576
          -0.00194363
          0
          0
          -0.000215814
          -0.000190681
          5.90087e-05
          0.00106395
          0.000102711
          0.000389335
          0.00120075
          0.000546181
          0.000113147
          0.000320442
          0.000432754
          -0.000393555
          4.58566e-05
          -0.000471481
          0
          0
          -0.000291845
          0.000594196
          -9.36999e-05
          0.000548132
          0.00153301
          0.000538065
          0.000911043
          0.00128275
          0.000384191
          0.0011669
          0.000209823
          -0.000205348
          0.00101876
          -0.000693271
          0
          0
          -0.000608261
          0.000359661
          0.000884875
          0.000583957
          0.0011381
          0.00272835
          0.000180101
          0.00124977
          0.00268063
          0.000150171
          0.000635159
          0.000512121
          0.000362492
          -0.000881654
          0
          0
          1.33283e-05
          0.000689614
          0.0012027
          0.00297881
          0.00162232
          0.00174238
          0.00407227
          0.00235535
          0.00216054
          0.00329212
          0.00173482
          0.00154181
          0.00187694
          -0.000238025
          0
          0
          -0.000554358
          0.00122298
          0.00116096
          0.00193497
          0.00229297
          0.00188534
          0.00297438
          0.00381002
          0.000208184
          0.0023266
          0.00207231
          -0.000590145
          0.000111785
          -0.00288204
          0
          0
          0.00168475
          0.00339169
          0.00314955
          0.00342978
          0.00521008
          0.00818337
          0.00379129
          0.00545788
          0.00910501
          0.00372097
          0.00716088
          0.00667122
          0.00694874
          0.00623672
          0
          0
          -0.00144625
          -6.34841e-05
          -6.66925e-05
          0.00404926
          0.00390931
          0.00142842
          0.00345138
          0.000694294
          8.06959e-05
          0.00362537
          -0.00574177
          0.000317366
          -0.00170437
          -0.011854
          0
          0
          0.00243929
          0.0052919
          0.00980922
          0.0122671
          0.00802409
          0.0102956
          0.0111025
          0.0136059
          0.0101194
          0.0114831
          0.0192787
          0.00852189
          0.0170209
          0.017711
          0
          0
          0.000367099
          0.0107977
          0.0104976
          0.00477751
          0.00535834
          0.00544503
          0.00128986
          -0.000422363
          -0.00195554
          -0.00933831
          -0.0117863
          -0.00665025
          -0.0259949
          -0.0256593
          0
          0
          0.015215
          0.0156684
          0.0039167
          0.0113906
          0.0104984
          0.012734
          0.0148111
          0.0167428
          0.0190376
          0.024781
          0.0198576
          0.0228208
          0.0332834
          0.0179048
          0
          0
          -0.0367744
          -0.0576348
          -0.0566605
          -0.063423
          -0.0665335
          -0.0668321
          -0.068283
          -0.0653547
          -0.0629668
          -0.0585244
          -0.0492423
          -0.0483889
          -0.0398562
          -0.0182961
          0
          0.0256
          0.0256
          0.0256
          0.0256
          0.0256
          0.0256
          0.0256
          0.0256
          0.0256
          0.0256
          0.0256
          0.0256
          0.0256
          0.0256
          0.0256
          0.0256
        </DataArray>
        <DataArray type="Float32" Name="uy" format="ascii">
          0
          0
          0
          0
          0
          0
          0
          0
          0
          0
          0
          0
          0
          0
          0
          0
          0
          -0.00300984
          -0.00298431
          -0.00199838
          -0.00273989
          -0.00121887
          -0.00256723
          -0.00101246
          -0.00178595
          -0.000387147
          -0.00110838
          0.00105182
          -0.000620229
          0.0033829
          0.00121043
          0
          0
          -0.00314228
          -0.0028856
          -0.00205297
          -0.00325973
          -0.00102819
          -0.00239819
          -0.00117956
          -0.00130889
          -0.000406865
          -0.0010324
          0.00168473
          -0.00114458
          0.00263645
          0.00112898
          0
          0
          -0.00324405
          -0.00329294
          -0.00177302
          -0.00325572
          -0.00176465
          -0.00175754
          -0.000983955
          -0.00139312
          2.02823e-05
          -0.00043762
          0.00199952
          -0.00167052
          0.00345375
          0.000874512
          0
          0
          -0.00302688
          -0.00386418
          -0.00238869
          -0.00288613
          -0.00165715
          -0.00269472
          -0.000166195
          -0.00163202
          0.000578099
          -0.00024367
          0.00175339
          -0.00115879
          0.00391488
          0.00030675
          0
          0
          -0.00365122
          -0.00364138
          -0.00273231
          -0.00390177
          -0.000748564
          -0.00274297
          -0.0014638
          0.000291688
          6.67382e-05
          -0.000576329
          0.00334684
          -0.0017502
          0.00428721
          0.00106184
          0
          0
          -0.00408106
          -0.00453713
          -0.00214795
          -0.00445336
          -0.00218176
          -0.00156893
          -0.000723665
          -0.00170382
          0.00161191
          -0.000444541
          0.00394795
          -0.00237122
          0.00512017
          0.00149807
          0
          0
          -0.00470778
          -0.0050152
          -0.00341363
          -0.00404581
          -0.00239959
          -0.00262952
          0.000672794
          -0.00229196
          0.000958865
          0.00212705
          0.0028644
          -0.00131653
          0.00575081
          0.00276154
          0
          0
          -0.00550904
          -0.00584051
          -0.00406934
          -0.0053461
          -0.000528482
          -0.00382223
          -0.00215638
          0.00176368
          0.000320925
          -0.000507501
          0.00767979
          -0.00434092
          0.00948159
          0.00172192
          0
          0
          -0.00735659
          -0.00677212
          -0.00391766
          -0.00532305
          -0.00318387
          -0.00296143
          -0.000168892
          -0.00181773
          0.00449524
          -0.000997097
          0.00580455
          0.00107905
          0.00577012
          0.00746672
          0
          0
          -0.00943603
          -0.00690094
          -0.0045259
          -0.00787592
          -0.00411769
          -0.0022276
          0.000689333
          -0.00193323
          0.000426492
          0.00468884
          0.00465038
          -0.00517946
          0.015096
          0.00416715
          0
          0
          -0.0106445
          -0.00820399
          -0.00894515
          -0.0088524
          0.00027007
          -0.00406924
          7.39373e-05
          0.00122538
          0.00220802
          0.000412594
          0.0135188
          -0.00772465
          0.0156642
          0.0140204
          0
          0
          -0.0145581
          -0.0161894
          -0.00869768
          -0.00476737
          -0.00283974
          -0.00358479
          -0.000727301
          -0.00040726
          0.00521749
          -0.000150359
          0.00467059
          0.00317528
          0.0119703
          0.00836935
          0
          0
          -0.0321902
          -0.0111222
          -0.00386968
          -0.00661547
          -0.000496268
          -0.0024537
          0.00341743
          0.00223385
          0.00742949
          0.00751588
          0.0101765
          -0.00168595
          0.0345038
          0.00410015
          0
          0
          -0.0212569
          -0.00221821
          -0.00454613
          -0.00875259
          -0.00115708
          -0.00749107
          -0.000740007
          -0.00447599
          0.000549674
          -0.00248495
          0.00824521
          -0.0105054
          0.0196429
          0.0110782
          0
          0
          0
          0
          0
          0
          0
          0
          0
          0
          0
          0
          0
          0
          0
          0
          0
        </DataArray>
        <DataArray type="Float32" Name="velocity" NumberOfComponents="3" format="ascii">
          0 0 0
          0 0 0
          0 0 0
          0 0 0
          0 0 0
          0 0 0
          0 0 0
          0 0 0
          0 0 0
          0 0 0
          0 0 0
          0 0 0
          0 0 0
          0 0 0
          0 0 0
          0 0 0
          0 0 0
          -0.00137675 -0.00300984 0
          -0.00122749 -0.00298431 0
          -0.00101858 -0.00199838 0
          -0.000804431 -0.00273989 0
          -0.000826961 -0.00121887 0
          -0.000940952 -0.00256723 0
          -0.00090524 -0.00101246 0
          -0.00112814 -0.00178595 0
          -0.00140154 -0.000387147 0
          -0.00152501 -0.00110838 0
          -0.00163524 0.00105182 0
          -0.00212353 -0.000620229 0
          -0.00164935 0.0033829 0
          -0.00142976 0.00121043 0
          0 0 0
          0 0 0
          7.46078e-05 -0.00314228 0
          0.000228023 -0.0028856 0
          -0.000270006 -0.00205297 0
          4.83264e-05 -0.00325973 0
          0.000412356 -0.00102819 0
          0.000109352 -0.00239819 0
          2.11976e-06 -0.00117956 0
          -3.55861e-05 -0.00130889 0
          -0.000287611 -0.000406865 0
          -0.00021618 -0.0010324 0
          -0.000802194 0.00168473 0
          -0.000802462 -0.00114458 0
          0.000420375 0.00263645 0
          -4.52236e-05 0.00112898 0
          0 0 0
          0 0 0
          -0.00125404 -0.00324405 0
          -0.000651665 -0.00329294 0
          -0.000189636 -0.00177302 0
          -0.000698889 -0.00325572 0
          -0.000468942 -0.00176465 0
          0.000117254 -0.00175754 0
          -0.000590298 -0.000983955 0
          -0.000481032 -0.00139312 0
          -0.000398536 2.02823e-05 0
          -0.00126331 -0.00043762 0
          -0.00116184 0.00199952 0
          -0.000959106 -0.00167052 0
          -0.00137576 0.00345375 0
          -0.00194363 0.000874512 0
          0 0 0
          0 0 0
          -0.000215814 -0.00302688 0
          -0.000190681 -0.00386418 0
          5.90087e-05 -0.00238869 0
          0.00106395 -0.00288613 0
          0.000102711 -0.00165715 0
          0.000389335 -0.00269472 0
          0.00120075 -0.000166195 0
          0.000546181 -0.00163202 0
          0.000113147 0.000578099 0
          0.000320442 -0.00024367 0
          0.000432754 0.00175339 0
          -0.000393555 -0.00115879 0
          4.58566e-05 0.00391488 0
          -0.000471481 0.00030675 0
          0 0 0
          0 0 0
          -0.000291845 -0.00365122 0
          0.000594196 -0.00364138 0
          -9.36999e-05 -0.00273231 0
          0.000548132 -0.00390177 0
          0.00153301 -0.000748564 0
          0.000538065 -0.00274297 0
          0.000911043 -0.0014638 0
          0.00128275 0.000291688 0
          0.000384191 6.67382e-05 0
          0.0011669 -0.000576329 0
          0.000209823 0.00334684 0
          -0.000205348 -0.0017502 0
          0.00101876 0.00428721 0
          -0.000693271 0.00106184 0
          0 0 0
          0 0 0
          -0.000608261 -0.00408106 0
          0.000359661 -0.00453713 0
          0.000884875 -0.00214795 0
          0.000583957 -0.00445336 0
          0.0011381 -0.00218176 0
          0.00272835 -0.00156893 0
          0.000180101 -0.000723665 0
          0.00124977 -0.00170382 0
          0.00268063 0.00161191 0
          0.000150171 -0.000444541 0
          0.000635159 0.00394795 0
          0.000512121 -0.00237122 0
          0.000362492 0.00512017 0
          -0.000881654 0.00149807 0
          0 0 0
          0 0 0
          1.33283e-05 -0.00470778 0
          0.000689614 -0.0050152 0
          0.0012027 -0.00341363 0
          0.00297881 -0.00404581 0
          0.00162232 -0.00239959 0
          0.00174238 -0.00262952 0
          0.00407227 0.000672794 0
          0.00235535 -0.00229196 0
          0.00216054 0.000958865 0
          0.00329212 0.00212705 0
          0.00173482 0.0028644 0
          0.00154181 -0.00131653 0
          0.00187694 0.00575081 0
          -0.000238025 0.00276154 0
          0 0 0
          0 0 0
          -0.000554358 -0.00550904 0
          0.00122298 -0.00584051 0
          0.00116096 -0.00406934 0
          0.00193497 -0.0053461 0
          0.00229297 -0.000528482 0
          0.00188534 -0.00382223 0
          0.00297438 -0.00215638 0
          0.00381002 0.00176368 0
          0.000208184 0.000320925 0
          0.0023266 -0.000507501 0
          0.00207231 0.00767979 0
          -0.000590145 -0.00434092 0
          0.000111785 0.00948159 0
          -0.00288204 0.00172192 0
          0 0 0
          0 0 0
          0.00168475 -0.00735659 0
          0.00339169 -0.00677212 0
          0.00314955 -0.00391766 0
          0.00342978 -0.00532305 0
          0.00521008 -0.00318387 0
          0.00818337 -0.00296143 0
          0.00379129 -0.000168892 0
          0.00545788 -0.00181773 0
          0.00910501 0.00449524 0
          0.00372097 -0.000997097 0
          0.00716088 0.00580455 0
          0.00667122 0.00107905 0
          0.00694874 0.00577012 0
          0.00623672 0.00746672 0
          0 0 0
          0 0 0
          -0.00144625 -0.00943603 0
          -6.34841e-05 -0.00690094 0
          -6.66925e-05 -0.0045259 0
          0.00404926 -0.00787592 0
          0.00390931 -0.00411769 0
          0.00142842 -0.0022276 0
          0.00345138 0.000689333 0
          0.000694294 -0.00193323 0
          8.06959e-05 0.000426492 0
          0.00362537 0.00468884 0
          -0.00574177 0.00465038 0
          0.000317366 -0.00517946 0
          -0.00170437 0.015096 0
          -0.011854 0.00416715 0
          0 0 0
          0 0 0
          0.00243929 -0.0106445 0
          0.0052919 -0.00820399 0
          0.00980922 -0.00894515 0
          0.0122671 -0.0088524 0
          0.00802409 0.00027007 0
          0.0102956 -0.00406924 0
          0.0111025 7.39373e-05 0
          0.0136059 0.00122538 0
          0.0101194 0.00220802 0
          0.0114831 0.000412594 0
          0.0192787 0.0135188 0
          0.00852189 -0.00772465 0
          0.0170209 0.0156642 0
          0.017711 0.0140204 0
          0 0 0
          0 0 0
          0.000367099 -0.0145581 0
          0.0107977 -0.0161894 0
          0.0104976 -0.00869768 0
          0.00477751 -0.00476737 0
          0.00535834 -0.00283974 0
          0.00544503 -0.00358479 0
          0.00128986 -0.000727301 0
          -0.000422363 -0.00040726 0
          -0.00195554 0.00521749 0
          -0.00933831 -0.000150359 0
          -0.0117863 0.00467059 0
          -0.00665025 0.00317528 0
          -0.0259949 0.0119703 0
          -0.0256593 0.00836935 0
          0 0 0
          0 0 0
          0.015215 -0.0321902 0
          0.0156684 -0.0111222 0
          0.0039167 -0.00386968 0
          0.0113906 -0.00661547 0
          0.0104984 -0.000496268 0
          0.012734 -0.0024537 0
          0.0148111 0.00341743 0
          0.0167428 0.00223385 0
          0.0190376 0.00742949 0
          0.024781 0.00751588 0
          0.0198576 0.0101765 0
          0.0228208 -0.00168595 0
          0.0332834 0.0345038 0
          0.0179048 0.00410015 0
          0 0 0
          0 0 0
          -0.0367744 -0.0212569 0
          -0.0576348 -0.00221821 0
          -0.0566605 -0.00454613 0
          -0.063423 -0.00875259 0
          -0.0665335 -0.00115708 0
          -0.0668321 -0.00749107 0
          -0.068283 -0.000740007 0
          -0.0653547 -0.00447599 0
          -0.0629668 0.000549674 0
          -0.0585244 -0.00248495 0
          -0.0492423 0.00824521 0
          -0.0483889 -0.0105054 0
          -0.0398562 0.0196429 0
          -0.0182961 0.0110782 0
          0 0 0
          0.0256 0 0
          0.0256 0 0
          0.0256 0 0
          0.0256 0 0
          0.0256 0 0
          0.0256 0 0
          0.0256 0 0
          0.0256 0 0
          0.0256 0 0
          0.0256 0 0
          0.0256 0 0
          0.0256 0 0
          0.0256 0 0
          0.0256 0 0
          0.0256 0 0
          0.0256 0 0
        </DataArray>
      </PointData>
      <CellData>
      </CellData>
    </Piece>
  </ImageData>
</VTKFile>
