<?xml version="1.0"?>
<VTKFile type="ImageData" version="0.1" byte_order="LittleEndian">
  <ImageData WholeExtent="0 15 0 15 0 0" Origin="0 0 0" Spacing="1 1 1">
    <Piece Extent="0 15 0 15 0 0">
      <PointData>
        <DataArray type="Float32" Name="rho" format="ascii">
          0.990252
          0.988762
          0.989263
          0.991536
          0.989475
          0.991471
          0.989667
          0.990735
          0.989769
          0.990864
          0.990033
          0.992955
          0.988247
          1.00041
          0.990454
          0.993317
          0.990864
          0.99198
          0.992248
          0.992377
          0.99228
          0.992643
          0.992657
          0.992853
          0.993022
          0.993211
          0.993292
          0.993556
          0.993591
          0.99359
          0.994216
          0.993574
          0.991659
          0.992326
          0.992194
          0.992374
          0.992528
          0.992496
          0.992793
          0.992889
          0.993015
          0.993225
          0.993343
          0.993453
          0.993638
          0.993667
          0.993531
          0.994095
          0.99113
          0.992279
          0.992379
          0.992346
          0.992572
          0.992679
          0.992694
          0.99299
          0.993064
          0.993195
          0.993394
          0.993472
          0.993564
          0.993657
          0.993796
          0.994213
          0.99149
          0.99232
          0.992456
          0.992526
          0.992477
          0.992778
          0.992862
          0.992839
          0.993221
          0.993209
          0.993356
          0.993532
          0.993574
          0.993691
          0.993643
          0.994173
          0.991351
          0.992467
          0.992413
          0.992623
          0.992683
          0.992614
          0.992974
          0.993074
          0.992976
          0.993418
          0.993347
          0.993499
          0.993635
          0.993636
          0.993723
          0.994225
          0.991203
          0.992515
          0.99261
          0.992507
          0.992805
          0.992863
          0.992774
          0.993195
          0.993194
          0.993155
          0.99362
          0.9934
          0.993675
          0.993671
          0.993782
          0.994288
          0.991316
          0.992663
          0.992614
          0.99278
          0.992639
          0.99303
          0.993045
          0.992781
          0.993556
          0.993284
          0.99322
          0.993876
          0.993418
          0.993876
          0.993464
          0.994424
          0.990874
          0.992567
          0.99278
          0.992789
          0.992972
          0.99273
          0.993101
          0.993437
          0.992759
          0.993782
          0.993407
          0.993238
          0.994038
          0.993175
          0.994256
          0.994299
          0.992024
          0.993015
          0.992774
          0.99292
          0.992916
          0.993034
          0.993102
          0.99316
          0.993578
          0.992771
          0.994054
          0.993404
          0.993333
          0.994426
          0.992795
          0.994406
          0.988989
          0.992697
          0.993097
          0.992884
          0.992908
          0.993452
          0.992979
          0.993109
          0.993468
          0.993659
          0.992718
          0.994476
          0.993076
          0.993019
          0.994837
          0.994144
          0.993928
          0.993745
          0.9928
          0.993078
          0.993543
          0.992697
          0.993377
          0.993424
          0.992913
          0.993642
          0.994004
          0.991773
          0.994977
          0.993241
          0.991339
          0.994702
          0.984151
          0.991764
          0.99375
          0.993734
          0.992684
          0.993535
          0.993306
          0.993117
          0.993602
          0.993085
          0.99337
          0.994002
          0.992617
          0.993959
          0.995578
          0.993636
          0.991734
          0.995559
          0.993092
          0.993145
          0.993416
          0.993429
          0.993084
          0.99349
          0.993066
          0.993536
          0.992545
          0.993998
          0.993566
          0.99124
          0.988701
          0.995565
          0.972873
          0.992438
          0.993504
          0.993553
          0.993923
          0.992645
          0.99397
          0.992786
          0.993627
          0.992721
          0.993742
          0.99233
          0.993578
          0.990249
          1.00093
          0.999281
          0.941791
          0.98495
          0.990772
          0.993591
          0.993631
          0.993561
          0.993412
          0.993405
          0.992977
          0.993174
          0.992521
          0.993571
          0.991047
          0.996536
          0.990267
          1.00789
        </DataArray>
        <DataArray type="Float32" Name="ux" format="ascii">
          0
          0
          0
          0
          0
          0
          0
          0
          0
          0
          0
          0
          0
          0
          0
          0
          0
          -0.00110309
          -0.00098893
          -0.000710549
          -0.000325828
          -0.000361438
          -0.000311034
          -0.000185279
          -0.000312915
          -0.000501918
          -0.000633872
          -0.000695289
          -0.00134025
          -0.000962198
          -0.000930742
          0
          0
          8.26108e-05
          0.000429767
          -0.000117344
          0.000135886
          0.000586008
          0.000328917
          0.000297614
          0.000345076
          0.000138461
          0.000278593
          -0.000326707
          -0.000327542
          0.000640039
          -0.000130865
          0
          0
          -0.00120101
          -0.000615283
          -0.000216404
          -0.000651882
          -0.000459732
          0.000187827
          -0.000406288
          -0.000407113
          -0.000103873
          -0.000903647
          -0.000836949
          -0.000650956
          -0.00122916
          -0.00179507
          0
          0
          -0.000435966
          -0.000338986
          -0.000176362
          0.000622583
          -0.000151152
          1.74884e-05
          0.000784897
          0.00037124
          -9.03108e-05
          0.000254877
          0.000349244
          -0.000427647
          0.000150143
          -0.00049098
          0
          0
          -0.000565327
          0.000114392
          -0.000597404
          1.49622e-05
          0.000693468
          -0.000259408
          0.000197105
          0.000640876
          -0.000105434
          0.000393779
          -0.000197279
          -0.000470388
          0.000389053
          -0.00105741
          0
          0
          -0.00101928
          -0.000222404
          -8.09611e-06
          -0.000488698
          1.37663e-05
          0.00147627
          -0.000623387
          2.60063e-05
          0.00161236
          -0.000426656
          -7.92627e-05
          8.36684e-05
          -5.85053e-05
          -0.00116573
          0
          0
          -0.000565883
          -8.51633e-05
          -1.66324e-05
          0.00100825
          0.000106815
          0.000291137
          0.00197849
          0.000563342
          0.000367746
          0.00181434
          0.000456025
          0.000250616
          0.000978736
          -0.00105081
          0
          0
          -0.00151185
          -0.000487478
          -0.000831177
          0.000167196
          0.000228201
          -0.000724735
          0.000896783
          0.00190966
          -0.000873176
          0.000607633
          0.00136828
          -0.000784159
          0.000131388
          -0.00200102
          0
          0
          0.000406943
          0.00115088
          0.000988684
          0.000722479
          0.00137424
          0.00395949
          0.000532032
          0.00210921
          0.0054833
          0.00072811
          0.00295621
          0.0038546
          0.00317975
          0.00187093
          0
          0
          -0.00342123
          -0.00184654
          -0.00251773
          -0.00104527
          0.000191045
          -0.00128703
          0.000602268
          -0.00149381
          -0.00123775
          0.00254225
          -0.00444835
          -0.0005092
          -1.84704e-05
          -0.00804533
          0
          0
          0.00218103
          0.00165314
          0.00210923
          0.00550116
          0.00241786
          0.00385028
          0.00537202
          0.00723868
          0.00480265
          0.00671429
          0.013894
          0.00502166
          0.0109104
          0.0115008
          0
          0
          -0.00717999
          -0.00298062
          -0.000497215
          -0.00414365
          -0.00280209
          -0.0014507
          -0.00308442
          -0.00244309
          -0.00142872
          -0.00681629
          -0.00717139
          -0.00216785
          -0.0184075
          -0.0208346
          0
          0
          0.00994259
          0.0144269
          0.00585961
          0.0100118
          0.0100647
          0.00936136
          0.0105226
          0.01056
          0.0111607
          0.0147199
          0.00988214
          0.0130133
          0.0223861
          0.010253
          0
          0
          -0.0214494
          -0.0302578
          -0.0286015
          -0.0308498
          -0.0339114
          -0.0340387
          -0.0364422
          -0.0370503
          -0.0372694
          -0.0372705
          -0.0319917
          -0.0360889
          -0.0297123
          -0.0141819
          0
          0.0256
          0.0256
          0.0256
          0.0256
          0.0256
          0.0256
          0.0256
          0.0256
          0.0256
          0.0256
          0.0256
          0.0256
          0.0256
          0.0256
          0.0256
          0.0256
        </DataArray>
        <DataArray type="Float32" Name="uy" format="ascii">
          0
          0
          0
          0
          0
          0
          0
          0
          0
          0
          0
          0
          0
          0
          0
          0
          0
          -0.000910871
          -0.00131641
          -0.00035172
          -0.00122765
          -4.65135e-05
          -0.00135022
          -0.000384681
          -0.00112767
          -0.000368515
          -0.00113996
          0.000178088
          -0.00124604
          0.00179826
          -0.000425052
          0
          0
          -0.000906482
          -0.00110485
          -0.000307934
          -0.00166693
          0.000143639
          -0.00124343
          -0.000596916
          -0.000814588
          -0.00037863
          -0.00124845
          0.000814068
          -0.00180062
          0.00122341
          -0.000424856
          0
          0
          -0.00089187
          -0.00151257
          0.000168126
          -0.00170594
          -0.000469728
          -0.000777229
          -0.000363357
          -0.000966546
          -0.000180694
          -0.000665711
          0.00100121
          -0.00231893
          0.00221676
          -0.000825357
          0
          0
          -0.000470016
          -0.00194668
          -0.000228487
          -0.00123975
          -0.000429245
          -0.00152897
          0.000285556
          -0.00117093
          0.00010649
          -0.000541489
          0.000731337
          -0.00193972
          0.00253648
          -0.00134817
          0
          0
          -0.000710385
          -0.00166228
          -0.000378062
          -0.00206812
          0.000542451
          -0.00152758
          -0.000998328
          0.000316325
          -0.000116094
          -0.00116984
          0.00209159
          -0.00265042
          0.00285864
          -0.000950587
          0
          0
          -0.000672149
          -0.00221289
          0.00035825
          -0.00245017
          -0.000421093
          -0.000690001
          -0.000324151
          -0.00139532
          0.000885438
          -0.000760774
          0.00200873
          -0.00305853
          0.00357035
          -0.000975085
          0
          0
          -0.000781153
          -0.00249991
          -0.000187011
          -0.00177677
          -0.00105683
          -0.00142415
          0.00102843
          -0.00193012
          -3.8118e-05
          0.000992883
          0.00147857
          -0.00305435
          0.00445944
          -0.000621906
          0
          0
          -0.000569972
          -0.00295073
          -0.000115745
          -0.00311341
          0.00096127
          -0.00234241
          -0.00153782
          0.00133758
          -0.000491183
          -0.00167104
          0.00506535
          -0.00527189
          0.00647717
          -0.00100001
          0
          0
          -0.00130701
          -0.00288508
          -0.000568732
          -0.00259251
          -0.00053551
          -0.00195609
          -0.00048854
          -0.0020033
          0.00272452
          -0.00172673
          0.00241454
          -0.001535
          0.00448571
          0.00193759
          0
          0
          -0.00100563
          -0.00394861
          0.00066834
          -0.00373167
          -0.00195028
          -0.00129748
          0.000338518
          -0.00250273
          -0.000819041
          0.00284906
          0.0020305
          -0.00744602
          0.0123085
          -0.000794965
          0
          0
          -0.00193445
          -0.0029994
          -0.00123608
          -0.00580163
          0.00114353
          -0.00334696
          -0.000783025
          -0.000152544
          -0.000635987
          -0.00220005
          0.00880162
          -0.00933575
          0.0106926
          0.00699608
          0
          0
          -0.00015474
          -0.00547395
          -0.00292447
          -0.00248546
          -0.00121985
          -0.00351401
          -0.00183731
          -0.00234053
          0.00140598
          -0.00317327
          0.000805981
          0.000149227
          0.00983941
          0.00236144
          0
          0
          -0.00782699
          -0.00667104
          0.00160263
          -0.00550758
          -0.000368057
          -0.0033839
          -0.000710644
          -0.00182908
          0.00176326
          0.00212744
          0.00402495
          -0.00598453
          0.0299795
          -0.00197728
          0
          0
          -0.00676457
          -0.00130703
          0.00184435
          -0.00623691
          0.00120722
          -0.00444553
          -0.000854007
          -0.00335359
          -0.000598188
          -0.00315658
          0.00475871
          -0.0124597
          0.0167602
          0.00182139
          0
          0
          0
          0
          0
          0
          0
          0
          0
          0
          0
          0
          0
          0
          0
          0
          0
        </DataArray>
        <DataArray type="Float32" Name="velocity" NumberOfComponents="3" format="ascii">
          0 0 0
          0 0 0
          0 0 0
          0 0 0
          0 0 0
          0 0 0
          0 0 0
          0 0 0
          0 0 0
          0 0 0
          0 0 0
          0 0 0
          0 0 0
          0 0 0
          0 0 0
          0 0 0
          0 0 0
          -0.00110309 -0.000910871 0
          -0.00098893 -0.00131641 0
          -0.000710549 -0.00035172 0
          -0.000325828 -0.00122765 0
          -0.000361438 -4.65135e-05 0
          -0.000311034 -0.00135022 0
          -0.000185279 -0.000384681 0
          -0.000312915 -0.00112767 0
          -0.000501918 -0.000368515 0
          -0.000633872 -0.00113996 0
          -0.000695289 0.000178088 0
          -0.00134025 -0.00124604 0
          -0.000962198 0.00179826 0
          -0.000930742 -0.000425052 0
          0 0 0
          0 0 0
          8.26108e-05 -0.000906482 0
          0.000429767 -0.00110485 0
          -0.000117344 -0.000307934 0
          0.000135886 -0.00166693 0
          0.000586008 0.000143639 0
          0.000328917 -0.00124343 0
          0.000297614 -0.000596916 0
          0.000345076 -0.000814588 0
          0.000138461 -0.00037863 0
          0.000278593 -0.00124845 0
          -0.000326707 0.000814068 0
          -0.000327542 -0.00180062 0
          0.000640039 0.00122341 0
          -0.000130865 -0.000424856 0
          0 0 0
          0 0 0
          -0.00120101 -0.00089187 0
          -0.000615283 -0.00151257 0
          -0.000216404 0.000168126 0
          -0.000651882 -0.00170594 0
          -0.000459732 -0.000469728 0
          0.000187827 -0.000777229 0
          -0.000406288 -0.000363357 0
          -0.000407113 -0.000966546 0
          -0.000103873 -0.000180694 0
          -0.000903647 -0.000665711 0
          -0.000836949 0.00100121 0
          -0.000650956 -0.00231893 0
          -0.00122916 0.00221676 0
          -0.00179507 -0.000825357 0
          0 0 0
          0 0 0
          -0.000435966 -0.000470016 0
          -0.000338986 -0.00194668 0
          -0.000176362 -0.000228487 0
          0.000622583 -0.00123975 0
          -0.000151152 -0.000429245 0
          1.74884e-05 -0.00152897 0
          0.000784897 0.000285556 0
          0.00037124 -0.00117093 0
          -9.03108e-05 0.00010649 0
          0.000254877 -0.000541489 0
          0.000349244 0.000731337 0
          -0.000427647 -0.00193972 0
          0.000150143 0.00253648 0
          -0.00049098 -0.00134817 0
          0 0 0
          0 0 0
          -0.000565327 -0.000710385 0
          0.000114392 -0.00166228 0
          -0.000597404 -0.000378062 0
          1.49622e-05 -0.00206812 0
          0.000693468 0.000542451 0
          -0.000259408 -0.00152758 0
          0.000197105 -0.000998328 0
          0.000640876 0.000316325 0
          -0.000105434 -0.000116094 0
          0.000393779 -0.00116984 0
          -0.000197279 0.00209159 0
          -0.000470388 -0.00265042 0
          0.000389053 0.00285864 0
          -0.00105741 -0.000950587 0
          0 0 0
          0 0 0
          -0.00101928 -0.000672149 0
          -0.000222404 -0.00221289 0
          -8.09611e-06 0.00035825 0
          -0.000488698 -0.00245017 0
          1.37663e-05 -0.000421093 0
          0.00147627 -0.000690001 0
          -0.000623387 -0.000324151 0
          2.60063e-05 -0.00139532 0
          0.00161236 0.000885438 0
          -0.000426656 -0.000760774 0
          -7.92627e-05 0.00200873 0
          8.36684e-05 -0.00305853 0
          -5.85053e-05 0.00357035 0
          -0.00116573 -0.000975085 0
          0 0 0
          0 0 0
          -0.000565883 -0.000781153 0
          -8.51633e-05 -0.00249991 0
          -1.66324e-05 -0.000187011 0
          0.00100825 -0.00177677 0
          0.000106815 -0.00105683 0
          0.000291137 -0.00142415 0
          0.00197849 0.00102843 0
          0.000563342 -0.00193012 0
          0.000367746 -3.8118e-05 0
          0.00181434 0.000992883 0
          0.000456025 0.00147857 0
          0.000250616 -0.00305435 0
          0.000978736 0.00445944 0
          -0.00105081 -0.000621906 0
          0 0 0
          0 0 0
          -0.00151185 -0.000569972 0
          -0.000487478 -0.00295073 0
          -0.000831177 -0.000115745 0
          0.000167196 -0.00311341 0
          0.000228201 0.00096127 0
          -0.000724735 -0.00234241 0
          0.000896783 -0.00153782 0
          0.00190966 0.00133758 0
          -0.000873176 -0.000491183 0
          0.000607633 -0.00167104 0
          0.00136828 0.00506535 0
          -0.000784159 -0.00527189 0
          0.000131388 0.00647717 0
          -0.00200102 -0.00100001 0
          0 0 0
          0 0 0
          0.000406943 -0.00130701 0
          0.00115088 -0.00288508 0
          0.000988684 -0.000568732 0
          0.000722479 -0.00259251 0
          0.00137424 -0.00053551 0
          0.00395949 -0.00195609 0
          0.000532032 -0.00048854 0
          0.00210921 -0.0020033 0
          0.0054833 0.00272452 0
          0.00072811 -0.00172673 0
          0.00295621 0.00241454 0
          0.0038546 -0.001535 0
          0.00317975 0.00448571 0
          0.00187093 0.00193759 0
          0 0 0
          0 0 0
          -0.00342123 -0.00100563 0
          -0.00184654 -0.00394861 0
          -0.00251773 0.00066834 0
          -0.00104527 -0.00373167 0
          0.000191045 -0.00195028 0
          -0.00128703 -0.00129748 0
          0.000602268 0.000338518 0
          -0.00149381 -0.00250273 0
          -0.00123775 -0.000819041 0
          0.00254225 0.00284906 0
          -0.00444835 0.0020305 0
          -0.0005092 -0.00744602 0
          -1.84704e-05 0.0123085 0
          -0.00804533 -0.000794965 0
          0 0 0
          0 0 0
          0.00218103 -0.00193445 0
          0.00165314 -0.0029994 0
          0.00210923 -0.00123608 0
          0.00550116 -0.00580163 0
          0.00241786 0.00114353 0
          0.00385028 -0.00334696 0
          0.00537202 -0.000783025 0
          0.00723868 -0.000152544 0
          0.00480265 -0.000635987 0
          0.00671429 -0.00220005 0
          0.013894 0.00880162 0
          0.00502166 -0.00933575 0
          0.0109104 0.0106926 0
          0.0115008 0.00699608 0
          0 0 0
          0 0 0
          -0.00717999 -0.00015474 0
          -0.00298062 -0.00547395 0
          -0.000497215 -0.00292447 0
          -0.00414365 -0.00248546 0
          -0.00280209 -0.00121985 0
          -0.0014507 -0.00351401 0
          -0.00308442 -0.00183731 0
          -0.00244309 -0.00234053 0
          -0.00142872 0.00140598 0
          -0.00681629 -0.00317327 0
          -0.00717139 0.000805981 0
          -0.00216785 0.000149227 0
          -0.0184075 0.00983941 0
          -0.0208346 0.00236144 0
          0 0 0
          0 0 0
          0.00994259 -0.00782699 0
          0.0144269 -0.00667104 0
          0.00585961 0.00160263 0
          0.0100118 -0.00550758 0
          0.0100647 -0.000368057 0
          0.00936136 -0.0033839 0
          0.0105226 -0.000710644 0
          0.01056 -0.00182908 0
          0.0111607 0.00176326 0
          0.0147199 0.00212744 0
          0.00988214 0.00402495 0
          0.0130133 -0.00598453 0
          0.0223861 0.0299795 0
          0.010253 -0.00197728 0
          0 0 0
          0 0 0
          -0.0214494 -0.00676457 0
          -0.0302578 -0.00130703 0
          -0.0286015 0.00184435 0
          -0.0308498 -0.00623691 0
          -0.0339114 0.00120722 0
          -0.0340387 -0.00444553 0
          -0.0364422 -0.000854007 0
          -0.0370503 -0.00335359 0
          -0.0372694 -0.000598188 0
          -0.0372705 -0.00315658 0
          -0.0319917 0.00475871 0
          -0.0360889 -0.0124597 0
          -0.0297123 0.0167602 0
          -0.0141819 0.00182139 0
          0 0 0
          0.0256 0 0
          0.0256 0 0
          0.0256 0 0
          0.0256 0 0
          0.0256 0 0
          0.0256 0 0
          0.0256 0 0
          0.0256 0 0
          0.0256 0 0
          0.0256 0 0
          0.0256 0 0
          0.0256 0 0
          0.0256 0 0
          0.0256 0 0
          0.0256 0 0
          0.0256 0 0
        </DataArray>
      </PointData>
      <CellData>
      </CellData>
    </Piece>
  </ImageData>
</VTKFile>
