<?xml version="1.0"?>
<VTKFile type="ImageData" version="0.1" byte_order="LittleEndian">
  <ImageData WholeExtent="0 15 0 15 0 0" Origin="0 0 0" Spacing="1 1 1">
    <Piece Extent="0 15 0 15 0 0">
      <PointData>
        <DataArray type="Float32" Name="rho" format="ascii">
          0.994692
          0.995857
          0.993586
          0.997042
          0.994328
          0.996044
          0.994533
          0.99497
          0.993982
          0.99436
          0.992889
          0.995151
          0.989547
          1.00032
          0.99012
          0.995012
          0.993663
          0.993932
          0.994303
          0.994474
          0.994705
          0.995103
          0.995453
          0.995819
          0.996265
          0.996627
          0.99702
          0.997292
          0.997679
          0.997643
          0.99835
          0.99719
          0.993767
          0.99427
          0.994302
          0.994545
          0.994825
          0.995107
          0.995496
          0.995908
          0.996223
          0.996685
          0.996962
          0.997336
          0.99759
          0.997758
          0.997722
          0.998068
          0.993397
          0.994259
          0.99442
          0.994594
          0.994908
          0.995204
          0.995514
          0.995931
          0.996321
          0.996611
          0.997047
          0.997316
          0.997507
          0.997779
          0.997937
          0.998188
          0.993544
          0.99436
          0.994541
          0.99471
          0.994916
          0.995309
          0.995635
          0.995887
          0.996376
          0.996707
          0.996992
          0.997302
          0.997601
          0.997723
          0.997814
          0.998342
          0.993277
          0.994498
          0.994568
          0.994845
          0.995054
          0.995278
          0.995707
          0.996084
          0.996265
          0.99679
          0.997021
          0.997331
          0.99756
          0.997737
          0.997866
          0.998477
          0.99312
          0.99456
          0.994735
          0.994813
          0.995217
          0.995408
          0.995655
          0.996165
          0.996458
          0.996616
          0.997205
          0.997291
          0.997586
          0.997756
          0.997875
          0.998705
          0.992945
          0.994742
          0.994768
          0.995041
          0.99508
          0.995628
          0.995859
          0.995892
          0.996679
          0.996853
          0.996877
          0.997581
          0.997512
          0.997806
          0.997773
          0.998879
          0.992596
          0.994605
          0.994951
          0.995006
          0.99538
          0.99545
          0.995881
          0.996423
          0.996172
          0.997077
          0.997222
          0.997102
          0.997885
          0.997569
          0.998106
          0.999131
          0.992663
          0.99509
          0.994827
          0.995165
          0.995428
          0.995536
          0.995968
          0.996269
          0.996789
          0.996446
          0.99754
          0.997486
          0.997343
          0.998266
          0.997387
          0.999213
          0.991259
          0.994493
          0.995133
          0.995236
          0.995138
          0.996045
          0.995895
          0.996138
          0.996801
          0.997215
          0.996554
          0.998117
          0.997477
          0.997225
          0.99869
          0.99972
          0.993312
          0.995495
          0.995001
          0.99492
          0.995911
          0.995399
          0.996131
          0.99658
          0.996319
          0.997153
          0.997826
          0.996142
          0.998674
          0.997835
          0.996587
          0.999471
          0.986717
          0.993951
          0.995011
          0.995836
          0.995079
          0.995906
          0.996195
          0.996247
          0.997035
          0.996743
          0.99725
          0.998327
          0.996637
          0.99855
          0.999055
          1.00011
          0.991281
          0.996314
          0.994859
          0.995065
          0.995535
          0.995956
          0.995972
          0.996642
          0.996611
          0.997498
          0.996781
          0.997929
          0.998185
          0.995953
          0.994369
          1.00207
          0.971508
          0.992947
          0.995847
          0.994679
          0.996113
          0.995282
          0.996578
          0.996212
          0.997166
          0.996717
          0.99799
          0.996491
          0.998478
          0.994722
          1.00496
          1.00414
          0.938038
          0.984762
          0.9915
          0.995355
          0.995208
          0.996054
          0.99605
          0.996692
          0.996632
          0.997306
          0.996848
          0.998285
          0.995943
          1.00175
          0.995625
          1.02368
        </DataArray>
        <DataArray type="Float32" Name="ux" format="ascii">
          0
          0
          0
          0
          0
          0
          0
          0
          0
          0
          0
          0
          0
          0
          0
          0
          0
          -0.000613077
          -0.000580639
          -0.000449376
          -0.000110135
          -0.000153678
          -3.6886e-05
          8.47601e-05
          5.67975e-05
          1.19613e-06
          -0.000159422
          1.25398e-05
          -0.000696342
          -0.000434084
          -0.000226547
          0
          0
          -0.000174674
          0.000224798
          -0.000221428
          -0.000109563
          0.000210423
          4.7877e-05
          9.81383e-05
          0.000178181
          4.10304e-05
          0.000288506
          -0.000254949
          -0.000167102
          0.000547683
          -0.000379443
          0
          0
          -0.000921557
          -0.000597244
          -0.000426255
          -0.000622267
          -0.000608069
          -0.000159259
          -0.000507638
          -0.000560844
          -0.000187612
          -0.0007679
          -0.000606753
          -0.000493036
          -0.000955446
          -0.00128205
          0
          0
          -0.000623822
          -0.000431642
          -0.000583507
          -0.000158218
          -0.000559698
          -0.000565153
          -0.00011545
          -0.000255997
          -0.000632033
          -0.000252057
          -0.000106303
          -0.000696211
          -5.06769e-05
          -0.000616148
          0
          0
          -0.000876078
          -0.000417837
          -0.00100785
          -0.000687859
          -0.000455204
          -0.00101541
          -0.000739137
          -0.00045372
          -0.000837703
          -0.000640454
          -0.000819764
          -0.000886803
          -0.000339681
          -0.00131591
          0
          0
          -0.00127624
          -0.00079338
          -0.000920453
          -0.00125678
          -0.00113296
          -0.000265304
          -0.00147511
          -0.001248
          -8.3485e-05
          -0.00122486
          -0.00105821
          -0.000777731
          -0.000650603
          -0.00147586
          0
          0
          -0.00112795
          -0.000734742
          -0.00113721
          -0.000765565
          -0.00124459
          -0.00121577
          -0.000408768
          -0.00123268
          -0.00140683
          -0.000200987
          -0.000901408
          -0.00117583
          -0.00017735
          -0.00157943
          0
          0
          -0.00205733
          -0.00146769
          -0.00209392
          -0.00143206
          -0.00158436
          -0.00252481
          -0.00139574
          -0.000657572
          -0.00240491
          -0.00167658
          -0.000483541
          -0.00168031
          -0.000992877
          -0.00226123
          0
          0
          -0.000812333
          -0.000574837
          -0.000951755
          -0.00134561
          -0.00159306
          7.86974e-06
          -0.00216279
          -0.00126779
          0.00118953
          -0.00198637
          -0.000853071
          0.000720801
          0.000324161
          -0.00114693
          0
          0
          -0.00428103
          -0.00298146
          -0.0037189
          -0.00388066
          -0.00277505
          -0.00356566
          -0.00253481
          -0.00383998
          -0.00340273
          -0.000340349
          -0.00470417
          -0.00294632
          -0.00060821
          -0.00556591
          0
          0
          0.00122374
          0.000509194
          -0.00123503
          0.00136928
          -0.000708607
          -0.000646767
          0.000512217
          0.00141724
          -0.000592422
          0.000899312
          0.00637687
          0.000388381
          0.00451263
          0.00516923
          0
          0
          -0.00886225
          -0.0080949
          -0.00563977
          -0.00817932
          -0.00782478
          -0.00647478
          -0.00786662
          -0.00712079
          -0.00514576
          -0.00918787
          -0.00811666
          -0.00206288
          -0.0128773
          -0.0167718
          0
          0
          0.0031511
          0.00701026
          0.00162244
          0.00322965
          0.00414535
          0.0028491
          0.00397096
          0.00399624
          0.00412313
          0.00784081
          0.00407445
          0.00631808
          0.0170493
          0.00711783
          0
          0
          -0.0138665
          -0.0164422
          -0.0143928
          -0.0131638
          -0.0146959
          -0.0137267
          -0.0149657
          -0.015908
          -0.0169665
          -0.0192587
          -0.0169894
          -0.0244049
          -0.0232837
          -0.013881
          0
          0.0256
          0.0256
          0.0256
          0.0256
          0.0256
          0.0256
          0.0256
          0.0256
          0.0256
          0.0256
          0.0256
          0.0256
          0.0256
          0.0256
          0.0256
          0.0256
        </DataArray>
        <DataArray type="Float32" Name="uy" format="ascii">
          0
          0
          0
          0
          0
          0
          0
          0
          0
          0
          0
          0
          0
          0
          0
          0
          0
          0.000471085
          -8.99399e-05
          0.000556794
          -0.000113837
          0.000374802
          -0.000438183
          -0.000214047
          -0.000728791
          -0.000658769
          -0.00122793
          -0.000926431
          -0.00170433
          -0.000187991
          -0.00173174
          0
          0
          0.000626072
          8.633e-05
          0.000750463
          -0.00040304
          0.000535613
          -0.00043453
          -0.000385669
          -0.000640251
          -0.000665679
          -0.00152483
          -0.000433051
          -0.00223995
          -0.000618473
          -0.00184926
          0
          0
          0.00081926
          -0.000220108
          0.00118558
          -0.000454166
          0.000263131
          -0.000259519
          -0.000199307
          -0.000810993
          -0.000657901
          -0.00119517
          -0.000292671
          -0.00286991
          0.000344537
          -0.00239183
          0
          0
          0.00119458
          -0.00031643
          0.001035
          -9.69836e-05
          0.000267992
          -0.000598065
          0.000101898
          -0.000912883
          -0.000640488
          -0.00116325
          -0.000657262
          -0.00255364
          0.000282415
          -0.00280466
          0
          0
          0.00128323
          -0.000205014
          0.00124754
          -0.00062924
          0.000963353
          -0.000572017
          -0.000670053
          -0.000156643
          -0.000583045
          -0.00188581
          0.000276491
          -0.00326171
          0.000571936
          -0.00286748
          0
          0
          0.00160043
          -0.000432123
          0.00178796
          -0.000702689
          0.000568965
          -0.000190894
          -0.000186985
          -0.00117846
          -0.000200935
          -0.00142218
          -0.000112283
          -0.00361924
          0.00114139
          -0.00333246
          0
          0
          0.00180831
          -0.000556589
          0.00178909
          -0.00019033
          0.000134118
          -0.000513149
          0.000701057
          -0.00144994
          -0.000974492
          -0.000597254
          -0.00012845
          -0.00414458
          0.00179981
          -0.00354156
          0
          0
          0.0024048
          -0.000838413
          0.0023926
          -0.00118342
          0.00159396
          -0.000872419
          -0.000906416
          0.000485468
          -0.000990464
          -0.00272858
          0.00192785
          -0.00540711
          0.00269057
          -0.00401771
          0
          0
          0.00225343
          -0.000415556
          0.00197018
          -0.000598131
          0.00111475
          -0.000736432
          -0.000293861
          -0.00169908
          0.000948645
          -0.0023642
          -0.000539575
          -0.00355078
          0.00242001
          -0.00342941
          0
          0
          0.00365033
          -0.00166366
          0.00349906
          -0.000623725
          1.1613e-06
          -0.000203895
          0.000464127
          -0.00213486
          -0.00157961
          0.000542446
          -0.000128659
          -0.00842462
          0.00751932
          -0.00548142
          0
          0
          0.0029435
          -0.000700406
          0.00357102
          -0.00267624
          0.0021949
          -0.00147491
          -0.000466136
          -0.00044543
          -0.00156609
          -0.00386813
          0.00474077
          -0.00946419
          0.00457981
          -0.000552764
          0
          0
          0.00523113
          -0.000425749
          0.00182007
          3.25871e-05
          0.00105856
          -0.00130438
          -0.000706168
          -0.00193497
          -0.000108947
          -0.00395477
          -0.00233103
          -0.0036996
          0.00632438
          -0.00534737
          0
          0
          0.00451233
          -0.00375926
          0.00558487
          -0.00218564
          0.00114917
          -0.00131157
          -0.000421598
          -0.00245502
          -0.000701523
          -0.00149997
          -0.000285632
          -0.0119666
          0.0212204
          -0.00682463
          0
          0
          0.0035168
          -0.000967678
          0.00560982
          -0.00334305
          0.00238595
          -0.00183294
          -0.000385149
          -0.00240549
          -0.00132581
          -0.00451209
          0.00234445
          -0.0150211
          0.0106052
          -0.00403038
          0
          0
          0
          0
          0
          0
          0
          0
          0
          0
          0
          0
          0
          0
          0
          0
          0
        </DataArray>
        <DataArray type="Float32" Name="velocity" NumberOfComponents="3" format="ascii">
          0 0 0
          0 0 0
          0 0 0
          0 0 0
          0 0 0
          0 0 0
          0 0 0
          0 0 0
          0 0 0
          0 0 0
          0 0 0
          0 0 0
          0 0 0
          0 0 0
          0 0 0
          0 0 0
          0 0 0
          -0.000613077 0.000471085 0
          -0.000580639 -8.99399e-05 0
          -0.000449376 0.000556794 0
          -0.000110135 -0.000113837 0
          -0.000153678 0.000374802 0
          -3.6886e-05 -0.000438183 0
          8.47601e-05 -0.000214047 0
          5.67975e-05 -0.000728791 0
          1.19613e-06 -0.000658769 0
          -0.000159422 -0.00122793 0
          1.25398e-05 -0.000926431 0
          -0.000696342 -0.00170433 0
          -0.000434084 -0.000187991 0
          -0.000226547 -0.00173174 0
          0 0 0
          0 0 0
          -0.000174674 0.000626072 0
          0.000224798 8.633e-05 0
          -0.000221428 0.000750463 0
          -0.000109563 -0.00040304 0
          0.000210423 0.000535613 0
          4.7877e-05 -0.00043453 0
          9.81383e-05 -0.000385669 0
          0.000178181 -0.000640251 0
          4.10304e-05 -0.000665679 0
          0.000288506 -0.00152483 0
          -0.000254949 -0.000433051 0
          -0.000167102 -0.00223995 0
          0.000547683 -0.000618473 0
          -0.000379443 -0.00184926 0
          0 0 0
          0 0 0
          -0.000921557 0.00081926 0
          -0.000597244 -0.000220108 0
          -0.000426255 0.00118558 0
          -0.000622267 -0.000454166 0
          -0.000608069 0.000263131 0
          -0.000159259 -0.000259519 0
          -0.000507638 -0.000199307 0
          -0.000560844 -0.000810993 0
          -0.000187612 -0.000657901 0
          -0.0007679 -0.00119517 0
          -0.000606753 -0.000292671 0
          -0.000493036 -0.00286991 0
          -0.000955446 0.000344537 0
          -0.00128205 -0.00239183 0
          0 0 0
          0 0 0
          -0.000623822 0.00119458 0
          -0.000431642 -0.00031643 0
          -0.000583507 0.001035 0
          -0.000158218 -9.69836e-05 0
          -0.000559698 0.000267992 0
          -0.000565153 -0.000598065 0
          -0.00011545 0.000101898 0
          -0.000255997 -0.000912883 0
          -0.000632033 -0.000640488 0
          -0.000252057 -0.00116325 0
          -0.000106303 -0.000657262 0
          -0.000696211 -0.00255364 0
          -5.06769e-05 0.000282415 0
          -0.000616148 -0.00280466 0
          0 0 0
          0 0 0
          -0.000876078 0.00128323 0
          -0.000417837 -0.000205014 0
          -0.00100785 0.00124754 0
          -0.000687859 -0.00062924 0
          -0.000455204 0.000963353 0
          -0.00101541 -0.000572017 0
          -0.000739137 -0.000670053 0
          -0.00045372 -0.000156643 0
          -0.000837703 -0.000583045 0
          -0.000640454 -0.00188581 0
          -0.000819764 0.000276491 0
          -0.000886803 -0.00326171 0
          -0.000339681 0.000571936 0
          -0.00131591 -0.00286748 0
          0 0 0
          0 0 0
          -0.00127624 0.00160043 0
          -0.00079338 -0.000432123 0
          -0.000920453 0.00178796 0
          -0.00125678 -0.000702689 0
          -0.00113296 0.000568965 0
          -0.000265304 -0.000190894 0
          -0.00147511 -0.000186985 0
          -0.001248 -0.00117846 0
          -8.3485e-05 -0.000200935 0
          -0.00122486 -0.00142218 0
          -0.00105821 -0.000112283 0
          -0.000777731 -0.00361924 0
          -0.000650603 0.00114139 0
          -0.00147586 -0.00333246 0
          0 0 0
          0 0 0
          -0.00112795 0.00180831 0
          -0.000734742 -0.000556589 0
          -0.00113721 0.00178909 0
          -0.000765565 -0.00019033 0
          -0.00124459 0.000134118 0
          -0.00121577 -0.000513149 0
          -0.000408768 0.000701057 0
          -0.00123268 -0.00144994 0
          -0.00140683 -0.000974492 0
          -0.000200987 -0.000597254 0
          -0.000901408 -0.00012845 0
          -0.00117583 -0.00414458 0
          -0.00017735 0.00179981 0
          -0.00157943 -0.00354156 0
          0 0 0
          0 0 0
          -0.00205733 0.0024048 0
          -0.00146769 -0.000838413 0
          -0.00209392 0.0023926 0
          -0.00143206 -0.00118342 0
          -0.00158436 0.00159396 0
          -0.00252481 -0.000872419 0
          -0.00139574 -0.000906416 0
          -0.000657572 0.000485468 0
          -0.00240491 -0.000990464 0
          -0.00167658 -0.00272858 0
          -0.000483541 0.00192785 0
          -0.00168031 -0.00540711 0
          -0.000992877 0.00269057 0
          -0.00226123 -0.00401771 0
          0 0 0
          0 0 0
          -0.000812333 0.00225343 0
          -0.000574837 -0.000415556 0
          -0.000951755 0.00197018 0
          -0.00134561 -0.000598131 0
          -0.00159306 0.00111475 0
          7.86974e-06 -0.000736432 0
          -0.00216279 -0.000293861 0
          -0.00126779 -0.00169908 0
          0.00118953 0.000948645 0
          -0.00198637 -0.0023642 0
          -0.000853071 -0.000539575 0
          0.000720801 -0.00355078 0
          0.000324161 0.00242001 0
          -0.00114693 -0.00342941 0
          0 0 0
          0 0 0
          -0.00428103 0.00365033 0
          -0.00298146 -0.00166366 0
          -0.0037189 0.00349906 0
          -0.00388066 -0.000623725 0
          -0.00277505 1.1613e-06 0
          -0.00356566 -0.000203895 0
          -0.00253481 0.000464127 0
          -0.00383998 -0.00213486 0
          -0.00340273 -0.00157961 0
          -0.000340349 0.000542446 0
          -0.00470417 -0.000128659 0
          -0.00294632 -0.00842462 0
          -0.00060821 0.00751932 0
          -0.00556591 -0.00548142 0
          0 0 0
          0 0 0
          0.00122374 0.0029435 0
          0.000509194 -0.000700406 0
          -0.00123503 0.00357102 0
          0.00136928 -0.00267624 0
          -0.000708607 0.0021949 0
          -0.000646767 -0.00147491 0
          0.000512217 -0.000466136 0
          0.00141724 -0.00044543 0
          -0.000592422 -0.00156609 0
          0.000899312 -0.00386813 0
          0.00637687 0.00474077 0
          0.000388381 -0.00946419 0
          0.00451263 0.00457981 0
          0.00516923 -0.000552764 0
          0 0 0
          0 0 0
          -0.00886225 0.00523113 0
          -0.0080949 -0.000425749 0
          -0.00563977 0.00182007 0
          -0.00817932 3.25871e-05 0
          -0.00782478 0.00105856 0
          -0.00647478 -0.00130438 0
          -0.00786662 -0.000706168 0
          -0.00712079 -0.00193497 0
          -0.00514576 -0.000108947 0
          -0.00918787 -0.00395477 0
          -0.00811666 -0.00233103 0
          -0.00206288 -0.0036996 0
          -0.0128773 0.00632438 0
          -0.0167718 -0.00534737 0
          0 0 0
          0 0 0
          0.0031511 0.00451233 0
          0.00701026 -0.00375926 0
          0.00162244 0.00558487 0
          0.00322965 -0.00218564 0
          0.00414535 0.00114917 0
          0.0028491 -0.00131157 0
          0.00397096 -0.000421598 0
          0.00399624 -0.00245502 0
          0.00412313 -0.000701523 0
          0.00784081 -0.00149997 0
          0.00407445 -0.000285632 0
          0.00631808 -0.0119666 0
          0.0170493 0.0212204 0
          0.00711783 -0.00682463 0
          0 0 0
          0 0 0
          -0.0138665 0.0035168 0
          -0.0164422 -0.000967678 0
          -0.0143928 0.00560982 0
          -0.0131638 -0.00334305 0
          -0.0146959 0.00238595 0
          -0.0137267 -0.00183294 0
          -0.0149657 -0.000385149 0
          -0.015908 -0.00240549 0
          -0.0169665 -0.00132581 0
          -0.0192587 -0.00451209 0
          -0.0169894 0.00234445 0
          -0.0244049 -0.0150211 0
          -0.0232837 0.0106052 0
          -0.013881 -0.00403038 0
          0 0 0
          0.0256 0 0
          0.0256 0 0
          0.0256 0 0
          0.0256 0 0
          0.0256 0 0
          0.0256 0 0
          0.0256 0 0
          0.0256 0 0
          0.0256 0 0
          0.0256 0 0
          0.0256 0 0
          0.0256 0 0
          0.0256 0 0
          0.0256 0 0
          0.0256 0 0
          0.0256 0 0
        </DataArray>
      </PointData>
      <CellData>
      </CellData>
    </Piece>
  </ImageData>
</VTKFile>
