<?xml version="1.0"?>
<VTKFile type="ImageData" version="0.1" byte_order="LittleEndian">
  <ImageData WholeExtent="0 15 0 15 0 0" Origin="0 0 0" Spacing="1 1 1">
    <Piece Extent="0 15 0 15 0 0">
      <PointData>
        <DataArray type="Float32" Name="rho" format="ascii">
          1.00691
          1.00881
          1.00453
          1.00674
          1.00333
          1.00291
          1.0007
          0.999543
          0.997511
          0.996364
          0.993643
          0.99376
          0.987652
          0.993691
          0.982516
          0.988773
          1.00455
          1.00274
          1.00234
          1.00146
          1.00095
          1.0002
          0.99976
          0.999158
          0.998723
          0.998084
          0.997761
          0.996913
          0.996774
          0.995758
          0.995811
          0.993122
          1.00392
          1.00258
          1.00207
          1.00149
          1.0009
          1.00037
          0.999786
          0.999282
          0.998745
          0.998264
          0.997616
          0.997161
          0.996603
          0.996107
          0.995692
          0.994514
          1.00324
          1.00223
          1.00184
          1.0015
          1.00096
          1.00044
          0.999883
          0.999347
          0.998843
          0.998286
          0.997743
          0.99719
          0.996543
          0.996396
          0.996024
          0.994958
          1.00273
          1.00187
          1.00167
          1.00132
          1.00099
          1.00045
          0.999912
          0.99937
          0.99886
          0.998357
          0.997804
          0.997147
          0.996873
          0.996423
          0.996317
          0.995554
          1.0019
          1.00149
          1.00137
          1.00118
          1.00086
          1.00043
          0.999905
          0.999394
          0.99889
          0.998405
          0.997842
          0.997386
          0.996967
          0.996738
          0.996667
          0.996199
          1.00106
          1.00105
          1.00101
          1.00092
          1.00066
          1.00028
          0.999853
          0.999393
          0.998919
          0.998387
          0.998005
          0.997559
          0.997215
          0.99712
          0.997074
          0.996966
          1.00012
          1.00056
          1.0006
          1.00053
          1.00033
          1.00008
          0.999721
          0.999297
          0.998913
          0.998505
          0.998042
          0.997852
          0.997678
          0.997525
          0.997595
          0.997899
          0.998925
          0.999958
          1.00014
          1.00007
          1.00004
          0.999788
          0.99956
          0.999271
          0.998843
          0.998619
          0.998377
          0.99809
          0.998294
          0.998139
          0.998341
          0.998881
          0.997839
          0.999518
          0.999465
          0.999688
          0.999571
          0.999433
          0.999348
          0.999152
          0.998944
          0.99859
          0.998776
          0.998768
          0.998606
          0.999126
          0.99878
          1.00014
          0.996017
          0.99854
          0.999025
          0.999025
          0.998894
          0.999183
          0.999039
          0.998957
          0.999089
          0.999137
          0.998818
          0.999647
          0.999609
          0.999338
          1.00038
          1.00131
          0.995591
          0.998431
          0.998327
          0.998073
          0.998741
          0.998492
          0.998811
          0.999059
          0.99908
          0.999556
          1.00005
          0.999374
          1.0011
          1.00071
          1.00002
          1.00275
          0.990649
          0.997173
          0.997296
          0.998341
          0.99777
          0.998293
          0.998659
          0.998957
          0.999511
          0.999675
          1.0004
          1.00145
          1.00013
          1.00247
          1.00256
          1.00403
          0.991468
          0.997437
          0.997374
          0.997078
          0.997619
          0.998182
          0.998354
          0.998962
          0.999512
          1.0004
          1.00038
          1.0016
          1.00282
          1.00098
          1.00107
          1.00777
          0.971335
          0.994365
          0.997351
          0.996457
          0.997864
          0.997459
          0.998562
          0.998865
          0.999811
          1.00014
          1.00182
          1.00096
          1.0035
          1.0013
          1.00935
          1.01064
          0.931895
          0.985522
          0.992955
          0.997447
          0.997124
          0.998284
          0.998308
          0.999244
          0.999498
          1.00065
          1.00048
          1.00243
          1.00054
          1.00674
          1.00179
          1.04207
        </DataArray>
        <DataArray type="Float32" Name="ux" format="ascii">
          0
          0
          0
          0
          0
          0
          0
          0
          0
          0
          0
          0
          0
          0
          0
          0
          0
          0.00096085
          0.00134563
          0.00182892
          0.00248626
          0.00271274
          0.00305257
          0.00321063
          0.00326888
          0.00331561
          0.00301177
          0.00313819
          0.00221988
          0.00201598
          0.00171895
          0
          0
          0.000675756
          0.00145691
          0.00176196
          0.00207851
          0.00247446
          0.00264208
          0.00281268
          0.00288908
          0.00284224
          0.00289541
          0.00240828
          0.00229719
          0.00216149
          0.000742529
          0
          0
          0.000450126
          0.000993533
          0.00143415
          0.00176202
          0.00194629
          0.00222774
          0.00231993
          0.00236251
          0.00240841
          0.0020643
          0.0020514
          0.00168966
          0.00100323
          0.000331004
          0
          0
          0.000427501
          0.000905233
          0.0010852
          0.00146863
          0.0016238
          0.00178604
          0.0019302
          0.00197947
          0.00189231
          0.00185452
          0.00177168
          0.00113507
          0.00113051
          0.000511679
          0
          0
          9.08845e-05
          0.000614495
          0.000712555
          0.000984878
          0.00115285
          0.00127816
          0.00136164
          0.00138326
          0.00136626
          0.00127468
          0.00105172
          0.000722539
          0.000672928
          -0.00010555
          0
          0
          -0.000201484
          0.00028009
          0.000344836
          0.00055877
          0.000641657
          0.00079748
          0.000794591
          0.000820771
          0.000877656
          0.00064819
          0.000588217
          0.000321873
          0.000276176
          -0.000449875
          0
          0
          -0.000471145
          5.38057e-05
          -8.53273e-05
          0.000128912
          0.000187346
          0.00023306
          0.000278
          0.000222521
          0.000208964
          0.000284797
          0.000120713
          -0.000235107
          0.000117156
          -0.000724173
          0
          0
          -0.00100633
          -0.000533664
          -0.00069835
          -0.000396595
          -0.000436365
          -0.000504737
          -0.000430095
          -0.000378517
          -0.000587904
          -0.00056264
          -0.000359574
          -0.000906424
          -0.000700009
          -0.00150919
          0
          0
          -0.00123071
          -0.000657288
          -0.000848288
          -0.000745717
          -0.000899031
          -0.000742702
          -0.000919841
          -0.000853197
          -0.000598746
          -0.00112626
          -0.000862294
          -0.000657148
          -0.000502964
          -0.00169789
          0
          0
          -0.00265246
          -0.00170684
          -0.00206425
          -0.00221431
          -0.00194288
          -0.00202987
          -0.00202283
          -0.00227014
          -0.00211105
          -0.00165805
          -0.00280031
          -0.00243594
          -0.00141974
          -0.00368752
          0
          0
          -0.000898532
          -0.000643098
          -0.00193921
          -0.000976634
          -0.00140616
          -0.00159661
          -0.00133955
          -0.00112243
          -0.00166474
          -0.00115469
          0.000370772
          -0.00210608
          0.000194498
          -2.29567e-05
          0
          0
          -0.00689455
          -0.00640215
          -0.00469564
          -0.00484169
          -0.00471335
          -0.00395227
          -0.00432566
          -0.00439035
          -0.00397422
          -0.00603906
          -0.00588023
          -0.00413737
          -0.00914652
          -0.0116533
          0
          0
          -0.00144269
          0.000987308
          -0.00154694
          -0.00185104
          -0.00124285
          -0.00195663
          -0.00176761
          -0.00163883
          -0.00140233
          0.000708407
          -0.000895374
          0.00131932
          0.00894079
          0.00250467
          0
          0
          -0.0116253
          -0.0102865
          -0.00844182
          -0.00555502
          -0.00572205
          -0.00464701
          -0.00457023
          -0.00476919
          -0.0051788
          -0.0070604
          -0.00586809
          -0.0119047
          -0.0136098
          -0.0131703
          0
          0.0256
          0.0256
          0.0256
          0.0256
          0.0256
          0.0256
          0.0256
          0.0256
          0.0256
          0.0256
          0.0256
          0.0256
          0.0256
          0.0256
          0.0256
          0.0256
        </DataArray>
        <DataArray type="Float32" Name="uy" format="ascii">
          0
          0
          0
          0
          0
          0
          0
          0
          0
          0
          0
          0
          0
          0
          0
          0
          0
          0.0017556
          0.00140299
          0.00132447
          0.00120052
          0.000771806
          0.000520356
          4.81769e-05
          -0.000203333
          -0.000758191
          -0.000942041
          -0.00175728
          -0.00173976
          -0.0022254
          -0.00322274
          0
          0
          0.00198563
          0.00184582
          0.00154482
          0.00132596
          0.000911908
          0.00060439
          8.16406e-05
          -0.000208893
          -0.00080401
          -0.0010922
          -0.00170177
          -0.00192827
          -0.00271684
          -0.00285024
          0
          0
          0.00237766
          0.00180539
          0.00199598
          0.0013571
          0.00109707
          0.00065492
          0.000219638
          -0.000253028
          -0.000729894
          -0.00118496
          -0.00149051
          -0.00256095
          -0.00190295
          -0.00314276
          0
          0
          0.00266459
          0.00211345
          0.00205754
          0.00161479
          0.00119792
          0.000749032
          0.000265579
          -0.0002345
          -0.000750545
          -0.00121292
          -0.00181536
          -0.00224876
          -0.00226941
          -0.00324756
          0
          0
          0.00292661
          0.00230806
          0.0023238
          0.00164486
          0.00142113
          0.000810414
          0.000311782
          -0.00020228
          -0.000713592
          -0.00148896
          -0.00155664
          -0.00255795
          -0.0023803
          -0.00329513
          0
          0
          0.00326352
          0.00238884
          0.0025886
          0.00174288
          0.00153276
          0.000872891
          0.000387871
          -0.00027238
          -0.000732669
          -0.00150319
          -0.00164869
          -0.00290706
          -0.00219658
          -0.00366494
          0
          0
          0.00359317
          0.00241027
          0.00288021
          0.00180631
          0.00162237
          0.000899927
          0.000464168
          -0.000290831
          -0.000814044
          -0.00152517
          -0.0015972
          -0.00328859
          -0.00203874
          -0.00391128
          0
          0
          0.00400697
          0.00245811
          0.00322769
          0.00169245
          0.00185244
          0.000892043
          0.000382866
          -0.000211284
          -0.00077626
          -0.00199135
          -0.00118178
          -0.00373552
          -0.0018634
          -0.0043759
          0
          0
          0.00439976
          0.00248827
          0.00329596
          0.0018026
          0.00189655
          0.00084278
          0.000410868
          -0.000446422
          -0.000540023
          -0.00195107
          -0.00166608
          -0.00352228
          -0.00157882
          -0.00479845
          0
          0
          0.00546024
          0.0017549
          0.00411971
          0.00167922
          0.00173269
          0.000794226
          0.000481883
          -0.000534118
          -0.000994562
          -0.00148199
          -0.00126297
          -0.00565753
          0.000605679
          -0.0064044
          0
          0
          0.00537456
          0.00217399
          0.00459973
          0.000947495
          0.00210884
          0.000539971
          0.00028378
          -0.000335348
          -0.000848726
          -0.00271204
          0.00042162
          -0.00604681
          -0.000814818
          -0.00497548
          0
          0
          0.00743214
          0.00224292
          0.00384134
          0.00159276
          0.00166688
          0.000418336
          0.000167567
          -0.000712436
          -0.000543324
          -0.00240121
          -0.00202225
          -0.00414445
          0.000855065
          -0.00967655
          0
          0
          0.00893917
          -0.000919243
          0.00571377
          0.000156649
          0.00150214
          0.000143597
          0.000409715
          -0.000878504
          -0.000412902
          -0.00165248
          6.17781e-06
          -0.0096912
          0.00912808
          -0.0110679
          0
          0
          0.00903211
          0.000343525
          0.00584606
          -0.000156101
          0.00189788
          7.93044e-05
          0.000114286
          -0.00114747
          -0.00116482
          -0.00337161
          0.000373117
          -0.0117409
          0.00388347
          -0.0104038
          0
          0
          0
          0
          0
          0
          0
          0
          0
          0
          0
          0
          0
          0
          0
          0
          0
        </DataArray>
        <DataArray type="Float32" Name="velocity" NumberOfComponents="3" format="ascii">
          0 0 0
          0 0 0
          0 0 0
          0 0 0
          0 0 0
          0 0 0
          0 0 0
          0 0 0
          0 0 0
          0 0 0
          0 0 0
          0 0 0
          0 0 0
          0 0 0
          0 0 0
          0 0 0
          0 0 0
          0.00096085 0.0017556 0
          0.00134563 0.00140299 0
          0.00182892 0.00132447 0
          0.00248626 0.00120052 0
          0.00271274 0.000771806 0
          0.00305257 0.000520356 0
          0.00321063 4.81769e-05 0
          0.00326888 -0.000203333 0
          0.00331561 -0.000758191 0
          0.00301177 -0.000942041 0
          0.00313819 -0.00175728 0
          0.00221988 -0.00173976 0
          0.00201598 -0.0022254 0
          0.00171895 -0.00322274 0
          0 0 0
          0 0 0
          0.000675756 0.00198563 0
          0.00145691 0.00184582 0
          0.00176196 0.00154482 0
          0.00207851 0.00132596 0
          0.00247446 0.000911908 0
          0.00264208 0.00060439 0
          0.00281268 8.16406e-05 0
          0.00288908 -0.000208893 0
          0.00284224 -0.00080401 0
          0.00289541 -0.0010922 0
          0.00240828 -0.00170177 0
          0.00229719 -0.00192827 0
          0.00216149 -0.00271684 0
          0.000742529 -0.00285024 0
          0 0 0
          0 0 0
          0.000450126 0.00237766 0
          0.000993533 0.00180539 0
          0.00143415 0.00199598 0
          0.00176202 0.0013571 0
          0.00194629 0.00109707 0
          0.00222774 0.00065492 0
          0.00231993 0.000219638 0
          0.00236251 -0.000253028 0
          0.00240841 -0.000729894 0
          0.0020643 -0.00118496 0
          0.0020514 -0.00149051 0
          0.00168966 -0.00256095 0
          0.00100323 -0.00190295 0
          0.000331004 -0.00314276 0
          0 0 0
          0 0 0
          0.000427501 0.00266459 0
          0.000905233 0.00211345 0
          0.0010852 0.00205754 0
          0.00146863 0.00161479 0
          0.0016238 0.00119792 0
          0.00178604 0.000749032 0
          0.0019302 0.000265579 0
          0.00197947 -0.0002345 0
          0.00189231 -0.000750545 0
          0.00185452 -0.00121292 0
          0.00177168 -0.00181536 0
          0.00113507 -0.00224876 0
          0.00113051 -0.00226941 0
          0.000511679 -0.00324756 0
          0 0 0
          0 0 0
          9.08845e-05 0.00292661 0
          0.000614495 0.00230806 0
          0.000712555 0.0023238 0
          0.000984878 0.00164486 0
          0.00115285 0.00142113 0
          0.00127816 0.000810414 0
          0.00136164 0.000311782 0
          0.00138326 -0.00020228 0
          0.00136626 -0.000713592 0
          0.00127468 -0.00148896 0
          0.00105172 -0.00155664 0
          0.000722539 -0.00255795 0
          0.000672928 -0.0023803 0
          -0.00010555 -0.00329513 0
          0 0 0
          0 0 0
          -0.000201484 0.00326352 0
          0.00028009 0.00238884 0
          0.000344836 0.0025886 0
          0.00055877 0.00174288 0
          0.000641657 0.00153276 0
          0.00079748 0.000872891 0
          0.000794591 0.000387871 0
          0.000820771 -0.00027238 0
          0.000877656 -0.000732669 0
          0.00064819 -0.00150319 0
          0.000588217 -0.00164869 0
          0.000321873 -0.00290706 0
          0.000276176 -0.00219658 0
          -0.000449875 -0.00366494 0
          0 0 0
          0 0 0
          -0.000471145 0.00359317 0
          5.38057e-05 0.00241027 0
          -8.53273e-05 0.00288021 0
          0.000128912 0.00180631 0
          0.000187346 0.00162237 0
          0.00023306 0.000899927 0
          0.000278 0.000464168 0
          0.000222521 -0.000290831 0
          0.000208964 -0.000814044 0
          0.000284797 -0.00152517 0
          0.000120713 -0.0015972 0
          -0.000235107 -0.00328859 0
          0.000117156 -0.00203874 0
          -0.000724173 -0.00391128 0
          0 0 0
          0 0 0
          -0.00100633 0.00400697 0
          -0.000533664 0.00245811 0
          -0.00069835 0.00322769 0
          -0.000396595 0.00169245 0
          -0.000436365 0.00185244 0
          -0.000504737 0.000892043 0
          -0.000430095 0.000382866 0
          -0.000378517 -0.000211284 0
          -0.000587904 -0.00077626 0
          -0.00056264 -0.00199135 0
          -0.000359574 -0.00118178 0
          -0.000906424 -0.00373552 0
          -0.000700009 -0.0018634 0
          -0.00150919 -0.0043759 0
          0 0 0
          0 0 0
          -0.00123071 0.00439976 0
          -0.000657288 0.00248827 0
          -0.000848288 0.00329596 0
          -0.000745717 0.0018026 0
          -0.000899031 0.00189655 0
          -0.000742702 0.00084278 0
          -0.000919841 0.000410868 0
          -0.000853197 -0.000446422 0
          -0.000598746 -0.000540023 0
          -0.00112626 -0.00195107 0
          -0.000862294 -0.00166608 0
          -0.000657148 -0.00352228 0
          -0.000502964 -0.00157882 0
          -0.00169789 -0.00479845 0
          0 0 0
          0 0 0
          -0.00265246 0.00546024 0
          -0.00170684 0.0017549 0
          -0.00206425 0.00411971 0
          -0.00221431 0.00167922 0
          -0.00194288 0.00173269 0
          -0.00202987 0.000794226 0
          -0.00202283 0.000481883 0
          -0.00227014 -0.000534118 0
          -0.00211105 -0.000994562 0
          -0.00165805 -0.00148199 0
          -0.00280031 -0.00126297 0
          -0.00243594 -0.00565753 0
          -0.00141974 0.000605679 0
          -0.00368752 -0.0064044 0
          0 0 0
          0 0 0
          -0.000898532 0.00537456 0
          -0.000643098 0.00217399 0
          -0.00193921 0.00459973 0
          -0.000976634 0.000947495 0
          -0.00140616 0.00210884 0
          -0.00159661 0.000539971 0
          -0.00133955 0.00028378 0
          -0.00112243 -0.000335348 0
          -0.00166474 -0.000848726 0
          -0.00115469 -0.00271204 0
          0.000370772 0.00042162 0
          -0.00210608 -0.00604681 0
          0.000194498 -0.000814818 0
          -2.29567e-05 -0.00497548 0
          0 0 0
          0 0 0
          -0.00689455 0.00743214 0
          -0.00640215 0.00224292 0
          -0.00469564 0.00384134 0
          -0.00484169 0.00159276 0
          -0.00471335 0.00166688 0
          -0.00395227 0.000418336 0
          -0.00432566 0.000167567 0
          -0.00439035 -0.000712436 0
          -0.00397422 -0.000543324 0
          -0.00603906 -0.00240121 0
          -0.00588023 -0.00202225 0
          -0.00413737 -0.00414445 0
          -0.00914652 0.000855065 0
          -0.0116533 -0.00967655 0
          0 0 0
          0 0 0
          -0.00144269 0.00893917 0
          0.000987308 -0.000919243 0
          -0.00154694 0.00571377 0
          -0.00185104 0.000156649 0
          -0.00124285 0.00150214 0
          -0.00195663 0.000143597 0
          -0.00176761 0.000409715 0
          -0.00163883 -0.000878504 0
          -0.00140233 -0.000412902 0
          0.000708407 -0.00165248 0
          -0.000895374 6.17781e-06 0
          0.00131932 -0.0096912 0
          0.00894079 0.00912808 0
          0.00250467 -0.0110679 0
          0 0 0
          0 0 0
          -0.0116253 0.00903211 0
          -0.0102865 0.000343525 0
          -0.00844182 0.00584606 0
          -0.00555502 -0.000156101 0
          -0.00572205 0.00189788 0
          -0.00464701 7.93044e-05 0
          -0.00457023 0.000114286 0
          -0.00476919 -0.00114747 0
          -0.0051788 -0.00116482 0
          -0.0070604 -0.00337161 0
          -0.00586809 0.000373117 0
          -0.0119047 -0.0117409 0
          -0.0136098 0.00388347 0
          -0.0131703 -0.0104038 0
          0 0 0
          0.0256 0 0
          0.0256 0 0
          0.0256 0 0
          0.0256 0 0
          0.0256 0 0
          0.0256 0 0
          0.0256 0 0
          0.0256 0 0
          0.0256 0 0
          0.0256 0 0
          0.0256 0 0
          0.0256 0 0
          0.0256 0 0
          0.0256 0 0
          0.0256 0 0
          0.0256 0 0
        </DataArray>
      </PointData>
      <CellData>
      </CellData>
    </Piece>
  </ImageData>
</VTKFile>
