<?xml version="1.0"?>
<VTKFile type="ImageData" version="0.1" byte_order="LittleEndian">
  <ImageData WholeExtent="0 15 0 15 0 0" Origin="0 0 0" Spacing="1 1 1">
    <Piece Extent="0 15 0 15 0 0">
      <PointData>
        <DataArray type="Float32" Name="rho" format="ascii">
          0.989675
          0.987069
          0.988637
          0.990132
          0.988458
          0.99029
          0.988319
          0.989585
          0.988464
          0.989766
          0.989015
          0.99216
          0.987485
          0.999929
          0.990309
          0.992369
          0.991276
          0.992962
          0.993077
          0.993056
          0.992683
          0.992805
          0.992474
          0.992352
          0.992174
          0.992034
          0.991801
          0.991823
          0.9916
          0.991481
          0.992004
          0.991696
          0.992367
          0.993267
          0.992993
          0.993019
          0.99294
          0.992601
          0.992619
          0.992348
          0.992153
          0.992028
          0.991842
          0.991671
          0.991656
          0.991517
          0.991277
          0.992061
          0.991806
          0.9932
          0.99319
          0.992944
          0.992957
          0.992779
          0.992455
          0.992444
          0.992146
          0.991967
          0.991842
          0.991646
          0.991529
          0.991437
          0.991483
          0.992091
          0.992205
          0.993217
          0.993236
          0.993132
          0.992813
          0.992848
          0.992595
          0.992226
          0.992285
          0.991885
          0.991753
          0.991645
          0.99143
          0.991404
          0.991238
          0.991906
          0.992119
          0.993362
          0.99317
          0.9932
          0.993016
          0.992618
          0.99269
          0.992402
          0.991939
          0.992072
          0.991623
          0.991516
          0.991403
          0.991219
          0.991188
          0.99184
          0.991936
          0.993413
          0.993375
          0.993055
          0.993097
          0.992878
          0.992395
          0.992481
          0.992085
          0.991693
          0.991833
          0.991261
          0.991346
          0.9911
          0.99115
          0.99168
          0.992178
          0.993543
          0.993373
          0.99333
          0.992929
          0.992975
          0.992627
          0.991986
          0.992409
          0.991669
          0.991317
          0.991667
          0.990873
          0.991248
          0.990542
          0.991704
          0.991561
          0.993512
          0.993526
          0.99338
          0.993227
          0.992613
          0.992677
          0.992572
          0.991449
          0.992177
          0.991291
          0.990889
          0.991401
          0.990196
          0.991399
          0.9912
          0.99333
          0.99391
          0.993639
          0.993451
          0.993131
          0.992995
          0.992566
          0.99221
          0.992224
          0.990934
          0.991961
          0.990772
          0.990553
          0.991453
          0.989413
          0.991284
          0.989363
          0.993853
          0.993903
          0.993415
          0.993268
          0.993298
          0.992382
          0.992123
          0.992
          0.991743
          0.990389
          0.991901
          0.989984
          0.989803
          0.991637
          0.990339
          0.995681
          0.994788
          0.993607
          0.993909
          0.993757
          0.992502
          0.992811
          0.992301
          0.991341
          0.991655
          0.99156
          0.988805
          0.991967
          0.989769
          0.987234
          0.991437
          0.98454
          0.992916
          0.995113
          0.994279
          0.992954
          0.99343
          0.992598
          0.991961
          0.991903
          0.990947
          0.990778
          0.991002
          0.989402
          0.990171
          0.99235
          0.98896
          0.993938
          0.997111
          0.994219
          0.993882
          0.993717
          0.993222
          0.992287
          0.992188
          0.991225
          0.991205
          0.989702
          0.990955
          0.990209
          0.987325
          0.984371
          0.99167
          0.97521
          0.994632
          0.994084
          0.994813
          0.994153
          0.992383
          0.99331
          0.991306
          0.991841
          0.990275
          0.990967
          0.989262
          0.989848
          0.986424
          0.997066
          0.996256
          0.943733
          0.986808
          0.991781
          0.993929
          0.993858
          0.993056
          0.992583
          0.992
          0.991151
          0.990948
          0.989959
          0.990713
          0.987788
          0.993024
          0.986468
          1.00003
        </DataArray>
        <DataArray type="Float32" Name="ux" format="ascii">
          0
          0
          0
          0
          0
          0
          0
          0
          0
          0
          0
          0
          0
          0
          0
          0
          0
          -0.00135483
          -0.00131202
          -0.00110139
          -0.000822329
          -0.000906988
          -0.000931906
          -0.000849022
          -0.00100223
          -0.00119533
          -0.00127081
          -0.00130929
          -0.00183725
          -0.00134636
          -0.00122251
          0
          0
          -1.16136e-05
          0.000187892
          -0.000429931
          -0.000204337
          0.00018272
          -0.00012917
          -0.000197628
          -0.000172869
          -0.000374191
          -0.00022046
          -0.000769565
          -0.000702388
          0.000433221
          -0.000171945
          0
          0
          -0.00135855
          -0.000826106
          -0.000462131
          -0.000998449
          -0.000817573
          -0.000205565
          -0.000869355
          -0.000818089
          -0.000571329
          -0.0013739
          -0.00124807
          -0.000993624
          -0.00147918
          -0.0019921
          0
          0
          -0.000476634
          -0.000492792
          -0.000340039
          0.000487362
          -0.000420643
          -0.000221969
          0.000568518
          5.78605e-05
          -0.000369354
          -2.92857e-05
          0.000101231
          -0.000640036
          -3.7373e-05
          -0.000574593
          0
          0
          -0.00058345
          8.85964e-05
          -0.000693479
          -9.74656e-05
          0.000650822
          -0.000374527
          7.59791e-05
          0.000502673
          -0.000300805
          0.000348943
          -0.000348994
          -0.000613384
          0.000447663
          -0.00104605
          0
          0
          -0.0010035
          -0.000211318
          4.41196e-05
          -0.000464382
          6.22722e-05
          0.00157115
          -0.000748895
          9.06835e-05
          0.00166255
          -0.000574244
          -9.83973e-05
          2.76068e-05
          -7.94523e-05
          -0.00116123
          0
          0
          -0.000497027
          -4.47711e-05
          0.000118977
          0.00135941
          0.000252529
          0.000413428
          0.00234175
          0.000780138
          0.000627401
          0.00202193
          0.000564509
          0.000458093
          0.0010861
          -0.000946558
          0
          0
          -0.00134163
          -0.000185439
          -0.000469531
          0.000461309
          0.00055119
          -0.000255466
          0.00127426
          0.00223347
          -0.000832082
          0.000958373
          0.00140666
          -0.000930377
          4.37033e-05
          -0.00231799
          0
          0
          0.000698478
          0.00168891
          0.00144725
          0.00125191
          0.00229022
          0.00502047
          0.00120648
          0.00292045
          0.0064055
          0.00135989
          0.00410171
          0.00458252
          0.00419102
          0.00317493
          0
          0
          -0.00294349
          -0.00151948
          -0.00215617
          0.000187606
          0.00104421
          -0.000762088
          0.00125989
          -0.00110376
          -0.0010383
          0.00268339
          -0.00514239
          -0.000284653
          -0.000694365
          -0.00950732
          0
          0
          0.00197887
          0.00207759
          0.00383034
          0.00709885
          0.00364126
          0.00551541
          0.00693203
          0.00903811
          0.00627616
          0.00813524
          0.015585
          0.00594493
          0.0127345
          0.0134608
          0
          0
          -0.00533494
          0.000828182
          0.00259915
          -0.00162714
          -0.000339863
          0.000693134
          -0.00161294
          -0.00159716
          -0.0014699
          -0.00757078
          -0.00860085
          -0.00389769
          -0.021355
          -0.0226513
          0
          0
          0.0121946
          0.015969
          0.00590491
          0.0110517
          0.0105859
          0.0104976
          0.0118127
          0.0121943
          0.013328
          0.0173446
          0.0123351
          0.0157504
          0.0252762
          0.0121755
          0
          0
          -0.0266497
          -0.0392414
          -0.0379606
          -0.0419645
          -0.0453315
          -0.0458416
          -0.0480692
          -0.0477479
          -0.046979
          -0.0453308
          -0.0385181
          -0.0407184
          -0.0330777
          -0.0154892
          0
          0.0256
          0.0256
          0.0256
          0.0256
          0.0256
          0.0256
          0.0256
          0.0256
          0.0256
          0.0256
          0.0256
          0.0256
          0.0256
          0.0256
          0.0256
          0.0256
        </DataArray>
        <DataArray type="Float32" Name="uy" format="ascii">
          0
          0
          0
          0
          0
          0
          0
          0
          0
          0
          0
          0
          0
          0
          0
          0
          0
          -0.0016743
          -0.00193835
          -0.00093369
          -0.00176498
          -0.000424832
          -0.00175913
          -0.000541713
          -0.00129284
          -0.000276494
          -0.00103295
          0.000602915
          -0.000948514
          0.00248455
          0.000165615
          0
          0
          -0.00168775
          -0.0017125
          -0.000908843
          -0.00220876
          -0.000208938
          -0.00161577
          -0.000736525
          -0.00091433
          -0.000308353
          -0.00108332
          0.00122705
          -0.00152118
          0.00183365
          0.000170504
          0
          0
          -0.00169068
          -0.00209636
          -0.0004513
          -0.00222273
          -0.000863444
          -0.0010594
          -0.000510621
          -0.00104547
          -2.53043e-05
          -0.000489916
          0.00143844
          -0.00204083
          0.00277469
          -0.000175199
          0
          0
          -0.001289
          -0.00256723
          -0.000906541
          -0.00174687
          -0.000794137
          -0.00188043
          0.000223318
          -0.00127412
          0.000359051
          -0.000344763
          0.00117035
          -0.00162622
          0.00315317
          -0.000728503
          0
          0
          -0.00163134
          -0.00225477
          -0.00112956
          -0.00262812
          0.000207347
          -0.00190787
          -0.00109016
          0.000408562
          2.64732e-06
          -0.000873738
          0.00263086
          -0.00233158
          0.00348211
          -0.000195569
          0
          0
          -0.00171964
          -0.00290065
          -0.00039475
          -0.00307071
          -0.000926333
          -0.000917843
          -0.000398385
          -0.00143742
          0.00122747
          -0.000571551
          0.0027541
          -0.00281095
          0.00421192
          -5.05695e-05
          0
          0
          -0.00196846
          -0.00323345
          -0.00115466
          -0.00245445
          -0.00146539
          -0.00175763
          0.00100124
          -0.00202971
          0.000381074
          0.00149785
          0.00198821
          -0.00247262
          0.00505039
          0.000564218
          0
          0
          -0.00202609
          -0.00376283
          -0.00135444
          -0.00379354
          0.000585602
          -0.00284606
          -0.00168838
          0.0015798
          -0.000220164
          -0.00116556
          0.0060578
          -0.00502799
          0.00764329
          -1.37547e-05
          0
          0
          -0.00306513
          -0.00400623
          -0.00164045
          -0.00339044
          -0.00134268
          -0.00229201
          -0.000387498
          -0.00191615
          0.00338227
          -0.00144401
          0.00364009
          -0.000664277
          0.00495635
          0.00389766
          0
          0
          -0.00351655
          -0.00476369
          -0.000859654
          -0.0050772
          -0.00264506
          -0.00161314
          0.00044366
          -0.00234585
          -0.000340924
          0.00361752
          0.00287707
          -0.0067088
          0.013455
          0.000893146
          0
          0
          -0.00441641
          -0.0042873
          -0.0037257
          -0.00690061
          0.000814458
          -0.00377197
          -0.000564445
          0.000290905
          0.000232649
          -0.00119768
          0.0103632
          -0.00889377
          0.0126795
          0.00934563
          0
          0
          -0.00385534
          -0.00855242
          -0.00502987
          -0.00342018
          -0.00199447
          -0.00386637
          -0.00168009
          -0.0017688
          0.0026837
          -0.0022092
          0.00225158
          0.0014478
          0.0106378
          0.00441423
          0
          0
          -0.0151943
          -0.00797846
          -0.000280455
          -0.00634787
          -0.000580638
          -0.00347305
          0.000370452
          -0.000541025
          0.00370462
          0.00414826
          0.00618719
          -0.00404017
          0.0318538
          -0.00038006
          0
          0
          -0.0115799
          -0.0013893
          -6.22727e-05
          -0.00718225
          0.000607804
          -0.00546769
          -0.00075477
          -0.00358057
          -0.000111371
          -0.00261058
          0.00591147
          -0.0116718
          0.0180583
          0.00428013
          0
          0
          0
          0
          0
          0
          0
          0
          0
          0
          0
          0
          0
          0
          0
          0
          0
        </DataArray>
        <DataArray type="Float32" Name="velocity" NumberOfComponents="3" format="ascii">
          0 0 0
          0 0 0
          0 0 0
          0 0 0
          0 0 0
          0 0 0
          0 0 0
          0 0 0
          0 0 0
          0 0 0
          0 0 0
          0 0 0
          0 0 0
          0 0 0
          0 0 0
          0 0 0
          0 0 0
          -0.00135483 -0.0016743 0
          -0.00131202 -0.00193835 0
          -0.00110139 -0.00093369 0
          -0.000822329 -0.00176498 0
          -0.000906988 -0.000424832 0
          -0.000931906 -0.00175913 0
          -0.000849022 -0.000541713 0
          -0.00100223 -0.00129284 0
          -0.00119533 -0.000276494 0
          -0.00127081 -0.00103295 0
          -0.00130929 0.000602915 0
          -0.00183725 -0.000948514 0
          -0.00134636 0.00248455 0
          -0.00122251 0.000165615 0
          0 0 0
          0 0 0
          -1.16136e-05 -0.00168775 0
          0.000187892 -0.0017125 0
          -0.000429931 -0.000908843 0
          -0.000204337 -0.00220876 0
          0.00018272 -0.000208938 0
          -0.00012917 -0.00161577 0
          -0.000197628 -0.000736525 0
          -0.000172869 -0.00091433 0
          -0.000374191 -0.000308353 0
          -0.00022046 -0.00108332 0
          -0.000769565 0.00122705 0
          -0.000702388 -0.00152118 0
          0.000433221 0.00183365 0
          -0.000171945 0.000170504 0
          0 0 0
          0 0 0
          -0.00135855 -0.00169068 0
          -0.000826106 -0.00209636 0
          -0.000462131 -0.0004513 0
          -0.000998449 -0.00222273 0
          -0.000817573 -0.000863444 0
          -0.000205565 -0.0010594 0
          -0.000869355 -0.000510621 0
          -0.000818089 -0.00104547 0
          -0.000571329 -2.53043e-05 0
          -0.0013739 -0.000489916 0
          -0.00124807 0.00143844 0
          -0.000993624 -0.00204083 0
          -0.00147918 0.00277469 0
          -0.0019921 -0.000175199 0
          0 0 0
          0 0 0
          -0.000476634 -0.001289 0
          -0.000492792 -0.00256723 0
          -0.000340039 -0.000906541 0
          0.000487362 -0.00174687 0
          -0.000420643 -0.000794137 0
          -0.000221969 -0.00188043 0
          0.000568518 0.000223318 0
          5.78605e-05 -0.00127412 0
          -0.000369354 0.000359051 0
          -2.92857e-05 -0.000344763 0
          0.000101231 0.00117035 0
          -0.000640036 -0.00162622 0
          -3.7373e-05 0.00315317 0
          -0.000574593 -0.000728503 0
          0 0 0
          0 0 0
          -0.00058345 -0.00163134 0
          8.85964e-05 -0.00225477 0
          -0.000693479 -0.00112956 0
          -9.74656e-05 -0.00262812 0
          0.000650822 0.000207347 0
          -0.000374527 -0.00190787 0
          7.59791e-05 -0.00109016 0
          0.000502673 0.000408562 0
          -0.000300805 2.64732e-06 0
          0.000348943 -0.000873738 0
          -0.000348994 0.00263086 0
          -0.000613384 -0.00233158 0
          0.000447663 0.00348211 0
          -0.00104605 -0.000195569 0
          0 0 0
          0 0 0
          -0.0010035 -0.00171964 0
          -0.000211318 -0.00290065 0
          4.41196e-05 -0.00039475 0
          -0.000464382 -0.00307071 0
          6.22722e-05 -0.000926333 0
          0.00157115 -0.000917843 0
          -0.000748895 -0.000398385 0
          9.06835e-05 -0.00143742 0
          0.00166255 0.00122747 0
          -0.000574244 -0.000571551 0
          -9.83973e-05 0.0027541 0
          2.76068e-05 -0.00281095 0
          -7.94523e-05 0.00421192 0
          -0.00116123 -5.05695e-05 0
          0 0 0
          0 0 0
          -0.000497027 -0.00196846 0
          -4.47711e-05 -0.00323345 0
          0.000118977 -0.00115466 0
          0.00135941 -0.00245445 0
          0.000252529 -0.00146539 0
          0.000413428 -0.00175763 0
          0.00234175 0.00100124 0
          0.000780138 -0.00202971 0
          0.000627401 0.000381074 0
          0.00202193 0.00149785 0
          0.000564509 0.00198821 0
          0.000458093 -0.00247262 0
          0.0010861 0.00505039 0
          -0.000946558 0.000564218 0
          0 0 0
          0 0 0
          -0.00134163 -0.00202609 0
          -0.000185439 -0.00376283 0
          -0.000469531 -0.00135444 0
          0.000461309 -0.00379354 0
          0.00055119 0.000585602 0
          -0.000255466 -0.00284606 0
          0.00127426 -0.00168838 0
          0.00223347 0.0015798 0
          -0.000832082 -0.000220164 0
          0.000958373 -0.00116556 0
          0.00140666 0.0060578 0
          -0.000930377 -0.00502799 0
          4.37033e-05 0.00764329 0
          -0.00231799 -1.37547e-05 0
          0 0 0
          0 0 0
          0.000698478 -0.00306513 0
          0.00168891 -0.00400623 0
          0.00144725 -0.00164045 0
          0.00125191 -0.00339044 0
          0.00229022 -0.00134268 0
          0.00502047 -0.00229201 0
          0.00120648 -0.000387498 0
          0.00292045 -0.00191615 0
          0.0064055 0.00338227 0
          0.00135989 -0.00144401 0
          0.00410171 0.00364009 0
          0.00458252 -0.000664277 0
          0.00419102 0.00495635 0
          0.00317493 0.00389766 0
          0 0 0
          0 0 0
          -0.00294349 -0.00351655 0
          -0.00151948 -0.00476369 0
          -0.00215617 -0.000859654 0
          0.000187606 -0.0050772 0
          0.00104421 -0.00264506 0
          -0.000762088 -0.00161314 0
          0.00125989 0.00044366 0
          -0.00110376 -0.00234585 0
          -0.0010383 -0.000340924 0
          0.00268339 0.00361752 0
          -0.00514239 0.00287707 0
          -0.000284653 -0.0067088 0
          -0.000694365 0.013455 0
          -0.00950732 0.000893146 0
          0 0 0
          0 0 0
          0.00197887 -0.00441641 0
          0.00207759 -0.0042873 0
          0.00383034 -0.0037257 0
          0.00709885 -0.00690061 0
          0.00364126 0.000814458 0
          0.00551541 -0.00377197 0
          0.00693203 -0.000564445 0
          0.00903811 0.000290905 0
          0.00627616 0.000232649 0
          0.00813524 -0.00119768 0
          0.015585 0.0103632 0
          0.00594493 -0.00889377 0
          0.0127345 0.0126795 0
          0.0134608 0.00934563 0
          0 0 0
          0 0 0
          -0.00533494 -0.00385534 0
          0.000828182 -0.00855242 0
          0.00259915 -0.00502987 0
          -0.00162714 -0.00342018 0
          -0.000339863 -0.00199447 0
          0.000693134 -0.00386637 0
          -0.00161294 -0.00168009 0
          -0.00159716 -0.0017688 0
          -0.0014699 0.0026837 0
          -0.00757078 -0.0022092 0
          -0.00860085 0.00225158 0
          -0.00389769 0.0014478 0
          -0.021355 0.0106378 0
          -0.0226513 0.00441423 0
          0 0 0
          0 0 0
          0.0121946 -0.0151943 0
          0.015969 -0.00797846 0
          0.00590491 -0.000280455 0
          0.0110517 -0.00634787 0
          0.0105859 -0.000580638 0
          0.0104976 -0.00347305 0
          0.0118127 0.000370452 0
          0.0121943 -0.000541025 0
          0.013328 0.00370462 0
          0.0173446 0.00414826 0
          0.0123351 0.00618719 0
          0.0157504 -0.00404017 0
          0.0252762 0.0318538 0
          0.0121755 -0.00038006 0
          0 0 0
          0 0 0
          -0.0266497 -0.0115799 0
          -0.0392414 -0.0013893 0
          -0.0379606 -6.22727e-05 0
          -0.0419645 -0.00718225 0
          -0.0453315 0.000607804 0
          -0.0458416 -0.00546769 0
          -0.0480692 -0.00075477 0
          -0.0477479 -0.00358057 0
          -0.046979 -0.000111371 0
          -0.0453308 -0.00261058 0
          -0.0385181 0.00591147 0
          -0.0407184 -0.0116718 0
          -0.0330777 0.0180583 0
          -0.0154892 0.00428013 0
          0 0 0
          0.0256 0 0
          0.0256 0 0
          0.0256 0 0
          0.0256 0 0
          0.0256 0 0
          0.0256 0 0
          0.0256 0 0
          0.0256 0 0
          0.0256 0 0
          0.0256 0 0
          0.0256 0 0
          0.0256 0 0
          0.0256 0 0
          0.0256 0 0
          0.0256 0 0
          0.0256 0 0
        </DataArray>
      </PointData>
      <CellData>
      </CellData>
    </Piece>
  </ImageData>
</VTKFile>
