<?xml version="1.0"?>
<VTKFile type="ImageData" version="0.1" byte_order="LittleEndian">
  <ImageData WholeExtent="0 15 0 15 0 0" Origin="0 0 0" Spacing="1 1 1">
    <Piece Extent="0 15 0 15 0 0">
      <PointData>
        <DataArray type="Float32" Name="rho" format="ascii">
          0.996833
          0.999277
          0.996381
          0.999914
          0.997061
          0.998361
          0.996805
          0.996874
          0.995667
          0.995675
          0.993874
          0.995699
          0.989812
          0.999474
          0.989219
          0.99531
          0.996234
          0.997106
          0.997341
          0.997264
          0.997342
          0.997348
          0.997439
          0.997436
          0.997566
          0.997563
          0.997729
          0.997627
          0.997919
          0.997629
          0.998234
          0.99751
          0.996201
          0.997292
          0.997229
          0.997273
          0.997294
          0.997354
          0.997387
          0.997504
          0.997499
          0.997667
          0.997631
          0.997803
          0.997815
          0.99784
          0.997723
          0.998494
          0.995808
          0.99711
          0.997142
          0.997192
          0.997247
          0.9973
          0.997364
          0.997458
          0.997585
          0.99759
          0.997772
          0.997831
          0.997809
          0.997984
          0.998002
          0.998657
          0.995698
          0.996972
          0.997045
          0.997058
          0.99713
          0.997247
          0.997344
          0.997392
          0.997579
          0.997707
          0.997776
          0.997857
          0.998054
          0.998004
          0.998057
          0.998981
          0.995191
          0.996805
          0.996822
          0.996947
          0.997014
          0.997103
          0.997276
          0.997462
          0.997494
          0.997779
          0.99785
          0.998026
          0.998103
          0.998206
          0.998261
          0.999302
          0.994747
          0.996545
          0.99665
          0.996693
          0.996923
          0.996994
          0.997148
          0.99744
          0.997625
          0.997661
          0.998088
          0.998114
          0.998281
          0.99841
          0.998476
          0.999723
          0.994212
          0.996364
          0.996382
          0.996574
          0.996596
          0.997007
          0.99715
          0.997189
          0.99776
          0.997936
          0.997905
          0.998468
          0.998457
          0.99864
          0.998654
          1.00017
          0.993497
          0.9959
          0.99621
          0.996253
          0.996603
          0.996685
          0.997047
          0.997511
          0.997387
          0.998125
          0.998334
          0.998246
          0.998925
          0.998757
          0.99916
          1.00069
          0.993034
          0.995959
          0.995756
          0.996125
          0.996401
          0.996533
          0.997002
          0.997356
          0.997847
          0.997692
          0.998691
          0.998781
          0.998684
          0.99953
          0.998901
          1.00114
          0.991543
          0.995075
          0.995709
          0.995911
          0.995868
          0.996815
          0.996817
          0.997145
          0.997911
          0.99841
          0.997958
          0.999472
          0.999125
          0.998925
          1.00025
          1.00189
          0.992536
          0.995594
          0.995346
          0.995258
          0.996388
          0.996078
          0.996886
          0.997509
          0.997477
          0.99842
          0.999245
          0.997939
          1.00031
          0.999799
          0.998778
          1.00202
          0.986717
          0.994089
          0.994873
          0.995954
          0.995428
          0.996331
          0.996867
          0.997174
          0.998108
          0.998091
          0.998849
          1.00014
          0.998558
          1.00071
          1.00112
          1.00293
          0.990114
          0.995635
          0.994717
          0.994964
          0.995616
          0.996311
          0.996553
          0.997442
          0.997756
          0.998887
          0.998489
          0.999779
          1.00052
          0.998443
          0.997382
          1.00544
          0.969995
          0.992227
          0.995459
          0.994364
          0.996086
          0.995578
          0.997028
          0.997077
          0.998255
          0.998178
          0.99982
          0.998542
          1.0009
          0.997494
          1.00729
          1.0075
          0.934555
          0.983381
          0.990531
          0.994866
          0.994881
          0.996196
          0.996457
          0.997539
          0.997845
          0.998988
          0.99884
          1.00072
          0.998673
          1.00482
          0.99904
          1.03129
        </DataArray>
        <DataArray type="Float32" Name="ux" format="ascii">
          0
          0
          0
          0
          0
          0
          0
          0
          0
          0
          0
          0
          0
          0
          0
          0
          0
          -0.000790875
          -0.00109472
          -0.00123995
          -0.00111417
          -0.00129216
          -0.00122664
          -0.00116937
          -0.00113787
          -0.0010517
          -0.00111395
          -0.000672799
          -0.00118268
          -0.000722224
          -0.000167854
          0
          0
          -0.000686864
          -0.000556969
          -0.00110978
          -0.00121745
          -0.00110166
          -0.00128058
          -0.00122508
          -0.00113531
          -0.00117704
          -0.000803554
          -0.00113334
          -0.000815724
          -1.7362e-05
          -0.000744001
          0
          0
          -0.0010987
          -0.00113939
          -0.0012686
          -0.00150826
          -0.0016809
          -0.00145331
          -0.00169135
          -0.00170713
          -0.00134671
          -0.00169855
          -0.00133667
          -0.00111893
          -0.00128468
          -0.00128631
          0
          0
          -0.000954514
          -0.000984646
          -0.00142871
          -0.00131244
          -0.00166034
          -0.00177124
          -0.00153794
          -0.00157309
          -0.00177604
          -0.00136357
          -0.00108553
          -0.00142418
          -0.000607871
          -0.000871744
          0
          0
          -0.00122509
          -0.00107662
          -0.00173292
          -0.00170285
          -0.00175435
          -0.00213368
          -0.00199899
          -0.00183613
          -0.0019912
          -0.00178473
          -0.00172784
          -0.00160667
          -0.000950395
          -0.00153649
          0
          0
          -0.00151594
          -0.00136846
          -0.0017774
          -0.00212113
          -0.00225897
          -0.00181254
          -0.00256742
          -0.00243816
          -0.00162425
          -0.00226944
          -0.00200104
          -0.00162881
          -0.00120832
          -0.00171529
          0
          0
          -0.0015133
          -0.0013204
          -0.00202536
          -0.00198038
          -0.00236486
          -0.00248276
          -0.00208221
          -0.00257527
          -0.00261008
          -0.00167287
          -0.00199677
          -0.00208936
          -0.000952631
          -0.00188807
          0
          0
          -0.00227787
          -0.00202903
          -0.00280122
          -0.00247461
          -0.00279805
          -0.00352393
          -0.00283359
          -0.00234909
          -0.00349328
          -0.00294629
          -0.0018217
          -0.00255922
          -0.00181443
          -0.00260561
          0
          0
          -0.00149654
          -0.00142357
          -0.00201967
          -0.00249734
          -0.00297627
          -0.00198111
          -0.00346019
          -0.0029108
          -0.00114274
          -0.00331135
          -0.00236782
          -0.000874443
          -0.000825011
          -0.00201608
          0
          0
          -0.00429901
          -0.00335765
          -0.00428525
          -0.00481497
          -0.00409663
          -0.00469715
          -0.00413425
          -0.00503134
          -0.00456288
          -0.00224509
          -0.00537311
          -0.00406913
          -0.00163132
          -0.00526254
          0
          0
          0.000195345
          -0.000492668
          -0.00257317
          -0.000607923
          -0.00223318
          -0.00251707
          -0.00161438
          -0.00100508
          -0.00268084
          -0.00142102
          0.00288156
          -0.00189064
          0.00173018
          0.00256713
          0
          0
          -0.00867781
          -0.00857682
          -0.00654197
          -0.00857924
          -0.00864955
          -0.00746722
          -0.00879281
          -0.00838987
          -0.00668936
          -0.0102023
          -0.00905372
          -0.00367176
          -0.011972
          -0.0153258
          0
          0
          0.000891608
          0.00403887
          -0.000561734
          1.75018e-05
          0.000883024
          -0.000451691
          0.000423672
          0.000537998
          0.000758595
          0.00441313
          0.00138763
          0.00379404
          0.0146093
          0.00568102
          0
          0
          -0.0127306
          -0.014105
          -0.0123332
          -0.0103863
          -0.0115466
          -0.0104401
          -0.0111153
          -0.0117473
          -0.0124843
          -0.0148204
          -0.0127478
          -0.0200697
          -0.0204593
          -0.0139257
          0
          0.0256
          0.0256
          0.0256
          0.0256
          0.0256
          0.0256
          0.0256
          0.0256
          0.0256
          0.0256
          0.0256
          0.0256
          0.0256
          0.0256
          0.0256
          0.0256
        </DataArray>
        <DataArray type="Float32" Name="uy" format="ascii">
          0
          0
          0
          0
          0
          0
          0
          0
          0
          0
          0
          0
          0
          0
          0
          0
          0
          0.000409587
          -1.53107e-05
          0.000418076
          4.52036e-05
          0.000202194
          -0.000230241
          -0.000259252
          -0.000561264
          -0.000705856
          -0.00101572
          -0.00114144
          -0.00147884
          -0.00073273
          -0.0018983
          0
          0
          0.000536976
          9.42184e-05
          0.00055766
          -0.000198845
          0.000283401
          -0.000301889
          -0.00040559
          -0.00058348
          -0.000733843
          -0.00134372
          -0.000775816
          -0.0019419
          -0.00113186
          -0.00194266
          0
          0
          0.000750316
          -0.000204298
          0.000913565
          -0.000310363
          0.000165716
          -0.000279452
          -0.000293433
          -0.000748378
          -0.000746486
          -0.00120908
          -0.000614269
          -0.002629
          -0.000199728
          -0.00245555
          0
          0
          0.00102521
          -0.000154239
          0.000813267
          -5.12749e-05
          0.00013723
          -0.00043371
          -0.000179969
          -0.000818054
          -0.00081932
          -0.00120591
          -0.00102063
          -0.00230882
          -0.000456233
          -0.00276041
          0
          0
          0.00121511
          -0.000117427
          0.00111778
          -0.000424197
          0.000625848
          -0.000447546
          -0.000613374
          -0.000422316
          -0.000735241
          -0.00186118
          -0.000290207
          -0.00297404
          -0.000248076
          -0.00292557
          0
          0
          0.0015951
          -0.000209166
          0.00152097
          -0.000375631
          0.000456233
          -0.00025871
          -0.000297288
          -0.00105806
          -0.000564808
          -0.00154626
          -0.000655666
          -0.00335429
          0.0001865
          -0.00345831
          0
          0
          0.00191699
          -0.000262736
          0.00174628
          -5.71972e-05
          0.000246335
          -0.000390239
          0.000248268
          -0.00121978
          -0.00113598
          -0.00106567
          -0.000606518
          -0.00395539
          0.000662731
          -0.00379676
          0
          0
          0.00257234
          -0.000407503
          0.0024112
          -0.000747652
          0.0012973
          -0.000554121
          -0.000738996
          -3.15387e-05
          -0.00105642
          -0.00270429
          0.000843963
          -0.00493234
          0.00125296
          -0.00443971
          0
          0
          0.00271706
          -2.32252e-05
          0.00216604
          -0.000187588
          0.00111448
          -0.000481062
          -0.000290017
          -0.00145498
          0.000254384
          -0.00238219
          -0.00111556
          -0.00373138
          0.00130682
          -0.0044902
          0
          0
          0.00421491
          -0.00112019
          0.00366207
          -5.39715e-05
          0.000382171
          -7.09056e-05
          0.00032243
          -0.0017725
          -0.00160507
          -0.000304447
          -0.00065173
          -0.00784797
          0.00528673
          -0.00645258
          0
          0
          0.00379581
          -0.000230674
          0.00417605
          -0.0017307
          0.00211045
          -0.000891896
          -0.000370511
          -0.000521243
          -0.00147101
          -0.00383187
          0.00333086
          -0.00858258
          0.00257547
          -0.00306915
          0
          0
          0.00605304
          0.000354405
          0.00266335
          0.000501888
          0.00131993
          -0.000694043
          -0.000379973
          -0.00150574
          -0.00026602
          -0.00354523
          -0.00249496
          -0.00415056
          0.00445996
          -0.00814765
          0
          0
          0.00676678
          -0.00306924
          0.00607793
          -0.00125747
          0.00138135
          -0.000657371
          3.52215e-05
          -0.00198862
          -0.000721352
          -0.00183177
          -0.000530196
          -0.0124571
          0.0168225
          -0.00902849
          0
          0
          0.00610961
          -0.000787801
          0.00622578
          -0.0022765
          0.00239579
          -0.00105478
          -0.000169628
          -0.0019775
          -0.00137954
          -0.00447619
          0.00173327
          -0.0149633
          0.0079417
          -0.00652101
          0
          0
          0
          0
          0
          0
          0
          0
          0
          0
          0
          0
          0
          0
          0
          0
          0
        </DataArray>
        <DataArray type="Float32" Name="velocity" NumberOfComponents="3" format="ascii">
          0 0 0
          0 0 0
          0 0 0
          0 0 0
          0 0 0
          0 0 0
          0 0 0
          0 0 0
          0 0 0
          0 0 0
          0 0 0
          0 0 0
          0 0 0
          0 0 0
          0 0 0
          0 0 0
          0 0 0
          -0.000790875 0.000409587 0
          -0.00109472 -1.53107e-05 0
          -0.00123995 0.000418076 0
          -0.00111417 4.52036e-05 0
          -0.00129216 0.000202194 0
          -0.00122664 -0.000230241 0
          -0.00116937 -0.000259252 0
          -0.00113787 -0.000561264 0
          -0.0010517 -0.000705856 0
          -0.00111395 -0.00101572 0
          -0.000672799 -0.00114144 0
          -0.00118268 -0.00147884 0
          -0.000722224 -0.00073273 0
          -0.000167854 -0.0018983 0
          0 0 0
          0 0 0
          -0.000686864 0.000536976 0
          -0.000556969 9.42184e-05 0
          -0.00110978 0.00055766 0
          -0.00121745 -0.000198845 0
          -0.00110166 0.000283401 0
          -0.00128058 -0.000301889 0
          -0.00122508 -0.00040559 0
          -0.00113531 -0.00058348 0
          -0.00117704 -0.000733843 0
          -0.000803554 -0.00134372 0
          -0.00113334 -0.000775816 0
          -0.000815724 -0.0019419 0
          -1.7362e-05 -0.00113186 0
          -0.000744001 -0.00194266 0
          0 0 0
          0 0 0
          -0.0010987 0.000750316 0
          -0.00113939 -0.000204298 0
          -0.0012686 0.000913565 0
          -0.00150826 -0.000310363 0
          -0.0016809 0.000165716 0
          -0.00145331 -0.000279452 0
          -0.00169135 -0.000293433 0
          -0.00170713 -0.000748378 0
          -0.00134671 -0.000746486 0
          -0.00169855 -0.00120908 0
          -0.00133667 -0.000614269 0
          -0.00111893 -0.002629 0
          -0.00128468 -0.000199728 0
          -0.00128631 -0.00245555 0
          0 0 0
          0 0 0
          -0.000954514 0.00102521 0
          -0.000984646 -0.000154239 0
          -0.00142871 0.000813267 0
          -0.00131244 -5.12749e-05 0
          -0.00166034 0.00013723 0
          -0.00177124 -0.00043371 0
          -0.00153794 -0.000179969 0
          -0.00157309 -0.000818054 0
          -0.00177604 -0.00081932 0
          -0.00136357 -0.00120591 0
          -0.00108553 -0.00102063 0
          -0.00142418 -0.00230882 0
          -0.000607871 -0.000456233 0
          -0.000871744 -0.00276041 0
          0 0 0
          0 0 0
          -0.00122509 0.00121511 0
          -0.00107662 -0.000117427 0
          -0.00173292 0.00111778 0
          -0.00170285 -0.000424197 0
          -0.00175435 0.000625848 0
          -0.00213368 -0.000447546 0
          -0.00199899 -0.000613374 0
          -0.00183613 -0.000422316 0
          -0.0019912 -0.000735241 0
          -0.00178473 -0.00186118 0
          -0.00172784 -0.000290207 0
          -0.00160667 -0.00297404 0
          -0.000950395 -0.000248076 0
          -0.00153649 -0.00292557 0
          0 0 0
          0 0 0
          -0.00151594 0.0015951 0
          -0.00136846 -0.000209166 0
          -0.0017774 0.00152097 0
          -0.00212113 -0.000375631 0
          -0.00225897 0.000456233 0
          -0.00181254 -0.00025871 0
          -0.00256742 -0.000297288 0
          -0.00243816 -0.00105806 0
          -0.00162425 -0.000564808 0
          -0.00226944 -0.00154626 0
          -0.00200104 -0.000655666 0
          -0.00162881 -0.00335429 0
          -0.00120832 0.0001865 0
          -0.00171529 -0.00345831 0
          0 0 0
          0 0 0
          -0.0015133 0.00191699 0
          -0.0013204 -0.000262736 0
          -0.00202536 0.00174628 0
          -0.00198038 -5.71972e-05 0
          -0.00236486 0.000246335 0
          -0.00248276 -0.000390239 0
          -0.00208221 0.000248268 0
          -0.00257527 -0.00121978 0
          -0.00261008 -0.00113598 0
          -0.00167287 -0.00106567 0
          -0.00199677 -0.000606518 0
          -0.00208936 -0.00395539 0
          -0.000952631 0.000662731 0
          -0.00188807 -0.00379676 0
          0 0 0
          0 0 0
          -0.00227787 0.00257234 0
          -0.00202903 -0.000407503 0
          -0.00280122 0.0024112 0
          -0.00247461 -0.000747652 0
          -0.00279805 0.0012973 0
          -0.00352393 -0.000554121 0
          -0.00283359 -0.000738996 0
          -0.00234909 -3.15387e-05 0
          -0.00349328 -0.00105642 0
          -0.00294629 -0.00270429 0
          -0.0018217 0.000843963 0
          -0.00255922 -0.00493234 0
          -0.00181443 0.00125296 0
          -0.00260561 -0.00443971 0
          0 0 0
          0 0 0
          -0.00149654 0.00271706 0
          -0.00142357 -2.32252e-05 0
          -0.00201967 0.00216604 0
          -0.00249734 -0.000187588 0
          -0.00297627 0.00111448 0
          -0.00198111 -0.000481062 0
          -0.00346019 -0.000290017 0
          -0.0029108 -0.00145498 0
          -0.00114274 0.000254384 0
          -0.00331135 -0.00238219 0
          -0.00236782 -0.00111556 0
          -0.000874443 -0.00373138 0
          -0.000825011 0.00130682 0
          -0.00201608 -0.0044902 0
          0 0 0
          0 0 0
          -0.00429901 0.00421491 0
          -0.00335765 -0.00112019 0
          -0.00428525 0.00366207 0
          -0.00481497 -5.39715e-05 0
          -0.00409663 0.000382171 0
          -0.00469715 -7.09056e-05 0
          -0.00413425 0.00032243 0
          -0.00503134 -0.0017725 0
          -0.00456288 -0.00160507 0
          -0.00224509 -0.000304447 0
          -0.00537311 -0.00065173 0
          -0.00406913 -0.00784797 0
          -0.00163132 0.00528673 0
          -0.00526254 -0.00645258 0
          0 0 0
          0 0 0
          0.000195345 0.00379581 0
          -0.000492668 -0.000230674 0
          -0.00257317 0.00417605 0
          -0.000607923 -0.0017307 0
          -0.00223318 0.00211045 0
          -0.00251707 -0.000891896 0
          -0.00161438 -0.000370511 0
          -0.00100508 -0.000521243 0
          -0.00268084 -0.00147101 0
          -0.00142102 -0.00383187 0
          0.00288156 0.00333086 0
          -0.00189064 -0.00858258 0
          0.00173018 0.00257547 0
          0.00256713 -0.00306915 0
          0 0 0
          0 0 0
          -0.00867781 0.00605304 0
          -0.00857682 0.000354405 0
          -0.00654197 0.00266335 0
          -0.00857924 0.000501888 0
          -0.00864955 0.00131993 0
          -0.00746722 -0.000694043 0
          -0.00879281 -0.000379973 0
          -0.00838987 -0.00150574 0
          -0.00668936 -0.00026602 0
          -0.0102023 -0.00354523 0
          -0.00905372 -0.00249496 0
          -0.00367176 -0.00415056 0
          -0.011972 0.00445996 0
          -0.0153258 -0.00814765 0
          0 0 0
          0 0 0
          0.000891608 0.00676678 0
          0.00403887 -0.00306924 0
          -0.000561734 0.00607793 0
          1.75018e-05 -0.00125747 0
          0.000883024 0.00138135 0
          -0.000451691 -0.000657371 0
          0.000423672 3.52215e-05 0
          0.000537998 -0.00198862 0
          0.000758595 -0.000721352 0
          0.00441313 -0.00183177 0
          0.00138763 -0.000530196 0
          0.00379404 -0.0124571 0
          0.0146093 0.0168225 0
          0.00568102 -0.00902849 0
          0 0 0
          0 0 0
          -0.0127306 0.00610961 0
          -0.014105 -0.000787801 0
          -0.0123332 0.00622578 0
          -0.0103863 -0.0022765 0
          -0.0115466 0.00239579 0
          -0.0104401 -0.00105478 0
          -0.0111153 -0.000169628 0
          -0.0117473 -0.0019775 0
          -0.0124843 -0.00137954 0
          -0.0148204 -0.00447619 0
          -0.0127478 0.00173327 0
          -0.0200697 -0.0149633 0
          -0.0204593 0.0079417 0
          -0.0139257 -0.00652101 0
          0 0 0
          0.0256 0 0
          0.0256 0 0
          0.0256 0 0
          0.0256 0 0
          0.0256 0 0
          0.0256 0 0
          0.0256 0 0
          0.0256 0 0
          0.0256 0 0
          0.0256 0 0
          0.0256 0 0
          0.0256 0 0
          0.0256 0 0
          0.0256 0 0
          0.0256 0 0
          0.0256 0 0
        </DataArray>
      </PointData>
      <CellData>
      </CellData>
    </Piece>
  </ImageData>
</VTKFile>
