<?xml version="1.0"?>
<VTKFile type="ImageData" version="0.1" byte_order="LittleEndian">
  <ImageData WholeExtent="0 15 0 15 0 0" Origin="0 0 0" Spacing="1 1 1">
    <Piece Extent="0 15 0 15 0 0">
      <PointData>
        <DataArray type="Float32" Name="rho" format="ascii">
          0.998392
          1.00071
          0.997483
          1.00085
          0.997721
          0.998875
          0.997056
          0.996961
          0.995567
          0.995423
          0.993501
          0.995214
          0.989178
          0.999049
          0.988458
          0.994448
          0.997516
          0.998047
          0.998206
          0.998031
          0.99796
          0.997838
          0.997753
          0.997589
          0.997545
          0.997388
          0.99739
          0.997185
          0.997354
          0.997021
          0.997599
          0.996758
          0.997425
          0.998232
          0.998094
          0.998033
          0.997929
          0.997829
          0.997708
          0.997647
          0.997463
          0.997458
          0.997272
          0.9973
          0.997218
          0.997165
          0.997011
          0.997705
          0.99698
          0.998088
          0.99805
          0.997984
          0.997911
          0.997801
          0.997682
          0.99759
          0.997517
          0.99733
          0.997341
          0.997244
          0.997105
          0.997191
          0.997178
          0.997775
          0.996893
          0.99804
          0.998036
          0.997935
          0.997841
          0.99779
          0.99768
          0.997497
          0.997468
          0.997368
          0.997232
          0.997142
          0.997182
          0.997044
          0.99703
          0.997932
          0.996435
          0.998016
          0.997943
          0.997941
          0.997824
          0.997692
          0.997638
          0.997559
          0.99731
          0.997342
          0.997167
          0.997123
          0.997025
          0.997001
          0.996984
          0.99802
          0.996099
          0.997948
          0.997956
          0.997827
          0.997858
          0.997667
          0.997526
          0.997517
          0.99737
          0.997086
          0.997225
          0.996978
          0.996936
          0.996901
          0.996873
          0.998154
          0.995722
          0.99801
          0.997903
          0.997909
          0.997659
          0.997778
          0.997569
          0.997212
          0.997424
          0.997201
          0.99681
          0.997071
          0.996772
          0.996775
          0.996653
          0.998239
          0.995224
          0.997816
          0.99799
          0.997797
          0.997838
          0.997544
          0.997502
          0.997525
          0.996908
          0.997227
          0.996995
          0.996515
          0.996889
          0.996459
          0.996722
          0.998374
          0.995023
          0.998207
          0.99782
          0.997905
          0.997823
          0.997514
          0.997499
          0.997321
          0.997284
          0.996574
          0.997097
          0.996716
          0.996237
          0.996806
          0.995951
          0.998369
          0.993776
          0.997641
          0.998082
          0.997951
          0.997482
          0.997935
          0.997351
          0.997079
          0.997226
          0.997108
          0.996062
          0.997074
          0.996245
          0.9957
          0.996824
          0.998724
          0.995151
          0.998547
          0.998026
          0.997571
          0.998206
          0.997304
          0.997488
          0.99741
          0.996661
          0.996928
          0.997088
          0.995145
          0.997048
          0.996117
          0.994784
          0.998392
          0.989401
          0.997313
          0.997881
          0.998509
          0.997427
          0.9977
          0.997507
          0.997042
          0.997213
          0.99641
          0.996433
          0.997056
          0.994905
          0.996583
          0.99671
          0.998986
          0.993205
          0.999303
          0.998015
          0.997758
          0.997814
          0.997786
          0.997254
          0.997319
          0.996767
          0.997069
          0.99586
          0.996437
          0.996507
          0.993855
          0.992385
          1.00114
          0.973257
          0.99606
          0.998975
          0.997344
          0.998419
          0.997134
          0.997782
          0.996924
          0.997221
          0.996245
          0.997019
          0.994982
          0.996617
          0.992608
          1.0022
          1.00308
          0.937989
          0.986879
          0.993464
          0.997407
          0.996836
          0.997489
          0.997031
          0.997334
          0.99686
          0.997208
          0.996347
          0.997536
          0.99489
          1.00064
          0.994305
          1.02621
        </DataArray>
        <DataArray type="Float32" Name="ux" format="ascii">
          0
          0
          0
          0
          0
          0
          0
          0
          0
          0
          0
          0
          0
          0
          0
          0
          0
          -0.000691119
          -0.000907485
          -0.00101668
          -0.000877837
          -0.00107136
          -0.001041
          -0.00101516
          -0.00102756
          -0.000988234
          -0.00106695
          -0.00066
          -0.00118433
          -0.000718745
          -0.00019569
          0
          0
          -0.000534983
          -0.000359851
          -0.000921522
          -0.00101795
          -0.000906765
          -0.00112624
          -0.00110803
          -0.00104812
          -0.00112045
          -0.000766125
          -0.00112162
          -0.000805996
          2.71356e-05
          -0.00069493
          0
          0
          -0.00104773
          -0.00103299
          -0.00113042
          -0.00139096
          -0.00156666
          -0.00133615
          -0.00163503
          -0.00168026
          -0.001325
          -0.00171882
          -0.00137203
          -0.00114006
          -0.00132506
          -0.00133112
          0
          0
          -0.00090833
          -0.000917773
          -0.00134489
          -0.00121033
          -0.00161171
          -0.00174281
          -0.00150019
          -0.00157922
          -0.00182299
          -0.00139574
          -0.0011243
          -0.00146281
          -0.000622587
          -0.000888177
          0
          0
          -0.00121497
          -0.00104715
          -0.00173709
          -0.00169523
          -0.00174558
          -0.00220076
          -0.00206668
          -0.00189804
          -0.00209827
          -0.00187905
          -0.00183431
          -0.0016873
          -0.00100078
          -0.00158717
          0
          0
          -0.00156372
          -0.0014089
          -0.0018263
          -0.00222472
          -0.0023632
          -0.00187904
          -0.00276142
          -0.00261707
          -0.0017258
          -0.00244831
          -0.00215772
          -0.00173147
          -0.00130163
          -0.00177926
          0
          0
          -0.00157272
          -0.00141511
          -0.00213848
          -0.0020966
          -0.00256193
          -0.00269263
          -0.00224535
          -0.00282139
          -0.00287056
          -0.00183514
          -0.00219381
          -0.00224375
          -0.00105409
          -0.00197511
          0
          0
          -0.00241226
          -0.00219091
          -0.00302612
          -0.00270363
          -0.00307189
          -0.00388867
          -0.00312675
          -0.00260868
          -0.00386651
          -0.00323565
          -0.00203011
          -0.00276393
          -0.00195002
          -0.00271008
          0
          0
          -0.00156983
          -0.00158077
          -0.00224276
          -0.00279492
          -0.00330341
          -0.00224284
          -0.00390936
          -0.00326874
          -0.00135099
          -0.0036992
          -0.00264859
          -0.00101233
          -0.0009713
          -0.00208503
          0
          0
          -0.00457481
          -0.00369151
          -0.00470273
          -0.00524733
          -0.00453237
          -0.00521642
          -0.0045902
          -0.00557951
          -0.00506872
          -0.00255075
          -0.00587508
          -0.004373
          -0.00182228
          -0.00555733
          0
          0
          0.000108666
          -0.000713891
          -0.00288023
          -0.000892646
          -0.00271125
          -0.00297277
          -0.00203912
          -0.00141287
          -0.00315691
          -0.0017648
          0.00282869
          -0.00209013
          0.00174645
          0.00272132
          0
          0
          -0.00916093
          -0.00907174
          -0.00709903
          -0.00932585
          -0.00937944
          -0.00823136
          -0.00962672
          -0.0091184
          -0.00735376
          -0.0109476
          -0.0096587
          -0.00399185
          -0.0127246
          -0.0160711
          0
          0
          0.000925857
          0.00404851
          -0.000880911
          -0.000184145
          0.000593398
          -0.000784717
          0.000136916
          0.000214977
          0.00046323
          0.00418042
          0.00103448
          0.00356656
          0.0146219
          0.00558323
          0
          0
          -0.0136561
          -0.0152373
          -0.0134814
          -0.0117571
          -0.0130514
          -0.0120067
          -0.0128362
          -0.0135358
          -0.0143485
          -0.016645
          -0.0145117
          -0.0219177
          -0.0218942
          -0.0147256
          0
          0.0256
          0.0256
          0.0256
          0.0256
          0.0256
          0.0256
          0.0256
          0.0256
          0.0256
          0.0256
          0.0256
          0.0256
          0.0256
          0.0256
          0.0256
          0.0256
        </DataArray>
        <DataArray type="Float32" Name="uy" format="ascii">
          0
          0
          0
          0
          0
          0
          0
          0
          0
          0
          0
          0
          0
          0
          0
          0
          0
          0.000619485
          9.64345e-05
          0.000556499
          9.05192e-05
          0.000292548
          -0.000235575
          -0.000228361
          -0.00058511
          -0.000696609
          -0.00106859
          -0.00111848
          -0.00156303
          -0.000662912
          -0.00196731
          0
          0
          0.000860415
          0.000345516
          0.000823775
          -6.48836e-05
          0.000471894
          -0.000237551
          -0.000344642
          -0.000573324
          -0.000730705
          -0.00142386
          -0.000770821
          -0.00210716
          -0.00113748
          -0.00208075
          0
          0
          0.00116845
          0.000146557
          0.00128203
          -8.82054e-05
          0.000387927
          -0.000139005
          -0.000190389
          -0.000731034
          -0.000748336
          -0.0012686
          -0.000655497
          -0.00282435
          -0.000251321
          -0.00264829
          0
          0
          0.00154021
          0.00024463
          0.00124395
          0.000249197
          0.000411584
          -0.000291868
          -2.07422e-05
          -0.000802162
          -0.000816497
          -0.0012851
          -0.00108639
          -0.00254705
          -0.000518069
          -0.00302359
          0
          0
          0.00176556
          0.000343887
          0.00158081
          -0.000117808
          0.000976066
          -0.000284349
          -0.000510482
          -0.000332411
          -0.000752758
          -0.00197627
          -0.000344063
          -0.00326713
          -0.000323837
          -0.00322017
          0
          0
          0.00216552
          0.000258424
          0.0020349
          -6.89874e-05
          0.000780014
          -4.47752e-05
          -0.000159509
          -0.00105318
          -0.000548585
          -0.00164235
          -0.000756036
          -0.00366881
          0.000103444
          -0.00378968
          0
          0
          0.00247619
          0.000205631
          0.00222815
          0.00029649
          0.000524255
          -0.000204944
          0.000454872
          -0.00124787
          -0.00117441
          -0.00110826
          -0.000738743
          -0.00428849
          0.000586327
          -0.00415278
          0
          0
          0.00312147
          3.14376e-05
          0.00288217
          -0.000463155
          0.00166465
          -0.000428852
          -0.000658663
          9.67618e-05
          -0.00114083
          -0.00286336
          0.000807807
          -0.00534402
          0.00120499
          -0.00481096
          0
          0
          0.00319292
          0.000424054
          0.0025848
          9.67571e-05
          0.00141085
          -0.000347884
          -0.000198412
          -0.00149558
          0.000300891
          -0.00255177
          -0.00129531
          -0.00404294
          0.00119176
          -0.00480491
          0
          0
          0.00466881
          -0.000711838
          0.00407383
          0.000185295
          0.000581402
          8.82643e-05
          0.000434752
          -0.0018715
          -0.00169888
          -0.000291742
          -0.00087785
          -0.0083312
          0.00536551
          -0.00682009
          0
          0
          0.00417695
          0.000171572
          0.00448418
          -0.00159802
          0.00239478
          -0.000875144
          -0.000309023
          -0.000519745
          -0.00164219
          -0.00400455
          0.00329883
          -0.00915018
          0.00256905
          -0.0031785
          0
          0
          0.00643512
          0.000687017
          0.00292028
          0.000714514
          0.00151431
          -0.000674626
          -0.000371316
          -0.00159485
          -0.000350067
          -0.00382041
          -0.00279907
          -0.00443825
          0.00448389
          -0.00829315
          0
          0
          0.0069084
          -0.00278511
          0.00636613
          -0.00120322
          0.00155709
          -0.000672419
          -1.31968e-05
          -0.0021266
          -0.000846251
          -0.00195414
          -0.000876603
          -0.0127966
          0.017448
          -0.00925978
          0
          0
          0.00623873
          -0.000456326
          0.00646796
          -0.00227645
          0.00259909
          -0.00112436
          -0.000166758
          -0.00208059
          -0.001478
          -0.00461585
          0.00158157
          -0.0154106
          0.00818378
          -0.00671446
          0
          0
          0
          0
          0
          0
          0
          0
          0
          0
          0
          0
          0
          0
          0
          0
          0
        </DataArray>
        <DataArray type="Float32" Name="velocity" NumberOfComponents="3" format="ascii">
          0 0 0
          0 0 0
          0 0 0
          0 0 0
          0 0 0
          0 0 0
          0 0 0
          0 0 0
          0 0 0
          0 0 0
          0 0 0
          0 0 0
          0 0 0
          0 0 0
          0 0 0
          0 0 0
          0 0 0
          -0.000691119 0.000619485 0
          -0.000907485 9.64345e-05 0
          -0.00101668 0.000556499 0
          -0.000877837 9.05192e-05 0
          -0.00107136 0.000292548 0
          -0.001041 -0.000235575 0
          -0.00101516 -0.000228361 0
          -0.00102756 -0.00058511 0
          -0.000988234 -0.000696609 0
          -0.00106695 -0.00106859 0
          -0.00066 -0.00111848 0
          -0.00118433 -0.00156303 0
          -0.000718745 -0.000662912 0
          -0.00019569 -0.00196731 0
          0 0 0
          0 0 0
          -0.000534983 0.000860415 0
          -0.000359851 0.000345516 0
          -0.000921522 0.000823775 0
          -0.00101795 -6.48836e-05 0
          -0.000906765 0.000471894 0
          -0.00112624 -0.000237551 0
          -0.00110803 -0.000344642 0
          -0.00104812 -0.000573324 0
          -0.00112045 -0.000730705 0
          -0.000766125 -0.00142386 0
          -0.00112162 -0.000770821 0
          -0.000805996 -0.00210716 0
          2.71356e-05 -0.00113748 0
          -0.00069493 -0.00208075 0
          0 0 0
          0 0 0
          -0.00104773 0.00116845 0
          -0.00103299 0.000146557 0
          -0.00113042 0.00128203 0
          -0.00139096 -8.82054e-05 0
          -0.00156666 0.000387927 0
          -0.00133615 -0.000139005 0
          -0.00163503 -0.000190389 0
          -0.00168026 -0.000731034 0
          -0.001325 -0.000748336 0
          -0.00171882 -0.0012686 0
          -0.00137203 -0.000655497 0
          -0.00114006 -0.00282435 0
          -0.00132506 -0.000251321 0
          -0.00133112 -0.00264829 0
          0 0 0
          0 0 0
          -0.00090833 0.00154021 0
          -0.000917773 0.00024463 0
          -0.00134489 0.00124395 0
          -0.00121033 0.000249197 0
          -0.00161171 0.000411584 0
          -0.00174281 -0.000291868 0
          -0.00150019 -2.07422e-05 0
          -0.00157922 -0.000802162 0
          -0.00182299 -0.000816497 0
          -0.00139574 -0.0012851 0
          -0.0011243 -0.00108639 0
          -0.00146281 -0.00254705 0
          -0.000622587 -0.000518069 0
          -0.000888177 -0.00302359 0
          0 0 0
          0 0 0
          -0.00121497 0.00176556 0
          -0.00104715 0.000343887 0
          -0.00173709 0.00158081 0
          -0.00169523 -0.000117808 0
          -0.00174558 0.000976066 0
          -0.00220076 -0.000284349 0
          -0.00206668 -0.000510482 0
          -0.00189804 -0.000332411 0
          -0.00209827 -0.000752758 0
          -0.00187905 -0.00197627 0
          -0.00183431 -0.000344063 0
          -0.0016873 -0.00326713 0
          -0.00100078 -0.000323837 0
          -0.00158717 -0.00322017 0
          0 0 0
          0 0 0
          -0.00156372 0.00216552 0
          -0.0014089 0.000258424 0
          -0.0018263 0.0020349 0
          -0.00222472 -6.89874e-05 0
          -0.0023632 0.000780014 0
          -0.00187904 -4.47752e-05 0
          -0.00276142 -0.000159509 0
          -0.00261707 -0.00105318 0
          -0.0017258 -0.000548585 0
          -0.00244831 -0.00164235 0
          -0.00215772 -0.000756036 0
          -0.00173147 -0.00366881 0
          -0.00130163 0.000103444 0
          -0.00177926 -0.00378968 0
          0 0 0
          0 0 0
          -0.00157272 0.00247619 0
          -0.00141511 0.000205631 0
          -0.00213848 0.00222815 0
          -0.0020966 0.00029649 0
          -0.00256193 0.000524255 0
          -0.00269263 -0.000204944 0
          -0.00224535 0.000454872 0
          -0.00282139 -0.00124787 0
          -0.00287056 -0.00117441 0
          -0.00183514 -0.00110826 0
          -0.00219381 -0.000738743 0
          -0.00224375 -0.00428849 0
          -0.00105409 0.000586327 0
          -0.00197511 -0.00415278 0
          0 0 0
          0 0 0
          -0.00241226 0.00312147 0
          -0.00219091 3.14376e-05 0
          -0.00302612 0.00288217 0
          -0.00270363 -0.000463155 0
          -0.00307189 0.00166465 0
          -0.00388867 -0.000428852 0
          -0.00312675 -0.000658663 0
          -0.00260868 9.67618e-05 0
          -0.00386651 -0.00114083 0
          -0.00323565 -0.00286336 0
          -0.00203011 0.000807807 0
          -0.00276393 -0.00534402 0
          -0.00195002 0.00120499 0
          -0.00271008 -0.00481096 0
          0 0 0
          0 0 0
          -0.00156983 0.00319292 0
          -0.00158077 0.000424054 0
          -0.00224276 0.0025848 0
          -0.00279492 9.67571e-05 0
          -0.00330341 0.00141085 0
          -0.00224284 -0.000347884 0
          -0.00390936 -0.000198412 0
          -0.00326874 -0.00149558 0
          -0.00135099 0.000300891 0
          -0.0036992 -0.00255177 0
          -0.00264859 -0.00129531 0
          -0.00101233 -0.00404294 0
          -0.0009713 0.00119176 0
          -0.00208503 -0.00480491 0
          0 0 0
          0 0 0
          -0.00457481 0.00466881 0
          -0.00369151 -0.000711838 0
          -0.00470273 0.00407383 0
          -0.00524733 0.000185295 0
          -0.00453237 0.000581402 0
          -0.00521642 8.82643e-05 0
          -0.0045902 0.000434752 0
          -0.00557951 -0.0018715 0
          -0.00506872 -0.00169888 0
          -0.00255075 -0.000291742 0
          -0.00587508 -0.00087785 0
          -0.004373 -0.0083312 0
          -0.00182228 0.00536551 0
          -0.00555733 -0.00682009 0
          0 0 0
          0 0 0
          0.000108666 0.00417695 0
          -0.000713891 0.000171572 0
          -0.00288023 0.00448418 0
          -0.000892646 -0.00159802 0
          -0.00271125 0.00239478 0
          -0.00297277 -0.000875144 0
          -0.00203912 -0.000309023 0
          -0.00141287 -0.000519745 0
          -0.00315691 -0.00164219 0
          -0.0017648 -0.00400455 0
          0.00282869 0.00329883 0
          -0.00209013 -0.00915018 0
          0.00174645 0.00256905 0
          0.00272132 -0.0031785 0
          0 0 0
          0 0 0
          -0.00916093 0.00643512 0
          -0.00907174 0.000687017 0
          -0.00709903 0.00292028 0
          -0.00932585 0.000714514 0
          -0.00937944 0.00151431 0
          -0.00823136 -0.000674626 0
          -0.00962672 -0.000371316 0
          -0.0091184 -0.00159485 0
          -0.00735376 -0.000350067 0
          -0.0109476 -0.00382041 0
          -0.0096587 -0.00279907 0
          -0.00399185 -0.00443825 0
          -0.0127246 0.00448389 0
          -0.0160711 -0.00829315 0
          0 0 0
          0 0 0
          0.000925857 0.0069084 0
          0.00404851 -0.00278511 0
          -0.000880911 0.00636613 0
          -0.000184145 -0.00120322 0
          0.000593398 0.00155709 0
          -0.000784717 -0.000672419 0
          0.000136916 -1.31968e-05 0
          0.000214977 -0.0021266 0
          0.00046323 -0.000846251 0
          0.00418042 -0.00195414 0
          0.00103448 -0.000876603 0
          0.00356656 -0.0127966 0
          0.0146219 0.017448 0
          0.00558323 -0.00925978 0
          0 0 0
          0 0 0
          -0.0136561 0.00623873 0
          -0.0152373 -0.000456326 0
          -0.0134814 0.00646796 0
          -0.0117571 -0.00227645 0
          -0.0130514 0.00259909 0
          -0.0120067 -0.00112436 0
          -0.0128362 -0.000166758 0
          -0.0135358 -0.00208059 0
          -0.0143485 -0.001478 0
          -0.016645 -0.00461585 0
          -0.0145117 0.00158157 0
          -0.0219177 -0.0154106 0
          -0.0218942 0.00818378 0
          -0.0147256 -0.00671446 0
          0 0 0
          0.0256 0 0
          0.0256 0 0
          0.0256 0 0
          0.0256 0 0
          0.0256 0 0
          0.0256 0 0
          0.0256 0 0
          0.0256 0 0
          0.0256 0 0
          0.0256 0 0
          0.0256 0 0
          0.0256 0 0
          0.0256 0 0
          0.0256 0 0
          0.0256 0 0
          0.0256 0 0
        </DataArray>
      </PointData>
      <CellData>
      </CellData>
    </Piece>
  </ImageData>
</VTKFile>
