<?xml version="1.0"?>
<VTKFile type="ImageData" version="0.1" byte_order="LittleEndian">
  <ImageData WholeExtent="0 15 0 15 0 0" Origin="0 0 0" Spacing="1 1 1">
    <Piece Extent="0 15 0 15 0 0">
      <PointData>
        <DataArray type="Float32" Name="rho" format="ascii">
          0.989277
          0.985841
          0.987891
          0.989073
          0.987646
          0.98942
          0.98746
          0.988845
          0.987703
          0.989143
          0.988446
          0.99177
          0.987141
          0.999706
          0.990411
          0.991832
          0.990972
          0.992466
          0.992555
          0.992543
          0.992151
          0.992287
          0.991947
          0.991834
          0.991656
          0.991517
          0.991285
          0.991314
          0.991074
          0.990959
          0.991462
          0.991007
          0.992128
          0.992752
          0.992468
          0.992503
          0.992424
          0.992078
          0.992112
          0.991834
          0.99165
          0.991529
          0.991346
          0.991172
          0.991159
          0.991016
          0.990766
          0.991361
          0.991552
          0.992688
          0.992683
          0.992423
          0.992448
          0.992275
          0.991949
          0.991957
          0.991656
          0.991491
          0.991367
          0.991173
          0.991064
          0.990961
          0.991002
          0.991412
          0.991959
          0.992704
          0.992723
          0.99263
          0.992305
          0.992354
          0.992108
          0.99175
          0.991829
          0.991422
          0.991316
          0.991211
          0.990993
          0.990974
          0.990803
          0.991242
          0.991897
          0.992857
          0.992661
          0.9927
          0.992526
          0.992129
          0.992231
          0.991944
          0.991497
          0.991661
          0.991206
          0.991123
          0.991012
          0.990832
          0.990794
          0.991221
          0.991693
          0.992917
          0.99288
          0.992558
          0.992613
          0.992423
          0.991937
          0.992056
          0.991672
          0.991306
          0.99147
          0.990892
          0.991016
          0.990752
          0.990832
          0.991067
          0.991993
          0.993044
          0.992885
          0.992851
          0.992468
          0.992519
          0.992196
          0.99158
          0.992043
          0.991296
          0.990995
          0.991365
          0.990563
          0.990993
          0.990221
          0.991159
          0.991282
          0.993048
          0.993038
          0.992931
          0.992768
          0.992167
          0.992282
          0.992192
          0.991086
          0.991883
          0.990974
          0.990635
          0.991162
          0.989921
          0.991236
          0.990601
          0.993326
          0.993423
          0.993207
          0.99298
          0.992678
          0.992608
          0.992162
          0.991847
          0.991906
          0.990623
          0.991742
          0.990505
          0.990371
          0.991294
          0.989155
          0.990806
          0.988958
          0.993472
          0.993436
          0.992961
          0.992884
          0.992883
          0.991993
          0.99179
          0.991695
          0.991483
          0.990156
          0.991756
          0.989786
          0.989668
          0.991594
          0.98965
          0.995864
          0.994333
          0.993141
          0.993577
          0.99331
          0.992091
          0.992456
          0.991961
          0.991048
          0.991422
          0.991375
          0.988581
          0.991904
          0.989645
          0.986915
          0.991096
          0.984149
          0.992534
          0.994873
          0.99379
          0.992536
          0.993057
          0.992211
          0.99164
          0.99161
          0.990721
          0.990589
          0.990873
          0.989339
          0.990011
          0.992513
          0.988035
          0.994371
          0.996796
          0.993803
          0.993466
          0.99329
          0.992809
          0.991864
          0.991826
          0.990907
          0.990964
          0.989468
          0.990853
          0.990186
          0.98721
          0.984191
          0.991265
          0.97565
          0.994674
          0.993417
          0.994605
          0.993683
          0.991962
          0.992959
          0.990903
          0.991597
          0.990017
          0.990828
          0.989214
          0.989732
          0.986376
          0.997108
          0.996185
          0.943998
          0.987047
          0.991746
          0.993667
          0.993688
          0.992719
          0.992292
          0.991645
          0.99081
          0.990617
          0.989647
          0.990431
          0.987451
          0.992633
          0.98614
          0.997724
        </DataArray>
        <DataArray type="Float32" Name="ux" format="ascii">
          0
          0
          0
          0
          0
          0
          0
          0
          0
          0
          0
          0
          0
          0
          0
          0
          0
          -0.00119819
          -0.0010195
          -0.00068789
          -0.000325406
          -0.000321181
          -0.000307706
          -0.000206677
          -0.000373314
          -0.00060972
          -0.000746762
          -0.00088384
          -0.00150449
          -0.00113392
          -0.0011325
          0
          0
          0.000178682
          0.00048578
          -2.38906e-06
          0.000339861
          0.000799399
          0.000538411
          0.000489522
          0.000501766
          0.000263241
          0.000347701
          -0.0002858
          -0.000332802
          0.000707354
          -1.83676e-06
          0
          0
          -0.00117598
          -0.000509835
          -1.69368e-05
          -0.000461917
          -0.000192314
          0.000468459
          -0.000183013
          -0.00011639
          6.93196e-05
          -0.00080254
          -0.000758398
          -0.000608942
          -0.00119707
          -0.00185128
          0
          0
          -0.000261188
          -0.000158292
          0.00012763
          0.0010863
          0.000231822
          0.000503577
          0.00132879
          0.00078431
          0.000332439
          0.000594284
          0.000644725
          -0.00021051
          0.000248526
          -0.00040835
          0
          0
          -0.000363013
          0.000466413
          -0.00019535
          0.00050687
          0.00137773
          0.000400756
          0.000871046
          0.0012867
          0.00043187
          0.00106747
          0.000235453
          -0.000154244
          0.00083938
          -0.000827974
          0
          0
          -0.00076854
          0.000177097
          0.000592641
          0.000207281
          0.000823597
          0.00240808
          5.22243e-05
          0.000951559
          0.00247511
          0.000112098
          0.000528686
          0.00051086
          0.00028415
          -0.000950129
          0
          0
          -0.00024345
          0.000363712
          0.000706658
          0.00215548
          0.00106642
          0.00127371
          0.00332122
          0.00171841
          0.00154166
          0.00283431
          0.00126834
          0.00106341
          0.00151481
          -0.00066484
          0
          0
          -0.00104077
          0.000347333
          0.000225056
          0.00123292
          0.00144134
          0.000763439
          0.00225614
          0.00319258
          -1.46926e-05
          0.00181419
          0.00204184
          -0.00047401
          0.000358189
          -0.00225778
          0
          0
          0.00104453
          0.00230741
          0.00217386
          0.00214913
          0.00342731
          0.00627495
          0.00235774
          0.0040862
          0.00758609
          0.00239612
          0.00523117
          0.00541104
          0.00503445
          0.00396822
          0
          0
          -0.00249979
          -0.000970981
          -0.00141234
          0.00140941
          0.00217655
          0.000292993
          0.00237017
          -8.60555e-05
          -0.000165509
          0.00346577
          -0.00476959
          0.000283309
          -0.000592324
          -0.00984279
          0
          0
          0.00215524
          0.00280968
          0.00525777
          0.00855006
          0.00503299
          0.00708905
          0.00845309
          0.0106514
          0.00771344
          0.00943642
          0.0169041
          0.0069035
          0.0139148
          0.0145122
          0
          0
          -0.00413432
          0.0030404
          0.00458448
          0.000188123
          0.00145608
          0.00239331
          -0.00022182
          -0.000531953
          -0.000783653
          -0.00722579
          -0.00862567
          -0.00403705
          -0.0220201
          -0.0230577
          0
          0
          0.0132079
          0.0166971
          0.00625164
          0.0119354
          0.0114216
          0.0117427
          0.0132048
          0.0138237
          0.0151561
          0.0194078
          0.0142773
          0.0175693
          0.027082
          0.0134027
          0
          0
          -0.0284786
          -0.0426319
          -0.0413128
          -0.0458706
          -0.0491581
          -0.0496643
          -0.0517124
          -0.0508856
          -0.049768
          -0.0475138
          -0.0402151
          -0.0417964
          -0.0339635
          -0.015669
          0
          0.0256
          0.0256
          0.0256
          0.0256
          0.0256
          0.0256
          0.0256
          0.0256
          0.0256
          0.0256
          0.0256
          0.0256
          0.0256
          0.0256
          0.0256
          0.0256
        </DataArray>
        <DataArray type="Float32" Name="uy" format="ascii">
          0
          0
          0
          0
          0
          0
          0
          0
          0
          0
          0
          0
          0
          0
          0
          0
          0
          -0.00185801
          -0.00206065
          -0.00105804
          -0.00188205
          -0.000508441
          -0.00186635
          -0.000584015
          -0.00135905
          -0.00027219
          -0.00103964
          0.000695265
          -0.000902984
          0.00265362
          0.000342755
          0
          0
          -0.00188152
          -0.00184671
          -0.00104305
          -0.00233062
          -0.000283214
          -0.00170274
          -0.000758839
          -0.000939189
          -0.000285485
          -0.00103913
          0.00134956
          -0.00143794
          0.002019
          0.000374269
          0
          0
          -0.00189452
          -0.00222357
          -0.000606052
          -0.00233401
          -0.000946777
          -0.0011114
          -0.000525125
          -0.00104449
          4.99565e-05
          -0.000421285
          0.00160577
          -0.00193065
          0.00296666
          7.80749e-05
          0
          0
          -0.00151775
          -0.00271254
          -0.00109002
          -0.00186606
          -0.000864357
          -0.00194968
          0.00024444
          -0.00126542
          0.000490625
          -0.000243885
          0.00136419
          -0.00147093
          0.00339477
          -0.00045357
          0
          0
          -0.00191457
          -0.00240897
          -0.00134275
          -0.00277253
          0.000133468
          -0.00198061
          -0.00106354
          0.000491766
          0.000106769
          -0.000713827
          0.0028793
          -0.00213765
          0.00375485
          0.000155241
          0
          0
          -0.00207396
          -0.00310862
          -0.000631903
          -0.00324245
          -0.00106748
          -0.000941404
          -0.000358864
          -0.00138453
          0.00142001
          -0.000438008
          0.00311776
          -0.00262718
          0.00452103
          0.000390152
          0
          0
          -0.00240493
          -0.00347869
          -0.00149974
          -0.00267092
          -0.00155659
          -0.00182793
          0.001051
          -0.0019839
          0.000620732
          0.00175983
          0.00228482
          -0.0021248
          0.00534357
          0.00114833
          0
          0
          -0.00261436
          -0.00407331
          -0.00182088
          -0.00401971
          0.00047043
          -0.00296323
          -0.00168068
          0.00173898
          -5.25058e-06
          -0.000889721
          0.00654046
          -0.0047813
          0.00819308
          0.00049484
          0
          0
          -0.0038244
          -0.00448099
          -0.00204414
          -0.0036982
          -0.00163249
          -0.00235563
          -0.000259171
          -0.00179304
          0.00373266
          -0.0012305
          0.00424235
          -0.000170201
          0.00526986
          0.00481424
          0
          0
          -0.00463603
          -0.00513426
          -0.00152511
          -0.00560928
          -0.0028932
          -0.00168439
          0.000569628
          -0.00217893
          -6.36128e-05
          0.00399023
          0.00337526
          -0.0062537
          0.013986
          0.00174762
          0
          0
          -0.00558454
          -0.00496935
          -0.0047831
          -0.00733506
          0.000718475
          -0.00383765
          -0.000388368
          0.000567679
          0.000726248
          -0.000715714
          0.0111453
          -0.00853358
          0.0135406
          0.0104806
          0
          0
          -0.00577298
          -0.0100363
          -0.00590109
          -0.00378328
          -0.00223475
          -0.00387836
          -0.00148842
          -0.00142853
          0.00331629
          -0.00168421
          0.00291547
          0.00202742
          0.0110852
          0.00544927
          0
          0
          -0.0186225
          -0.00865964
          -0.00108994
          -0.00659447
          -0.000617367
          -0.0033654
          0.000970084
          9.11221e-05
          0.00458672
          0.00501439
          0.00717437
          -0.00327779
          0.0326067
          0.000638086
          0
          0
          -0.0138028
          -0.00161683
          -0.000993231
          -0.007619
          0.000271094
          -0.00589512
          -0.00070927
          -0.00366991
          0.000129235
          -0.00239736
          0.00651861
          -0.0112397
          0.0186207
          0.00575576
          0
          0
          0
          0
          0
          0
          0
          0
          0
          0
          0
          0
          0
          0
          0
          0
          0
        </DataArray>
        <DataArray type="Float32" Name="velocity" NumberOfComponents="3" format="ascii">
          0 0 0
          0 0 0
          0 0 0
          0 0 0
          0 0 0
          0 0 0
          0 0 0
          0 0 0
          0 0 0
          0 0 0
          0 0 0
          0 0 0
          0 0 0
          0 0 0
          0 0 0
          0 0 0
          0 0 0
          -0.00119819 -0.00185801 0
          -0.0010195 -0.00206065 0
          -0.00068789 -0.00105804 0
          -0.000325406 -0.00188205 0
          -0.000321181 -0.000508441 0
          -0.000307706 -0.00186635 0
          -0.000206677 -0.000584015 0
          -0.000373314 -0.00135905 0
          -0.00060972 -0.00027219 0
          -0.000746762 -0.00103964 0
          -0.00088384 0.000695265 0
          -0.00150449 -0.000902984 0
          -0.00113392 0.00265362 0
          -0.0011325 0.000342755 0
          0 0 0
          0 0 0
          0.000178682 -0.00188152 0
          0.00048578 -0.00184671 0
          -2.38906e-06 -0.00104305 0
          0.000339861 -0.00233062 0
          0.000799399 -0.000283214 0
          0.000538411 -0.00170274 0
          0.000489522 -0.000758839 0
          0.000501766 -0.000939189 0
          0.000263241 -0.000285485 0
          0.000347701 -0.00103913 0
          -0.0002858 0.00134956 0
          -0.000332802 -0.00143794 0
          0.000707354 0.002019 0
          -1.83676e-06 0.000374269 0
          0 0 0
          0 0 0
          -0.00117598 -0.00189452 0
          -0.000509835 -0.00222357 0
          -1.69368e-05 -0.000606052 0
          -0.000461917 -0.00233401 0
          -0.000192314 -0.000946777 0
          0.000468459 -0.0011114 0
          -0.000183013 -0.000525125 0
          -0.00011639 -0.00104449 0
          6.93196e-05 4.99565e-05 0
          -0.00080254 -0.000421285 0
          -0.000758398 0.00160577 0
          -0.000608942 -0.00193065 0
          -0.00119707 0.00296666 0
          -0.00185128 7.80749e-05 0
          0 0 0
          0 0 0
          -0.000261188 -0.00151775 0
          -0.000158292 -0.00271254 0
          0.00012763 -0.00109002 0
          0.0010863 -0.00186606 0
          0.000231822 -0.000864357 0
          0.000503577 -0.00194968 0
          0.00132879 0.00024444 0
          0.00078431 -0.00126542 0
          0.000332439 0.000490625 0
          0.000594284 -0.000243885 0
          0.000644725 0.00136419 0
          -0.00021051 -0.00147093 0
          0.000248526 0.00339477 0
          -0.00040835 -0.00045357 0
          0 0 0
          0 0 0
          -0.000363013 -0.00191457 0
          0.000466413 -0.00240897 0
          -0.00019535 -0.00134275 0
          0.00050687 -0.00277253 0
          0.00137773 0.000133468 0
          0.000400756 -0.00198061 0
          0.000871046 -0.00106354 0
          0.0012867 0.000491766 0
          0.00043187 0.000106769 0
          0.00106747 -0.000713827 0
          0.000235453 0.0028793 0
          -0.000154244 -0.00213765 0
          0.00083938 0.00375485 0
          -0.000827974 0.000155241 0
          0 0 0
          0 0 0
          -0.00076854 -0.00207396 0
          0.000177097 -0.00310862 0
          0.000592641 -0.000631903 0
          0.000207281 -0.00324245 0
          0.000823597 -0.00106748 0
          0.00240808 -0.000941404 0
          5.22243e-05 -0.000358864 0
          0.000951559 -0.00138453 0
          0.00247511 0.00142001 0
          0.000112098 -0.000438008 0
          0.000528686 0.00311776 0
          0.00051086 -0.00262718 0
          0.00028415 0.00452103 0
          -0.000950129 0.000390152 0
          0 0 0
          0 0 0
          -0.00024345 -0.00240493 0
          0.000363712 -0.00347869 0
          0.000706658 -0.00149974 0
          0.00215548 -0.00267092 0
          0.00106642 -0.00155659 0
          0.00127371 -0.00182793 0
          0.00332122 0.001051 0
          0.00171841 -0.0019839 0
          0.00154166 0.000620732 0
          0.00283431 0.00175983 0
          0.00126834 0.00228482 0
          0.00106341 -0.0021248 0
          0.00151481 0.00534357 0
          -0.00066484 0.00114833 0
          0 0 0
          0 0 0
          -0.00104077 -0.00261436 0
          0.000347333 -0.00407331 0
          0.000225056 -0.00182088 0
          0.00123292 -0.00401971 0
          0.00144134 0.00047043 0
          0.000763439 -0.00296323 0
          0.00225614 -0.00168068 0
          0.00319258 0.00173898 0
          -1.46926e-05 -5.25058e-06 0
          0.00181419 -0.000889721 0
          0.00204184 0.00654046 0
          -0.00047401 -0.0047813 0
          0.000358189 0.00819308 0
          -0.00225778 0.00049484 0
          0 0 0
          0 0 0
          0.00104453 -0.0038244 0
          0.00230741 -0.00448099 0
          0.00217386 -0.00204414 0
          0.00214913 -0.0036982 0
          0.00342731 -0.00163249 0
          0.00627495 -0.00235563 0
          0.00235774 -0.000259171 0
          0.0040862 -0.00179304 0
          0.00758609 0.00373266 0
          0.00239612 -0.0012305 0
          0.00523117 0.00424235 0
          0.00541104 -0.000170201 0
          0.00503445 0.00526986 0
          0.00396822 0.00481424 0
          0 0 0
          0 0 0
          -0.00249979 -0.00463603 0
          -0.000970981 -0.00513426 0
          -0.00141234 -0.00152511 0
          0.00140941 -0.00560928 0
          0.00217655 -0.0028932 0
          0.000292993 -0.00168439 0
          0.00237017 0.000569628 0
          -8.60555e-05 -0.00217893 0
          -0.000165509 -6.36128e-05 0
          0.00346577 0.00399023 0
          -0.00476959 0.00337526 0
          0.000283309 -0.0062537 0
          -0.000592324 0.013986 0
          -0.00984279 0.00174762 0
          0 0 0
          0 0 0
          0.00215524 -0.00558454 0
          0.00280968 -0.00496935 0
          0.00525777 -0.0047831 0
          0.00855006 -0.00733506 0
          0.00503299 0.000718475 0
          0.00708905 -0.00383765 0
          0.00845309 -0.000388368 0
          0.0106514 0.000567679 0
          0.00771344 0.000726248 0
          0.00943642 -0.000715714 0
          0.0169041 0.0111453 0
          0.0069035 -0.00853358 0
          0.0139148 0.0135406 0
          0.0145122 0.0104806 0
          0 0 0
          0 0 0
          -0.00413432 -0.00577298 0
          0.0030404 -0.0100363 0
          0.00458448 -0.00590109 0
          0.000188123 -0.00378328 0
          0.00145608 -0.00223475 0
          0.00239331 -0.00387836 0
          -0.00022182 -0.00148842 0
          -0.000531953 -0.00142853 0
          -0.000783653 0.00331629 0
          -0.00722579 -0.00168421 0
          -0.00862567 0.00291547 0
          -0.00403705 0.00202742 0
          -0.0220201 0.0110852 0
          -0.0230577 0.00544927 0
          0 0 0
          0 0 0
          0.0132079 -0.0186225 0
          0.0166971 -0.00865964 0
          0.00625164 -0.00108994 0
          0.0119354 -0.00659447 0
          0.0114216 -0.000617367 0
          0.0117427 -0.0033654 0
          0.0132048 0.000970084 0
          0.0138237 9.11221e-05 0
          0.0151561 0.00458672 0
          0.0194078 0.00501439 0
          0.0142773 0.00717437 0
          0.0175693 -0.00327779 0
          0.027082 0.0326067 0
          0.0134027 0.000638086 0
          0 0 0
          0 0 0
          -0.0284786 -0.0138028 0
          -0.0426319 -0.00161683 0
          -0.0413128 -0.000993231 0
          -0.0458706 -0.007619 0
          -0.0491581 0.000271094 0
          -0.0496643 -0.00589512 0
          -0.0517124 -0.00070927 0
          -0.0508856 -0.00366991 0
          -0.049768 0.000129235 0
          -0.0475138 -0.00239736 0
          -0.0402151 0.00651861 0
          -0.0417964 -0.0112397 0
          -0.0339635 0.0186207 0
          -0.015669 0.00575576 0
          0 0 0
          0.0256 0 0
          0.0256 0 0
          0.0256 0 0
          0.0256 0 0
          0.0256 0 0
          0.0256 0 0
          0.0256 0 0
          0.0256 0 0
          0.0256 0 0
          0.0256 0 0
          0.0256 0 0
          0.0256 0 0
          0.0256 0 0
          0.0256 0 0
          0.0256 0 0
          0.0256 0 0
        </DataArray>
      </PointData>
      <CellData>
      </CellData>
    </Piece>
  </ImageData>
</VTKFile>
