<?xml version="1.0"?>
<VTKFile type="ImageData" version="0.1" byte_order="LittleEndian">
  <ImageData WholeExtent="0 15 0 15 0 0" Origin="0 0 0" Spacing="1 1 1">
    <Piece Extent="0 15 0 15 0 0">
      <PointData>
        <DataArray type="Float32" Name="rho" format="ascii">
          1.00287
          1.00458
          1.00061
          1.0038
          1.00045
          1.00107
          0.999021
          0.998428
          0.996637
          0.995955
          0.993555
          0.99456
          0.988239
          0.996815
          0.9858
          0.991552
          1.00064
          0.999456
          0.999552
          0.999253
          0.999189
          0.998905
          0.99878
          0.99849
          0.998344
          0.998011
          0.997917
          0.99744
          0.997541
          0.996958
          0.997402
          0.995278
          1.00026
          0.999659
          0.999499
          0.99935
          0.999154
          0.998991
          0.998732
          0.998553
          0.99825
          0.998092
          0.997718
          0.997591
          0.997314
          0.997111
          0.996879
          0.996422
          0.999911
          0.999685
          0.999565
          0.99945
          0.999237
          0.999017
          0.99877
          0.998504
          0.998275
          0.997922
          0.997725
          0.997454
          0.997104
          0.997083
          0.996918
          0.996496
          0.99988
          0.999834
          0.999752
          0.999534
          0.999354
          0.999096
          0.99881
          0.998468
          0.998197
          0.997904
          0.997562
          0.997219
          0.997113
          0.996784
          0.996698
          0.996632
          0.999561
          1.00004
          0.999893
          0.999726
          0.99946
          0.999161
          0.998835
          0.998513
          0.99808
          0.997819
          0.997398
          0.997128
          0.996812
          0.996629
          0.996498
          0.996675
          0.999356
          1.00022
          1.0001
          0.999859
          0.99963
          0.999225
          0.998849
          0.998502
          0.998098
          0.997558
          0.997364
          0.996897
          0.996586
          0.996404
          0.996244
          0.996733
          0.999084
          1.0005
          1.00029
          1.00007
          0.999647
          0.999424
          0.998916
          0.998329
          0.998097
          0.99761
          0.996946
          0.996828
          0.996371
          0.996123
          0.995929
          0.996791
          0.998651
          1.00055
          1.00054
          1.00015
          0.999927
          0.999363
          0.998949
          0.99856
          0.997745
          0.997574
          0.997043
          0.996314
          0.99634
          0.995804
          0.995853
          0.996878
          0.998385
          1.00102
          1.00053
          1.00041
          1.00001
          0.999404
          0.999013
          0.998469
          0.997995
          0.99705
          0.997086
          0.996448
          0.995711
          0.996003
          0.995164
          0.996946
          0.997278
          1.00065
          1.00089
          1.00052
          0.999799
          0.999826
          0.998941
          0.998282
          0.998005
          0.997476
          0.996195
          0.996728
          0.995778
          0.995014
          0.995869
          0.997205
          0.998149
          1.00152
          1.00095
          1.00021
          1.00052
          0.999352
          0.999086
          0.998599
          0.997544
          0.997357
          0.997102
          0.995062
          0.996466
          0.995409
          0.994075
          0.997044
          0.993116
          1.00061
          1.00072
          1.00121
          0.99985
          0.999702
          0.99914
          0.998337
          0.998008
          0.996887
          0.996586
          0.996808
          0.994369
          0.995946
          0.995732
          0.997511
          0.996163
          1.00225
          1.00113
          1.00046
          1.00022
          0.99987
          0.998946
          0.99855
          0.997697
          0.997527
          0.996036
          0.996229
          0.99618
          0.993295
          0.992031
          0.99983
          0.976329
          0.999266
          1.00202
          1.00012
          1.00087
          0.999273
          0.999439
          0.998281
          0.998078
          0.996813
          0.997235
          0.99486
          0.996238
          0.992248
          1.00092
          1.00164
          0.939541
          0.990383
          0.996853
          1.00072
          0.999606
          0.999895
          0.998842
          0.998631
          0.997582
          0.997436
          0.996001
          0.996772
          0.993693
          0.999123
          0.99274
          1.02754
        </DataArray>
        <DataArray type="Float32" Name="ux" format="ascii">
          0
          0
          0
          0
          0
          0
          0
          0
          0
          0
          0
          0
          0
          0
          0
          0
          0
          0.000400722
          0.000576376
          0.000861678
          0.00136205
          0.00147094
          0.00174861
          0.00188004
          0.00191865
          0.00192889
          0.00163913
          0.00181612
          0.000913241
          0.000898201
          0.000941755
          0
          0
          0.000231675
          0.000851686
          0.000809693
          0.0010447
          0.00139838
          0.0014484
          0.00160537
          0.0016809
          0.00156235
          0.00171713
          0.00114648
          0.00110109
          0.00134639
          8.8407e-05
          0
          0
          -0.000139947
          0.000242285
          0.000507019
          0.000682057
          0.000768584
          0.00110017
          0.00104341
          0.00104835
          0.0012327
          0.000766128
          0.000859908
          0.0006578
          8.97993e-05
          -0.000371327
          0
          0
          -0.000160812
          0.00023086
          0.000180342
          0.000567441
          0.000562612
          0.000641638
          0.000869873
          0.000877241
          0.000665353
          0.000825817
          0.000820815
          0.000179186
          0.000521756
          -0.000126113
          0
          0
          -0.000543035
          -4.27672e-05
          -0.000237511
          4.96402e-05
          0.000180556
          0.000123867
          0.0002852
          0.000378232
          0.000243543
          0.000237085
          6.38336e-05
          -0.000140254
          6.66559e-05
          -0.000833046
          0
          0
          -0.000893653
          -0.000427957
          -0.000519217
          -0.000467632
          -0.000418915
          -1.24755e-05
          -0.000382926
          -0.000283861
          0.000172128
          -0.000387866
          -0.000365888
          -0.000366095
          -0.000279139
          -0.00110405
          0
          0
          -0.00107668
          -0.00053885
          -0.000935484
          -0.000690596
          -0.00074674
          -0.000710773
          -0.000428208
          -0.000719671
          -0.000757796
          -0.000222065
          -0.000631841
          -0.000961466
          -0.000244358
          -0.00137585
          0
          0
          -0.00182757
          -0.00132961
          -0.00175044
          -0.00127045
          -0.00139785
          -0.00173825
          -0.0012188
          -0.000904691
          -0.00172382
          -0.00144799
          -0.000757409
          -0.00156788
          -0.00120458
          -0.00217235
          0
          0
          -0.00146488
          -0.00102735
          -0.00136435
          -0.00150122
          -0.00177354
          -0.000989844
          -0.00189879
          -0.00151078
          -0.000357859
          -0.002016
          -0.00142836
          -0.000445184
          -0.000543934
          -0.00194606
          0
          0
          -0.00387422
          -0.00274174
          -0.00339489
          -0.00369975
          -0.0029978
          -0.00327817
          -0.00289992
          -0.00352291
          -0.00311015
          -0.00154082
          -0.00412551
          -0.0032678
          -0.00138433
          -0.00468328
          0
          0
          -0.000265549
          -0.000471725
          -0.00227498
          -0.000466768
          -0.00155649
          -0.001738
          -0.000945208
          -0.000502847
          -0.00190148
          -0.000909254
          0.00228612
          -0.00197457
          0.0010115
          0.00148639
          0
          0
          -0.00842843
          -0.00808311
          -0.00597608
          -0.00724071
          -0.00716988
          -0.00596605
          -0.00699588
          -0.00673527
          -0.00548043
          -0.00869942
          -0.00784059
          -0.00366319
          -0.0110418
          -0.0142986
          0
          0
          -0.000142472
          0.00296733
          -0.000933672
          -0.00060687
          0.000331782
          -0.000759119
          -1.9062e-05
          0.000125795
          0.00039668
          0.00360349
          0.00085639
          0.00331758
          0.0133835
          0.0047759
          0
          0
          -0.0126262
          -0.0128173
          -0.0108407
          -0.00826816
          -0.00896633
          -0.00767147
          -0.00798873
          -0.00841188
          -0.00908005
          -0.0113827
          -0.00967576
          -0.0170514
          -0.0181529
          -0.0138743
          0
          0.0256
          0.0256
          0.0256
          0.0256
          0.0256
          0.0256
          0.0256
          0.0256
          0.0256
          0.0256
          0.0256
          0.0256
          0.0256
          0.0256
          0.0256
          0.0256
        </DataArray>
        <DataArray type="Float32" Name="uy" format="ascii">
          0
          0
          0
          0
          0
          0
          0
          0
          0
          0
          0
          0
          0
          0
          0
          0
          0
          0.00146176
          0.000940362
          0.00109755
          0.000775493
          0.000598009
          0.000220148
          -8.64809e-05
          -0.000414645
          -0.000814357
          -0.00109125
          -0.00159582
          -0.00177857
          -0.00157188
          -0.00271569
          0
          0
          0.00173338
          0.00129355
          0.00139596
          0.000776344
          0.000797071
          0.00026549
          -9.71396e-05
          -0.000401643
          -0.000807922
          -0.00136649
          -0.00132376
          -0.00216727
          -0.00201406
          -0.0026268
          0
          0
          0.00211724
          0.00119193
          0.0018952
          0.000791548
          0.000903117
          0.00034071
          7.43656e-05
          -0.000476366
          -0.000749258
          -0.00130959
          -0.00111638
          -0.00285601
          -0.00110561
          -0.00307094
          0
          0
          0.00246073
          0.00144039
          0.00193603
          0.00111601
          0.00097351
          0.000368745
          0.000179131
          -0.000458906
          -0.000785647
          -0.00127995
          -0.00148516
          -0.00249692
          -0.00142638
          -0.00326348
          0
          0
          0.00275251
          0.0015586
          0.00231509
          0.000936624
          0.00140623
          0.00040394
          1.61452e-05
          -0.000196461
          -0.000662249
          -0.00177909
          -0.000851768
          -0.00303636
          -0.00126747
          -0.00338287
          0
          0
          0.00316489
          0.00157243
          0.00268212
          0.0010576
          0.00140223
          0.000553452
          0.000265096
          -0.000543503
          -0.000535749
          -0.00153021
          -0.00109586
          -0.00336585
          -0.000862227
          -0.00384979
          0
          0
          0.00351122
          0.00154039
          0.00299875
          0.00125953
          0.00133855
          0.000539651
          0.000626424
          -0.000612488
          -0.000897405
          -0.00120362
          -0.000986107
          -0.00390264
          -0.000436731
          -0.00415285
          0
          0
          0.00408958
          0.00143918
          0.00357847
          0.000761539
          0.00208518
          0.00044038
          5.17741e-05
          0.000132862
          -0.000801112
          -0.00239813
          0.000129514
          -0.00466165
          4.84944e-05
          -0.00476488
          0
          0
          0.00429979
          0.00166199
          0.00338431
          0.00117192
          0.00199435
          0.000449076
          0.000339756
          -0.000791402
          0.00013143
          -0.00214436
          -0.00134386
          -0.00378274
          0.0002916
          -0.00504171
          0
          0
          0.00563634
          0.00056689
          0.00467269
          0.00118732
          0.00145157
          0.000699257
          0.000760752
          -0.00105862
          -0.00122702
          -0.000595576
          -0.000913231
          -0.00727536
          0.00371848
          -0.00691366
          0
          0
          0.00521581
          0.00122725
          0.00516813
          -0.000281849
          0.00268663
          2.559e-05
          0.000210705
          -0.000202899
          -0.00113302
          -0.0033796
          0.00238354
          -0.00786026
          0.00138069
          -0.00434488
          0
          0
          0.00732659
          0.00156408
          0.00375064
          0.00136106
          0.00193159
          7.46519e-05
          0.000145534
          -0.000948945
          -0.000178334
          -0.00305844
          -0.002372
          -0.00412738
          0.00327064
          -0.00957855
          0
          0
          0.00836367
          -0.00207893
          0.0066285
          -0.000443625
          0.00182354
          -7.82745e-05
          0.000473504
          -0.0014433
          -0.000498055
          -0.00170263
          -0.000495655
          -0.0119329
          0.0144003
          -0.0104924
          0
          0
          0.00783815
          -0.000231704
          0.00670539
          -0.00137227
          0.00254331
          -0.000479725
          9.41342e-05
          -0.00158889
          -0.00130004
          -0.00410181
          0.00123753
          -0.0144356
          0.00662252
          -0.00833247
          0
          0
          0
          0
          0
          0
          0
          0
          0
          0
          0
          0
          0
          0
          0
          0
          0
        </DataArray>
        <DataArray type="Float32" Name="velocity" NumberOfComponents="3" format="ascii">
          0 0 0
          0 0 0
          0 0 0
          0 0 0
          0 0 0
          0 0 0
          0 0 0
          0 0 0
          0 0 0
          0 0 0
          0 0 0
          0 0 0
          0 0 0
          0 0 0
          0 0 0
          0 0 0
          0 0 0
          0.000400722 0.00146176 0
          0.000576376 0.000940362 0
          0.000861678 0.00109755 0
          0.00136205 0.000775493 0
          0.00147094 0.000598009 0
          0.00174861 0.000220148 0
          0.00188004 -8.64809e-05 0
          0.00191865 -0.000414645 0
          0.00192889 -0.000814357 0
          0.00163913 -0.00109125 0
          0.00181612 -0.00159582 0
          0.000913241 -0.00177857 0
          0.000898201 -0.00157188 0
          0.000941755 -0.00271569 0
          0 0 0
          0 0 0
          0.000231675 0.00173338 0
          0.000851686 0.00129355 0
          0.000809693 0.00139596 0
          0.0010447 0.000776344 0
          0.00139838 0.000797071 0
          0.0014484 0.00026549 0
          0.00160537 -9.71396e-05 0
          0.0016809 -0.000401643 0
          0.00156235 -0.000807922 0
          0.00171713 -0.00136649 0
          0.00114648 -0.00132376 0
          0.00110109 -0.00216727 0
          0.00134639 -0.00201406 0
          8.8407e-05 -0.0026268 0
          0 0 0
          0 0 0
          -0.000139947 0.00211724 0
          0.000242285 0.00119193 0
          0.000507019 0.0018952 0
          0.000682057 0.000791548 0
          0.000768584 0.000903117 0
          0.00110017 0.00034071 0
          0.00104341 7.43656e-05 0
          0.00104835 -0.000476366 0
          0.0012327 -0.000749258 0
          0.000766128 -0.00130959 0
          0.000859908 -0.00111638 0
          0.0006578 -0.00285601 0
          8.97993e-05 -0.00110561 0
          -0.000371327 -0.00307094 0
          0 0 0
          0 0 0
          -0.000160812 0.00246073 0
          0.00023086 0.00144039 0
          0.000180342 0.00193603 0
          0.000567441 0.00111601 0
          0.000562612 0.00097351 0
          0.000641638 0.000368745 0
          0.000869873 0.000179131 0
          0.000877241 -0.000458906 0
          0.000665353 -0.000785647 0
          0.000825817 -0.00127995 0
          0.000820815 -0.00148516 0
          0.000179186 -0.00249692 0
          0.000521756 -0.00142638 0
          -0.000126113 -0.00326348 0
          0 0 0
          0 0 0
          -0.000543035 0.00275251 0
          -4.27672e-05 0.0015586 0
          -0.000237511 0.00231509 0
          4.96402e-05 0.000936624 0
          0.000180556 0.00140623 0
          0.000123867 0.00040394 0
          0.0002852 1.61452e-05 0
          0.000378232 -0.000196461 0
          0.000243543 -0.000662249 0
          0.000237085 -0.00177909 0
          6.38336e-05 -0.000851768 0
          -0.000140254 -0.00303636 0
          6.66559e-05 -0.00126747 0
          -0.000833046 -0.00338287 0
          0 0 0
          0 0 0
          -0.000893653 0.00316489 0
          -0.000427957 0.00157243 0
          -0.000519217 0.00268212 0
          -0.000467632 0.0010576 0
          -0.000418915 0.00140223 0
          -1.24755e-05 0.000553452 0
          -0.000382926 0.000265096 0
          -0.000283861 -0.000543503 0
          0.000172128 -0.000535749 0
          -0.000387866 -0.00153021 0
          -0.000365888 -0.00109586 0
          -0.000366095 -0.00336585 0
          -0.000279139 -0.000862227 0
          -0.00110405 -0.00384979 0
          0 0 0
          0 0 0
          -0.00107668 0.00351122 0
          -0.00053885 0.00154039 0
          -0.000935484 0.00299875 0
          -0.000690596 0.00125953 0
          -0.00074674 0.00133855 0
          -0.000710773 0.000539651 0
          -0.000428208 0.000626424 0
          -0.000719671 -0.000612488 0
          -0.000757796 -0.000897405 0
          -0.000222065 -0.00120362 0
          -0.000631841 -0.000986107 0
          -0.000961466 -0.00390264 0
          -0.000244358 -0.000436731 0
          -0.00137585 -0.00415285 0
          0 0 0
          0 0 0
          -0.00182757 0.00408958 0
          -0.00132961 0.00143918 0
          -0.00175044 0.00357847 0
          -0.00127045 0.000761539 0
          -0.00139785 0.00208518 0
          -0.00173825 0.00044038 0
          -0.0012188 5.17741e-05 0
          -0.000904691 0.000132862 0
          -0.00172382 -0.000801112 0
          -0.00144799 -0.00239813 0
          -0.000757409 0.000129514 0
          -0.00156788 -0.00466165 0
          -0.00120458 4.84944e-05 0
          -0.00217235 -0.00476488 0
          0 0 0
          0 0 0
          -0.00146488 0.00429979 0
          -0.00102735 0.00166199 0
          -0.00136435 0.00338431 0
          -0.00150122 0.00117192 0
          -0.00177354 0.00199435 0
          -0.000989844 0.000449076 0
          -0.00189879 0.000339756 0
          -0.00151078 -0.000791402 0
          -0.000357859 0.00013143 0
          -0.002016 -0.00214436 0
          -0.00142836 -0.00134386 0
          -0.000445184 -0.00378274 0
          -0.000543934 0.0002916 0
          -0.00194606 -0.00504171 0
          0 0 0
          0 0 0
          -0.00387422 0.00563634 0
          -0.00274174 0.00056689 0
          -0.00339489 0.00467269 0
          -0.00369975 0.00118732 0
          -0.0029978 0.00145157 0
          -0.00327817 0.000699257 0
          -0.00289992 0.000760752 0
          -0.00352291 -0.00105862 0
          -0.00311015 -0.00122702 0
          -0.00154082 -0.000595576 0
          -0.00412551 -0.000913231 0
          -0.0032678 -0.00727536 0
          -0.00138433 0.00371848 0
          -0.00468328 -0.00691366 0
          0 0 0
          0 0 0
          -0.000265549 0.00521581 0
          -0.000471725 0.00122725 0
          -0.00227498 0.00516813 0
          -0.000466768 -0.000281849 0
          -0.00155649 0.00268663 0
          -0.001738 2.559e-05 0
          -0.000945208 0.000210705 0
          -0.000502847 -0.000202899 0
          -0.00190148 -0.00113302 0
          -0.000909254 -0.0033796 0
          0.00228612 0.00238354 0
          -0.00197457 -0.00786026 0
          0.0010115 0.00138069 0
          0.00148639 -0.00434488 0
          0 0 0
          0 0 0
          -0.00842843 0.00732659 0
          -0.00808311 0.00156408 0
          -0.00597608 0.00375064 0
          -0.00724071 0.00136106 0
          -0.00716988 0.00193159 0
          -0.00596605 7.46519e-05 0
          -0.00699588 0.000145534 0
          -0.00673527 -0.000948945 0
          -0.00548043 -0.000178334 0
          -0.00869942 -0.00305844 0
          -0.00784059 -0.002372 0
          -0.00366319 -0.00412738 0
          -0.0110418 0.00327064 0
          -0.0142986 -0.00957855 0
          0 0 0
          0 0 0
          -0.000142472 0.00836367 0
          0.00296733 -0.00207893 0
          -0.000933672 0.0066285 0
          -0.00060687 -0.000443625 0
          0.000331782 0.00182354 0
          -0.000759119 -7.82745e-05 0
          -1.9062e-05 0.000473504 0
          0.000125795 -0.0014433 0
          0.00039668 -0.000498055 0
          0.00360349 -0.00170263 0
          0.00085639 -0.000495655 0
          0.00331758 -0.0119329 0
          0.0133835 0.0144003 0
          0.0047759 -0.0104924 0
          0 0 0
          0 0 0
          -0.0126262 0.00783815 0
          -0.0128173 -0.000231704 0
          -0.0108407 0.00670539 0
          -0.00826816 -0.00137227 0
          -0.00896633 0.00254331 0
          -0.00767147 -0.000479725 0
          -0.00798873 9.41342e-05 0
          -0.00841188 -0.00158889 0
          -0.00908005 -0.00130004 0
          -0.0113827 -0.00410181 0
          -0.00967576 0.00123753 0
          -0.0170514 -0.0144356 0
          -0.0181529 0.00662252 0
          -0.0138743 -0.00833247 0
          0 0 0
          0.0256 0 0
          0.0256 0 0
          0.0256 0 0
          0.0256 0 0
          0.0256 0 0
          0.0256 0 0
          0.0256 0 0
          0.0256 0 0
          0.0256 0 0
          0.0256 0 0
          0.0256 0 0
          0.0256 0 0
          0.0256 0 0
          0.0256 0 0
          0.0256 0 0
          0.0256 0 0
        </DataArray>
      </PointData>
      <CellData>
      </CellData>
    </Piece>
  </ImageData>
</VTKFile>
