<?xml version="1.0"?>
<VTKFile type="ImageData" version="0.1" byte_order="LittleEndian">
  <ImageData WholeExtent="0 15 0 15 0 0" Origin="0 0 0" Spacing="1 1 1">
    <Piece Extent="0 15 0 15 0 0">
      <PointData>
        <DataArray type="Float32" Name="rho" format="ascii">
          0.993625
          0.993618
          0.992949
          0.995478
          0.992807
          0.994417
          0.992289
          0.992712
          0.991336
          0.991764
          0.99035
          0.992678
          0.987445
          0.999146
          0.988787
          0.992756
          0.994031
          0.995293
          0.995434
          0.995318
          0.994978
          0.994969
          0.994639
          0.994426
          0.994203
          0.993993
          0.993731
          0.993637
          0.993451
          0.993223
          0.993737
          0.993297
          0.994609
          0.99557
          0.995313
          0.995256
          0.995129
          0.9948
          0.9947
          0.994439
          0.99416
          0.993994
          0.99375
          0.993563
          0.993473
          0.993313
          0.993058
          0.993867
          0.994034
          0.995433
          0.995383
          0.995168
          0.995103
          0.994889
          0.994571
          0.99446
          0.994178
          0.993915
          0.993776
          0.993549
          0.993369
          0.99329
          0.993302
          0.993968
          0.994241
          0.995389
          0.99538
          0.995235
          0.994947
          0.994912
          0.994653
          0.994269
          0.994241
          0.993901
          0.993675
          0.993541
          0.993357
          0.993257
          0.9931
          0.993941
          0.993942
          0.995426
          0.995253
          0.99525
          0.995042
          0.994695
          0.994669
          0.994421
          0.99396
          0.993993
          0.993619
          0.99345
          0.993326
          0.993152
          0.993112
          0.993947
          0.993696
          0.995373
          0.995339
          0.995055
          0.995089
          0.994812
          0.994423
          0.994443
          0.994087
          0.993675
          0.993773
          0.993297
          0.993268
          0.993103
          0.993057
          0.993997
          0.9936
          0.995433
          0.995251
          0.995224
          0.994823
          0.994915
          0.994587
          0.993968
          0.994318
          0.99375
          0.993297
          0.993617
          0.992976
          0.993142
          0.992727
          0.994031
          0.993138
          0.995213
          0.99534
          0.995116
          0.995067
          0.994558
          0.994534
          0.99451
          0.993505
          0.994061
          0.993449
          0.992908
          0.993416
          0.992493
          0.993222
          0.993961
          0.993756
          0.995616
          0.99519
          0.995191
          0.994968
          0.994695
          0.99449
          0.994176
          0.994182
          0.993072
          0.993873
          0.993064
          0.992626
          0.993453
          0.991914
          0.993898
          0.99131
          0.995082
          0.99547
          0.995118
          0.994778
          0.995095
          0.994299
          0.994022
          0.99402
          0.99383
          0.992553
          0.993867
          0.992394
          0.992004
          0.993563
          0.993893
          0.995151
          0.99614
          0.995173
          0.995062
          0.995432
          0.99431
          0.994588
          0.99431
          0.993411
          0.993718
          0.993736
          0.991296
          0.99395
          0.992251
          0.990456
          0.993913
          0.986358
          0.994192
          0.995722
          0.99583
          0.994531
          0.995
          0.994521
          0.993937
          0.994063
          0.993135
          0.993047
          0.9934
          0.991576
          0.992896
          0.993875
          0.993589
          0.992769
          0.997586
          0.995291
          0.995149
          0.995175
          0.994929
          0.994291
          0.994312
          0.993525
          0.993632
          0.992289
          0.993205
          0.992562
          0.990013
          0.987589
          0.995195
          0.97366
          0.994244
          0.996018
          0.995233
          0.995727
          0.994181
          0.995052
          0.993681
          0.994025
          0.992804
          0.993367
          0.991497
          0.992624
          0.988845
          0.999303
          0.998177
          0.942066
          0.986177
          0.992158
          0.995186
          0.994864
          0.994817
          0.994357
          0.994189
          0.993488
          0.993414
          0.992455
          0.993238
          0.990492
          0.995907
          0.989405
          1.01062
        </DataArray>
        <DataArray type="Float32" Name="ux" format="ascii">
          0
          0
          0
          0
          0
          0
          0
          0
          0
          0
          0
          0
          0
          0
          0
          0
          0
          -0.00124563
          -0.00127948
          -0.00115894
          -0.000877432
          -0.00100831
          -0.000994083
          -0.000888382
          -0.000988767
          -0.00111314
          -0.00118776
          -0.00110996
          -0.00167252
          -0.00120371
          -0.000996074
          0
          0
          -0.000204474
          2.01776e-05
          -0.000660067
          -0.000559492
          -0.000222506
          -0.000520307
          -0.000562551
          -0.000498121
          -0.000649018
          -0.00041852
          -0.000928377
          -0.000783577
          0.000251406
          -0.000413819
          0
          0
          -0.00138757
          -0.0010014
          -0.000787504
          -0.00127917
          -0.00121608
          -0.00066202
          -0.00123088
          -0.00125562
          -0.000878511
          -0.00156735
          -0.00139299
          -0.00110528
          -0.00155312
          -0.00190762
          0
          0
          -0.00073512
          -0.000752672
          -0.000803889
          -0.000220734
          -0.00099341
          -0.000935261
          -0.000265464
          -0.00060217
          -0.00102933
          -0.000585423
          -0.000393605
          -0.0010086
          -0.000261183
          -0.000748506
          0
          0
          -0.000899738
          -0.000434146
          -0.00126333
          -0.000825315
          -0.000365752
          -0.00130415
          -0.000908927
          -0.000485239
          -0.00110697
          -0.000649242
          -0.00102423
          -0.00110619
          -0.00023342
          -0.00139613
          0
          0
          -0.00136112
          -0.000795743
          -0.000825041
          -0.00141065
          -0.00108216
          0.000174553
          -0.00174433
          -0.00121918
          0.000337534
          -0.00140519
          -0.00102414
          -0.00067484
          -0.000632742
          -0.00151359
          0
          0
          -0.000982641
          -0.000694636
          -0.000905735
          -0.00022622
          -0.00110534
          -0.000997656
          0.000402254
          -0.00088065
          -0.00104987
          0.000479676
          -0.000627323
          -0.000731657
          0.00025451
          -0.0014766
          0
          0
          -0.00196953
          -0.0012562
          -0.00185797
          -0.00104055
          -0.00115285
          -0.0022444
          -0.000698613
          0.000269318
          -0.00219518
          -0.000873574
          0.000201685
          -0.00154338
          -0.000527503
          -0.00222794
          0
          0
          -0.000215396
          0.000127624
          -0.000231676
          -0.000689096
          -0.000454194
          0.00179595
          -0.00134787
          0.000116733
          0.00331285
          -0.00101369
          0.000957999
          0.00233345
          0.00173986
          0.000478203
          0
          0
          -0.00409956
          -0.00272583
          -0.00357758
          -0.00287251
          -0.0016713
          -0.00298395
          -0.00133942
          -0.00322792
          -0.00278965
          0.000986785
          -0.00513118
          -0.0017384
          -0.000370252
          -0.00735703
          0
          0
          0.00180897
          0.000858603
          0.000225637
          0.00330335
          0.000366602
          0.00130551
          0.00272262
          0.00427411
          0.00205413
          0.00406514
          0.0109785
          0.00306357
          0.00856053
          0.00932073
          0
          0
          -0.00856385
          -0.00593386
          -0.00345759
          -0.00686735
          -0.00581177
          -0.00448527
          -0.0059117
          -0.00497511
          -0.00340296
          -0.00820248
          -0.00779515
          -0.00220421
          -0.016991
          -0.0199707
          0
          0
          0.00744634
          0.0117383
          0.0041376
          0.0073556
          0.00761371
          0.00653854
          0.00763906
          0.0075692
          0.00792766
          0.0114485
          0.00697032
          0.0100042
          0.0198882
          0.00867421
          0
          0
          -0.0187907
          -0.0251808
          -0.0234379
          -0.0245776
          -0.0272757
          -0.0271248
          -0.0294354
          -0.0304156
          -0.0312464
          -0.0321896
          -0.0280743
          -0.0335593
          -0.028331
          -0.014385
          0
          0.0256
          0.0256
          0.0256
          0.0256
          0.0256
          0.0256
          0.0256
          0.0256
          0.0256
          0.0256
          0.0256
          0.0256
          0.0256
          0.0256
          0.0256
          0.0256
        </DataArray>
        <DataArray type="Float32" Name="uy" format="ascii">
          0
          0
          0
          0
          0
          0
          0
          0
          0
          0
          0
          0
          0
          0
          0
          0
          0
          -0.00052542
          -0.00102894
          -0.000103824
          -0.00094506
          9.23283e-05
          -0.00109734
          -0.000311414
          -0.000987026
          -0.000410283
          -0.00113412
          -8.12834e-05
          -0.00134282
          0.0013589
          -0.000757745
          0
          0
          -0.0004314
          -0.000760459
          3.27835e-05
          -0.00130936
          0.000310059
          -0.000998153
          -0.000512237
          -0.000735377
          -0.000429363
          -0.00131853
          0.000504002
          -0.00193981
          0.000784287
          -0.000843361
          0
          0
          -0.000325589
          -0.00110232
          0.000555508
          -0.00132186
          -0.00020093
          -0.000589059
          -0.000273145
          -0.000903405
          -0.000308302
          -0.000791402
          0.000633919
          -0.00250333
          0.00174921
          -0.0013373
          0
          0
          0.000154444
          -0.00141673
          0.000275221
          -0.000836175
          -0.000149674
          -0.00122334
          0.000298284
          -0.00108027
          -0.000113777
          -0.00072227
          0.000321931
          -0.00218532
          0.00193977
          -0.00188327
          0
          0
          5.7096e-05
          -0.0011223
          0.000257177
          -0.00155561
          0.000800245
          -0.00119781
          -0.00087868
          0.000217475
          -0.000256517
          -0.00141798
          0.00154064
          -0.00293929
          0.00222384
          -0.00166767
          0
          0
          0.000238737
          -0.00153622
          0.00100405
          -0.00183862
          2.9132e-05
          -0.000465358
          -0.000243746
          -0.00133947
          0.000551527
          -0.000963959
          0.00127757
          -0.00334002
          0.00288153
          -0.0018936
          0
          0
          0.000280538
          -0.00173712
          0.000666192
          -0.00112979
          -0.000599937
          -0.00106549
          0.00102729
          -0.00181588
          -0.00038504
          0.00047986
          0.000908768
          -0.00359634
          0.00372022
          -0.00178532
          0
          0
          0.000697511
          -0.00209819
          0.000973524
          -0.00237374
          0.00134488
          -0.00183977
          -0.00130779
          0.00112487
          -0.000751456
          -0.00210844
          0.00401011
          -0.00555104
          0.0052779
          -0.0021329
          0
          0
          0.000196772
          -0.00180083
          0.000494326
          -0.00178306
          0.000207952
          -0.00152116
          -0.000446158
          -0.0019795
          0.00212161
          -0.00202962
          0.00125045
          -0.0024303
          0.00386797
          -5.06432e-05
          0
          0
          0.00102736
          -0.002975
          0.00195384
          -0.00249001
          -0.00117552
          -0.000855036
          0.000374346
          -0.0025266
          -0.00118087
          0.00208584
          0.00109313
          -0.0081546
          0.0109535
          -0.00260349
          0
          0
          0.000134045
          -0.00186428
          0.000791161
          -0.00460261
          0.00165347
          -0.00275684
          -0.000715503
          -0.000370236
          -0.00125377
          -0.00297792
          0.00726568
          -0.00984169
          0.00867195
          0.00448223
          0
          0
          0.00240786
          -0.00313885
          -0.000959939
          -0.00140941
          -0.000294412
          -0.00281926
          -0.00157589
          -0.00247276
          0.000545576
          -0.00385212
          -0.00061565
          -0.00138841
          0.00881943
          -0.0001745
          0
          0
          -0.0025308
          -0.00533137
          0.00331709
          -0.0043264
          0.000217859
          -0.00282143
          -0.000984542
          -0.00247214
          0.000453385
          0.000487713
          0.00200404
          -0.00819811
          0.0277605
          -0.00381768
          0
          0
          -0.00263069
          -0.000893474
          0.00347891
          -0.00513234
          0.00183264
          -0.00350518
          -0.000748699
          -0.00313349
          -0.0010083
          -0.00378107
          0.00359058
          -0.0136245
          0.0150092
          -0.000579119
          0
          0
          0
          0
          0
          0
          0
          0
          0
          0
          0
          0
          0
          0
          0
          0
          0
        </DataArray>
        <DataArray type="Float32" Name="velocity" NumberOfComponents="3" format="ascii">
          0 0 0
          0 0 0
          0 0 0
          0 0 0
          0 0 0
          0 0 0
          0 0 0
          0 0 0
          0 0 0
          0 0 0
          0 0 0
          0 0 0
          0 0 0
          0 0 0
          0 0 0
          0 0 0
          0 0 0
          -0.00124563 -0.00052542 0
          -0.00127948 -0.00102894 0
          -0.00115894 -0.000103824 0
          -0.000877432 -0.00094506 0
          -0.00100831 9.23283e-05 0
          -0.000994083 -0.00109734 0
          -0.000888382 -0.000311414 0
          -0.000988767 -0.000987026 0
          -0.00111314 -0.000410283 0
          -0.00118776 -0.00113412 0
          -0.00110996 -8.12834e-05 0
          -0.00167252 -0.00134282 0
          -0.00120371 0.0013589 0
          -0.000996074 -0.000757745 0
          0 0 0
          0 0 0
          -0.000204474 -0.0004314 0
          2.01776e-05 -0.000760459 0
          -0.000660067 3.27835e-05 0
          -0.000559492 -0.00130936 0
          -0.000222506 0.000310059 0
          -0.000520307 -0.000998153 0
          -0.000562551 -0.000512237 0
          -0.000498121 -0.000735377 0
          -0.000649018 -0.000429363 0
          -0.00041852 -0.00131853 0
          -0.000928377 0.000504002 0
          -0.000783577 -0.00193981 0
          0.000251406 0.000784287 0
          -0.000413819 -0.000843361 0
          0 0 0
          0 0 0
          -0.00138757 -0.000325589 0
          -0.0010014 -0.00110232 0
          -0.000787504 0.000555508 0
          -0.00127917 -0.00132186 0
          -0.00121608 -0.00020093 0
          -0.00066202 -0.000589059 0
          -0.00123088 -0.000273145 0
          -0.00125562 -0.000903405 0
          -0.000878511 -0.000308302 0
          -0.00156735 -0.000791402 0
          -0.00139299 0.000633919 0
          -0.00110528 -0.00250333 0
          -0.00155312 0.00174921 0
          -0.00190762 -0.0013373 0
          0 0 0
          0 0 0
          -0.00073512 0.000154444 0
          -0.000752672 -0.00141673 0
          -0.000803889 0.000275221 0
          -0.000220734 -0.000836175 0
          -0.00099341 -0.000149674 0
          -0.000935261 -0.00122334 0
          -0.000265464 0.000298284 0
          -0.00060217 -0.00108027 0
          -0.00102933 -0.000113777 0
          -0.000585423 -0.00072227 0
          -0.000393605 0.000321931 0
          -0.0010086 -0.00218532 0
          -0.000261183 0.00193977 0
          -0.000748506 -0.00188327 0
          0 0 0
          0 0 0
          -0.000899738 5.7096e-05 0
          -0.000434146 -0.0011223 0
          -0.00126333 0.000257177 0
          -0.000825315 -0.00155561 0
          -0.000365752 0.000800245 0
          -0.00130415 -0.00119781 0
          -0.000908927 -0.00087868 0
          -0.000485239 0.000217475 0
          -0.00110697 -0.000256517 0
          -0.000649242 -0.00141798 0
          -0.00102423 0.00154064 0
          -0.00110619 -0.00293929 0
          -0.00023342 0.00222384 0
          -0.00139613 -0.00166767 0
          0 0 0
          0 0 0
          -0.00136112 0.000238737 0
          -0.000795743 -0.00153622 0
          -0.000825041 0.00100405 0
          -0.00141065 -0.00183862 0
          -0.00108216 2.9132e-05 0
          0.000174553 -0.000465358 0
          -0.00174433 -0.000243746 0
          -0.00121918 -0.00133947 0
          0.000337534 0.000551527 0
          -0.00140519 -0.000963959 0
          -0.00102414 0.00127757 0
          -0.00067484 -0.00334002 0
          -0.000632742 0.00288153 0
          -0.00151359 -0.0018936 0
          0 0 0
          0 0 0
          -0.000982641 0.000280538 0
          -0.000694636 -0.00173712 0
          -0.000905735 0.000666192 0
          -0.00022622 -0.00112979 0
          -0.00110534 -0.000599937 0
          -0.000997656 -0.00106549 0
          0.000402254 0.00102729 0
          -0.00088065 -0.00181588 0
          -0.00104987 -0.00038504 0
          0.000479676 0.00047986 0
          -0.000627323 0.000908768 0
          -0.000731657 -0.00359634 0
          0.00025451 0.00372022 0
          -0.0014766 -0.00178532 0
          0 0 0
          0 0 0
          -0.00196953 0.000697511 0
          -0.0012562 -0.00209819 0
          -0.00185797 0.000973524 0
          -0.00104055 -0.00237374 0
          -0.00115285 0.00134488 0
          -0.0022444 -0.00183977 0
          -0.000698613 -0.00130779 0
          0.000269318 0.00112487 0
          -0.00219518 -0.000751456 0
          -0.000873574 -0.00210844 0
          0.000201685 0.00401011 0
          -0.00154338 -0.00555104 0
          -0.000527503 0.0052779 0
          -0.00222794 -0.0021329 0
          0 0 0
          0 0 0
          -0.000215396 0.000196772 0
          0.000127624 -0.00180083 0
          -0.000231676 0.000494326 0
          -0.000689096 -0.00178306 0
          -0.000454194 0.000207952 0
          0.00179595 -0.00152116 0
          -0.00134787 -0.000446158 0
          0.000116733 -0.0019795 0
          0.00331285 0.00212161 0
          -0.00101369 -0.00202962 0
          0.000957999 0.00125045 0
          0.00233345 -0.0024303 0
          0.00173986 0.00386797 0
          0.000478203 -5.06432e-05 0
          0 0 0
          0 0 0
          -0.00409956 0.00102736 0
          -0.00272583 -0.002975 0
          -0.00357758 0.00195384 0
          -0.00287251 -0.00249001 0
          -0.0016713 -0.00117552 0
          -0.00298395 -0.000855036 0
          -0.00133942 0.000374346 0
          -0.00322792 -0.0025266 0
          -0.00278965 -0.00118087 0
          0.000986785 0.00208584 0
          -0.00513118 0.00109313 0
          -0.0017384 -0.0081546 0
          -0.000370252 0.0109535 0
          -0.00735703 -0.00260349 0
          0 0 0
          0 0 0
          0.00180897 0.000134045 0
          0.000858603 -0.00186428 0
          0.000225637 0.000791161 0
          0.00330335 -0.00460261 0
          0.000366602 0.00165347 0
          0.00130551 -0.00275684 0
          0.00272262 -0.000715503 0
          0.00427411 -0.000370236 0
          0.00205413 -0.00125377 0
          0.00406514 -0.00297792 0
          0.0109785 0.00726568 0
          0.00306357 -0.00984169 0
          0.00856053 0.00867195 0
          0.00932073 0.00448223 0
          0 0 0
          0 0 0
          -0.00856385 0.00240786 0
          -0.00593386 -0.00313885 0
          -0.00345759 -0.000959939 0
          -0.00686735 -0.00140941 0
          -0.00581177 -0.000294412 0
          -0.00448527 -0.00281926 0
          -0.0059117 -0.00157589 0
          -0.00497511 -0.00247276 0
          -0.00340296 0.000545576 0
          -0.00820248 -0.00385212 0
          -0.00779515 -0.00061565 0
          -0.00220421 -0.00138841 0
          -0.016991 0.00881943 0
          -0.0199707 -0.0001745 0
          0 0 0
          0 0 0
          0.00744634 -0.0025308 0
          0.0117383 -0.00533137 0
          0.0041376 0.00331709 0
          0.0073556 -0.0043264 0
          0.00761371 0.000217859 0
          0.00653854 -0.00282143 0
          0.00763906 -0.000984542 0
          0.0075692 -0.00247214 0
          0.00792766 0.000453385 0
          0.0114485 0.000487713 0
          0.00697032 0.00200404 0
          0.0100042 -0.00819811 0
          0.0198882 0.0277605 0
          0.00867421 -0.00381768 0
          0 0 0
          0 0 0
          -0.0187907 -0.00263069 0
          -0.0251808 -0.000893474 0
          -0.0234379 0.00347891 0
          -0.0245776 -0.00513234 0
          -0.0272757 0.00183264 0
          -0.0271248 -0.00350518 0
          -0.0294354 -0.000748699 0
          -0.0304156 -0.00313349 0
          -0.0312464 -0.0010083 0
          -0.0321896 -0.00378107 0
          -0.0280743 0.00359058 0
          -0.0335593 -0.0136245 0
          -0.028331 0.0150092 0
          -0.014385 -0.000579119 0
          0 0 0
          0.0256 0 0
          0.0256 0 0
          0.0256 0 0
          0.0256 0 0
          0.0256 0 0
          0.0256 0 0
          0.0256 0 0
          0.0256 0 0
          0.0256 0 0
          0.0256 0 0
          0.0256 0 0
          0.0256 0 0
          0.0256 0 0
          0.0256 0 0
          0.0256 0 0
          0.0256 0 0
        </DataArray>
      </PointData>
      <CellData>
      </CellData>
    </Piece>
  </ImageData>
</VTKFile>
