<?xml version="1.0"?>
<VTKFile type="ImageData" version="0.1" byte_order="LittleEndian">
  <ImageData WholeExtent="0 15 0 15 0 0" Origin="0 0 0" Spacing="1 1 1">
    <Piece Extent="0 15 0 15 0 0">
      <PointData>
        <DataArray type="Float32" Name="rho" format="ascii">
          0.981153
          0.971983
          0.977024
          0.974044
          0.976939
          0.976155
          0.976157
          0.977856
          0.977197
          0.980689
          0.981181
          0.989079
          0.9856
          1.00235
          1.00003
          0.993699
          0.985532
          0.987812
          0.987688
          0.987903
          0.987373
          0.987814
          0.987425
          0.987569
          0.987511
          0.987569
          0.987633
          0.987906
          0.987883
          0.988139
          0.98866
          0.988797
          0.987559
          0.988047
          0.987794
          0.987956
          0.98794
          0.98765
          0.987877
          0.987654
          0.987699
          0.987764
          0.987771
          0.9878
          0.98802
          0.988077
          0.987889
          0.988356
          0.987282
          0.988212
          0.988317
          0.987974
          0.988176
          0.988065
          0.987802
          0.988016
          0.987792
          0.987853
          0.987834
          0.987837
          0.987925
          0.98787
          0.988001
          0.988125
          0.987976
          0.988465
          0.988477
          0.988534
          0.98815
          0.98832
          0.988156
          0.987915
          0.988149
          0.987739
          0.987931
          0.987873
          0.987741
          0.98786
          0.987797
          0.9876
          0.988595
          0.98891
          0.988692
          0.988748
          0.988657
          0.988238
          0.988513
          0.988174
          0.987835
          0.988213
          0.987687
          0.987835
          0.987681
          0.98767
          0.987493
          0.987561
          0.988375
          0.989305
          0.989252
          0.988832
          0.988916
          0.988884
          0.98818
          0.988486
          0.988099
          0.987824
          0.988065
          0.987367
          0.987802
          0.987245
          0.987815
          0.986681
          0.990085
          0.989619
          0.989522
          0.989515
          0.989084
          0.988903
          0.988713
          0.98809
          0.988637
          0.98764
          0.987601
          0.987946
          0.986949
          0.987849
          0.986171
          0.98696
          0.987986
          0.990353
          0.98997
          0.989974
          0.989378
          0.988831
          0.989032
          0.988769
          0.9875
          0.988626
          0.987193
          0.987225
          0.987556
          0.985867
          0.988363
          0.984641
          0.994366
          0.990745
          0.990869
          0.989817
          0.989666
          0.989764
          0.988694
          0.988413
          0.988526
          0.986814
          0.988504
          0.986277
          0.986797
          0.987612
          0.983817
          0.985962
          0.984904
          0.991936
          0.990858
          0.990441
          0.990523
          0.989639
          0.988628
          0.98853
          0.988148
          0.987996
          0.986253
          0.988412
          0.985402
          0.985287
          0.988669
          0.9807
          1.00054
          0.992113
          0.991117
          0.992362
          0.989628
          0.98909
          0.989251
          0.988546
          0.987451
          0.987719
          0.987753
          0.983287
          0.988392
          0.985002
          0.978478
          0.986045
          0.980093
          0.992493
          0.99426
          0.989103
          0.989628
          0.989744
          0.988745
          0.988318
          0.987969
          0.987095
          0.986282
          0.986763
          0.985031
          0.983692
          0.990605
          0.975046
          1.00451
          0.995421
          0.991506
          0.989923
          0.989853
          0.989166
          0.987615
          0.988158
          0.986738
          0.987276
          0.984039
          0.985879
          0.98647
          0.979315
          0.976288
          0.990599
          0.983387
          1.00287
          0.988783
          0.994042
          0.988879
          0.989551
          0.989094
          0.987301
          0.988959
          0.985771
          0.987151
          0.985017
          0.984254
          0.978972
          0.992206
          0.993196
          0.944337
          0.993319
          0.991833
          0.990614
          0.991277
          0.988155
          0.989461
          0.987371
          0.987678
          0.986651
          0.985947
          0.986989
          0.982103
          0.986674
          0.981089
          0.96431
        </DataArray>
        <DataArray type="Float32" Name="ux" format="ascii">
          0
          0
          0
          0
          0
          0
          0
          0
          0
          0
          0
          0
          0
          0
          0
          0
          0
          -0.000882775
          -0.000121325
          0.000166687
          0.000570245
          0.000775053
          0.000538952
          0.000507313
          -3.62811e-05
          -0.000636843
          -0.00122453
          -0.0017036
          -0.00242981
          -0.00235045
          -0.00183474
          0
          0
          0.000501056
          0.000931899
          0.000955442
          0.00155348
          0.00199186
          0.00180562
          0.00157784
          0.0013577
          0.00081131
          0.00049789
          -0.000423015
          -0.000802898
          0.000322559
          8.37172e-05
          0
          0
          -0.000695969
          0.000298759
          0.00113236
          0.000965915
          0.00133548
          0.00191356
          0.00121314
          0.00128076
          0.000968618
          -0.000139995
          -0.000294394
          -0.000413179
          -0.000832227
          -0.0015615
          0
          0
          0.000562376
          0.00103034
          0.00155859
          0.00298587
          0.00218764
          0.00265306
          0.00341856
          0.00252344
          0.00193375
          0.00177956
          0.00169307
          0.000536722
          0.000468148
          -0.000188848
          0
          0
          0.000474347
          0.00201531
          0.00180449
          0.00265331
          0.00412999
          0.00336153
          0.0034793
          0.00375314
          0.00270298
          0.00343786
          0.00200377
          0.001156
          0.00229343
          0.000130413
          0
          0
          0.000403789
          0.00193565
          0.0031598
          0.00356129
          0.00407734
          0.00571245
          0.00303956
          0.00435162
          0.00536028
          0.00244663
          0.00261162
          0.00190674
          0.00142982
          -0.00035965
          0
          0
          0.00130175
          0.00286268
          0.00415797
          0.00670334
          0.00513732
          0.00534431
          0.00816539
          0.00634626
          0.00595745
          0.00656588
          0.00494839
          0.00425982
          0.00410641
          0.00172918
          0
          0
          0.0012994
          0.00465217
          0.00493181
          0.00535834
          0.00652247
          0.00692968
          0.00690865
          0.0074936
          0.00297889
          0.00533227
          0.00374183
          0.000621288
          0.000185999
          -0.00411878
          0
          0
          0.00373062
          0.00674644
          0.00701132
          0.00868588
          0.0114786
          0.0146487
          0.00955179
          0.0110398
          0.0148146
          0.00918636
          0.013639
          0.0114145
          0.0129059
          0.0123029
          0
          0
          0.0016002
          0.00430897
          0.0066829
          0.0125854
          0.00994774
          0.00616748
          0.00771953
          0.00471003
          0.00275722
          0.00610442
          -0.00605716
          0.00136633
          -0.00353226
          -0.0158913
          0
          0
          0.00653422
          0.0172006
          0.0254665
          0.0241851
          0.0178751
          0.0199748
          0.0191998
          0.0227409
          0.0184308
          0.0193665
          0.0274259
          0.0146025
          0.0267291
          0.0269399
          0
          0
          0.0107071
          0.0273032
          0.0234321
          0.0146645
          0.014243
          0.0122472
          0.00465924
          0.000116085
          -0.00399285
          -0.0132008
          -0.0185887
          -0.0111305
          -0.0350968
          -0.032847
          0
          0
          0.0144041
          0.003044
          -0.00733926
          0.00486962
          0.00515994
          0.0136832
          0.0178103
          0.0246468
          0.0292326
          0.0401501
          0.0369263
          0.0392226
          0.0537844
          0.0328689
          0
          0
          -0.0527238
          -0.0871585
          -0.0893242
          -0.0981823
          -0.099706
          -0.100263
          -0.0991966
          -0.0936918
          -0.0897088
          -0.0822087
          -0.0698916
          -0.0641766
          -0.0556938
          -0.0247693
          0
          0.0256
          0.0256
          0.0256
          0.0256
          0.0256
          0.0256
          0.0256
          0.0256
          0.0256
          0.0256
          0.0256
          0.0256
          0.0256
          0.0256
          0.0256
          0.0256
        </DataArray>
        <DataArray type="Float32" Name="uy" format="ascii">
          0
          0
          0
          0
          0
          0
          0
          0
          0
          0
          0
          0
          0
          0
          0
          0
          0
          -0.00486013
          -0.00462648
          -0.0038318
          -0.00443858
          -0.00290956
          -0.00422758
          -0.00241585
          -0.00326028
          -0.0013754
          -0.00193844
          0.00116356
          -0.000393148
          0.00484294
          0.00341076
          0
          0
          -0.00540228
          -0.00478256
          -0.0039831
          -0.00508769
          -0.00266051
          -0.00395269
          -0.00231244
          -0.00243342
          -0.00104175
          -0.00136822
          0.00202384
          -0.000552248
          0.00402439
          0.00290412
          0
          0
          -0.00572804
          -0.00531373
          -0.0040967
          -0.00497381
          -0.00347507
          -0.0031077
          -0.00205495
          -0.00223917
          -0.000201871
          -0.000589257
          0.00273228
          -0.000954339
          0.00460863
          0.00278687
          0
          0
          -0.00599697
          -0.00603776
          -0.00493214
          -0.00487113
          -0.00321145
          -0.00413464
          -0.00104086
          -0.00229148
          0.000746158
          -0.000186381
          0.00269032
          -0.000172889
          0.00521563
          0.00229468
          0
          0
          -0.00719313
          -0.00610053
          -0.00539858
          -0.00606647
          -0.00258954
          -0.00406173
          -0.00211429
          -4.57914e-05
          0.000214901
          -7.48708e-05
          0.00449942
          -0.000332642
          0.00575488
          0.00343905
          0
          0
          -0.0083072
          -0.00745561
          -0.00526226
          -0.0067808
          -0.00432367
          -0.00264029
          -0.00125427
          -0.00211862
          0.00225135
          -8.39474e-05
          0.00597741
          -0.00110481
          0.00700091
          0.00425384
          0
          0
          -0.0097654
          -0.00830633
          -0.00739544
          -0.00667511
          -0.00387821
          -0.00401702
          5.76915e-05
          -0.00251179
          0.00198939
          0.00320086
          0.0046157
          0.00126134
          0.00717912
          0.0069745
          0
          0
          -0.0123167
          -0.00988701
          -0.00842607
          -0.0077941
          -0.00275442
          -0.00511833
          -0.00278182
          0.00201106
          0.00150229
          0.000601438
          0.0104501
          -0.00237017
          0.0128471
          0.00512429
          0
          0
          -0.0158699
          -0.0118399
          -0.00764302
          -0.00867756
          -0.00633034
          -0.00372714
          0.000509336
          -0.00146879
          0.00652883
          -3.79122e-06
          0.00951006
          0.00479008
          0.00794273
          0.0140196
          0
          0
          -0.0207292
          -0.0118318
          -0.0112376
          -0.0118461
          -0.00640643
          -0.00271234
          0.00111571
          -0.00105682
          0.00168789
          0.00624999
          0.00788243
          -0.00196277
          0.0184011
          0.0102274
          0
          0
          -0.0250948
          -0.0177862
          -0.0167101
          -0.00960893
          4.8914e-05
          -0.0032687
          0.0013604
          0.00251221
          0.00569626
          0.00272342
          0.0197968
          -0.0047405
          0.0205376
          0.0235504
          0
          0
          -0.0403019
          -0.0315955
          -0.0115731
          -0.0040692
          -0.00251713
          -0.00135614
          0.00108643
          0.00122425
          0.00832556
          0.00324882
          0.00890713
          0.00585563
          0.0151812
          0.0155696
          0
          0
          -0.0619463
          -0.0188013
          -0.00929023
          -0.00304143
          -0.000832069
          0.00163325
          0.00799478
          0.00589762
          0.0125032
          0.0120916
          0.0171444
          0.00117018
          0.0407248
          0.0145333
          0
          0
          -0.0334298
          -0.00493152
          -0.0132673
          -0.00925874
          -0.00655413
          -0.0104751
          -0.00279647
          -0.00829978
          -0.00039361
          -0.00554132
          0.0113628
          -0.0103881
          0.0216793
          0.0275761
          0
          0
          0
          0
          0
          0
          0
          0
          0
          0
          0
          0
          0
          0
          0
          0
          0
        </DataArray>
        <DataArray type="Float32" Name="velocity" NumberOfComponents="3" format="ascii">
          0 0 0
          0 0 0
          0 0 0
          0 0 0
          0 0 0
          0 0 0
          0 0 0
          0 0 0
          0 0 0
          0 0 0
          0 0 0
          0 0 0
          0 0 0
          0 0 0
          0 0 0
          0 0 0
          0 0 0
          -0.000882775 -0.00486013 0
          -0.000121325 -0.00462648 0
          0.000166687 -0.0038318 0
          0.000570245 -0.00443858 0
          0.000775053 -0.00290956 0
          0.000538952 -0.00422758 0
          0.000507313 -0.00241585 0
          -3.62811e-05 -0.00326028 0
          -0.000636843 -0.0013754 0
          -0.00122453 -0.00193844 0
          -0.0017036 0.00116356 0
          -0.00242981 -0.000393148 0
          -0.00235045 0.00484294 0
          -0.00183474 0.00341076 0
          0 0 0
          0 0 0
          0.000501056 -0.00540228 0
          0.000931899 -0.00478256 0
          0.000955442 -0.0039831 0
          0.00155348 -0.00508769 0
          0.00199186 -0.00266051 0
          0.00180562 -0.00395269 0
          0.00157784 -0.00231244 0
          0.0013577 -0.00243342 0
          0.00081131 -0.00104175 0
          0.00049789 -0.00136822 0
          -0.000423015 0.00202384 0
          -0.000802898 -0.000552248 0
          0.000322559 0.00402439 0
          8.37172e-05 0.00290412 0
          0 0 0
          0 0 0
          -0.000695969 -0.00572804 0
          0.000298759 -0.00531373 0
          0.00113236 -0.0040967 0
          0.000965915 -0.00497381 0
          0.00133548 -0.00347507 0
          0.00191356 -0.0031077 0
          0.00121314 -0.00205495 0
          0.00128076 -0.00223917 0
          0.000968618 -0.000201871 0
          -0.000139995 -0.000589257 0
          -0.000294394 0.00273228 0
          -0.000413179 -0.000954339 0
          -0.000832227 0.00460863 0
          -0.0015615 0.00278687 0
          0 0 0
          0 0 0
          0.000562376 -0.00599697 0
          0.00103034 -0.00603776 0
          0.00155859 -0.00493214 0
          0.00298587 -0.00487113 0
          0.00218764 -0.00321145 0
          0.00265306 -0.00413464 0
          0.00341856 -0.00104086 0
          0.00252344 -0.00229148 0
          0.00193375 0.000746158 0
          0.00177956 -0.000186381 0
          0.00169307 0.00269032 0
          0.000536722 -0.000172889 0
          0.000468148 0.00521563 0
          -0.000188848 0.00229468 0
          0 0 0
          0 0 0
          0.000474347 -0.00719313 0
          0.00201531 -0.00610053 0
          0.00180449 -0.00539858 0
          0.00265331 -0.00606647 0
          0.00412999 -0.00258954 0
          0.00336153 -0.00406173 0
          0.0034793 -0.00211429 0
          0.00375314 -4.57914e-05 0
          0.00270298 0.000214901 0
          0.00343786 -7.48708e-05 0
          0.00200377 0.00449942 0
          0.001156 -0.000332642 0
          0.00229343 0.00575488 0
          0.000130413 0.00343905 0
          0 0 0
          0 0 0
          0.000403789 -0.0083072 0
          0.00193565 -0.00745561 0
          0.0031598 -0.00526226 0
          0.00356129 -0.0067808 0
          0.00407734 -0.00432367 0
          0.00571245 -0.00264029 0
          0.00303956 -0.00125427 0
          0.00435162 -0.00211862 0
          0.00536028 0.00225135 0
          0.00244663 -8.39474e-05 0
          0.00261162 0.00597741 0
          0.00190674 -0.00110481 0
          0.00142982 0.00700091 0
          -0.00035965 0.00425384 0
          0 0 0
          0 0 0
          0.00130175 -0.0097654 0
          0.00286268 -0.00830633 0
          0.00415797 -0.00739544 0
          0.00670334 -0.00667511 0
          0.00513732 -0.00387821 0
          0.00534431 -0.00401702 0
          0.00816539 5.76915e-05 0
          0.00634626 -0.00251179 0
          0.00595745 0.00198939 0
          0.00656588 0.00320086 0
          0.00494839 0.0046157 0
          0.00425982 0.00126134 0
          0.00410641 0.00717912 0
          0.00172918 0.0069745 0
          0 0 0
          0 0 0
          0.0012994 -0.0123167 0
          0.00465217 -0.00988701 0
          0.00493181 -0.00842607 0
          0.00535834 -0.0077941 0
          0.00652247 -0.00275442 0
          0.00692968 -0.00511833 0
          0.00690865 -0.00278182 0
          0.0074936 0.00201106 0
          0.00297889 0.00150229 0
          0.00533227 0.000601438 0
          0.00374183 0.0104501 0
          0.000621288 -0.00237017 0
          0.000185999 0.0128471 0
          -0.00411878 0.00512429 0
          0 0 0
          0 0 0
          0.00373062 -0.0158699 0
          0.00674644 -0.0118399 0
          0.00701132 -0.00764302 0
          0.00868588 -0.00867756 0
          0.0114786 -0.00633034 0
          0.0146487 -0.00372714 0
          0.00955179 0.000509336 0
          0.0110398 -0.00146879 0
          0.0148146 0.00652883 0
          0.00918636 -3.79122e-06 0
          0.013639 0.00951006 0
          0.0114145 0.00479008 0
          0.0129059 0.00794273 0
          0.0123029 0.0140196 0
          0 0 0
          0 0 0
          0.0016002 -0.0207292 0
          0.00430897 -0.0118318 0
          0.0066829 -0.0112376 0
          0.0125854 -0.0118461 0
          0.00994774 -0.00640643 0
          0.00616748 -0.00271234 0
          0.00771953 0.00111571 0
          0.00471003 -0.00105682 0
          0.00275722 0.00168789 0
          0.00610442 0.00624999 0
          -0.00605716 0.00788243 0
          0.00136633 -0.00196277 0
          -0.00353226 0.0184011 0
          -0.0158913 0.0102274 0
          0 0 0
          0 0 0
          0.00653422 -0.0250948 0
          0.0172006 -0.0177862 0
          0.0254665 -0.0167101 0
          0.0241851 -0.00960893 0
          0.0178751 4.8914e-05 0
          0.0199748 -0.0032687 0
          0.0191998 0.0013604 0
          0.0227409 0.00251221 0
          0.0184308 0.00569626 0
          0.0193665 0.00272342 0
          0.0274259 0.0197968 0
          0.0146025 -0.0047405 0
          0.0267291 0.0205376 0
          0.0269399 0.0235504 0
          0 0 0
          0 0 0
          0.0107071 -0.0403019 0
          0.0273032 -0.0315955 0
          0.0234321 -0.0115731 0
          0.0146645 -0.0040692 0
          0.014243 -0.00251713 0
          0.0122472 -0.00135614 0
          0.00465924 0.00108643 0
          0.000116085 0.00122425 0
          -0.00399285 0.00832556 0
          -0.0132008 0.00324882 0
          -0.0185887 0.00890713 0
          -0.0111305 0.00585563 0
          -0.0350968 0.0151812 0
          -0.032847 0.0155696 0
          0 0 0
          0 0 0
          0.0144041 -0.0619463 0
          0.003044 -0.0188013 0
          -0.00733926 -0.00929023 0
          0.00486962 -0.00304143 0
          0.00515994 -0.000832069 0
          0.0136832 0.00163325 0
          0.0178103 0.00799478 0
          0.0246468 0.00589762 0
          0.0292326 0.0125032 0
          0.0401501 0.0120916 0
          0.0369263 0.0171444 0
          0.0392226 0.00117018 0
          0.0537844 0.0407248 0
          0.0328689 0.0145333 0
          0 0 0
          0 0 0
          -0.0527238 -0.0334298 0
          -0.0871585 -0.00493152 0
          -0.0893242 -0.0132673 0
          -0.0981823 -0.00925874 0
          -0.099706 -0.00655413 0
          -0.100263 -0.0104751 0
          -0.0991966 -0.00279647 0
          -0.0936918 -0.00829978 0
          -0.0897088 -0.00039361 0
          -0.0822087 -0.00554132 0
          -0.0698916 0.0113628 0
          -0.0641766 -0.0103881 0
          -0.0556938 0.0216793 0
          -0.0247693 0.0275761 0
          0 0 0
          0.0256 0 0
          0.0256 0 0
          0.0256 0 0
          0.0256 0 0
          0.0256 0 0
          0.0256 0 0
          0.0256 0 0
          0.0256 0 0
          0.0256 0 0
          0.0256 0 0
          0.0256 0 0
          0.0256 0 0
          0.0256 0 0
          0.0256 0 0
          0.0256 0 0
          0.0256 0 0
        </DataArray>
      </PointData>
      <CellData>
      </CellData>
    </Piece>
  </ImageData>
</VTKFile>
