<?xml version="1.0"?>
<VTKFile type="ImageData" version="0.1" byte_order="LittleEndian">
  <ImageData WholeExtent="0 15 0 15 0 0" Origin="0 0 0" Spacing="1 1 1">
    <Piece Extent="0 15 0 15 0 0">
      <PointData>
        <DataArray type="Float32" Name="rho" format="ascii">
          6695.63
          -1778.94
          -27615.4
          524122
          -105340
          -2.60597e+06
          -220950
          1.00635e+06
          -1.41477e+08
          5.03296e+08
          -5.59101e+08
          -2.04667e+06
          144701
          182884
          -8093.55
          16931.1
          38853.6
          -67559.6
          -348876
          1.10952e+06
          7.14189e+06
          3.90689e+06
          329853
          -1.90672e+07
          -8.26683e+08
          1.67371e+09
          -8.26871e+08
          -1.9582e+06
          367344
          -408828
          -1.20522e+06
          -57596.7
          240138
          -88569.9
          -825409
          -1.12854e+06
          -3.44274e+06
          -1.65073e+06
          -1.99271e+06
          2.56187e+06
          -2.5364e+08
          4.08553e+08
          -1.55759e+08
          -99360.9
          446279
          -1.9243e+06
          4.63721e+06
          -15579.8
          36247.7
          -67866.5
          -645867
          775271
          872947
          4.798e+06
          -1.04614e+07
          1.33328e+06
          -4.93706e+06
          -1.29659e+06
          1.77103e+06
          -3.13603e+06
          5.68948e+06
          -9.13e+06
          4.7882e+06
          -184160
          45779.3
          -9473.19
          -503287
          -790635
          -3.05592e+06
          -1.02222e+06
          -4.93806e+06
          1.74519e+06
          3.18509e+06
          7.48772e+06
          -860167
          2.29333e+06
          1.32535e+06
          2.48007e+06
          -5.75383e+06
          29799.3
          17918
          18257.9
          -187247
          523486
          382323
          7.19436e+06
          1.7324e+06
          2.53557e+06
          -740439
          6.91577e+06
          -1.57466e+07
          -2.44048e+07
          2.87014e+06
          5.4544e+06
          -994206
          -2.58537e+07
          60521.9
          -123490
          -209960
          -403745
          543838
          -1.69369e+06
          -3.47674e+06
          531245
          -1.85832e+06
          -1.00323e+07
          8.11027e+07
          -9.0397e+06
          -4.78142e+06
          666404
          -8.16734e+06
          2.56392e+06
          -366068
          351455
          882273
          -556564
          455245
          409015
          -559579
          -1.49155e+06
          1.85338e+06
          -2.39908e+07
          -9.02616e+06
          5.92169e+06
          2.57809e+06
          2.78096e+06
          -1.05345e+06
          1.55735e+06
          233258
          752952
          -592947
          -559194
          -635769
          673549
          -373579
          -685621
          1.57575e+06
          885120
          -442902
          -1.1599e+06
          2.00692e+06
          -1.70503e+06
          -1.35959e+06
          -1.42726e+06
          -90853.9
          271611
          -5.92508e+06
          -4.71967e+06
          -9.37662e+06
          -565533
          -2.23241e+06
          -1.68948e+06
          2.54239e+06
          6.17595e+06
          2.66625e+06
          -81578.5
          4.99298e+06
          1.61486e+06
          -1.11281e+06
          -285348
          982435
          -4.335e+06
          -4.06096e+06
          1.8281e+07
          1.66736e+07
          6.02106e+06
          -296987
          -1.1721e+06
          -5.0779e+06
          -9.66671e+06
          -1.017e+07
          -4.2305e+06
          -2.63277e+06
          -1.97159e+07
          6.04956e+06
          1.8183e+06
          -1.74566e+07
          -8.8262e+06
          6.74279e+06
          1.27012e+06
          -1.04888e+07
          -5.37817e+06
          -479874
          461758
          2.44181e+06
          5.64316e+06
          3.0292e+06
          -2.02797e+06
          1.14687e+07
          1.10629e+07
          8.45491e+06
          2.81462e+07
          1.11954e+07
          1.65937e+06
          -944318
          -7.80548e+06
          -1.55183e+07
          5.93689e+07
          3.70874e+06
          -2.83588e+06
          -424051
          -334660
          1.21533e+07
          -2.08115e+07
          3.66304e+06
          748764
          -4.61427e+06
          6.10089e+06
          -762087
          -947762
          -3.608e+06
          8.14483e+07
          -2.27729e+08
          9.04148e+07
          6.78215e+06
          -5.28828e+06
          2.34796e+06
          1.10915e+07
          713859
          -3.91446e+06
          4.52566e+06
          1.03383e+07
          2.9849e+06
          1.86825e+06
          -705250
          -2.8505e+06
          -5.53813e+06
          6.02328e+07
          -2.84714e+07
          -872057
          -7.22873e+06
          5.74982e+06
          -3.46863e+06
          -2.03079e+07
          -3.90002e+06
          -211350
          -3.40837e+06
          -1.60092e+06
          -6.33571e+06
          -97017.3
          -77767.8
          1.38493e+06
          1.30547e+06
          130367
          407230
          1.47494e+06
          3.13843e+08
          -5.34766e+06
          -1.2027e+06
          2.4122e+06
          3.79015e+06
          -16280.1
          8.80904e+06
          218634
          -489409
          -185459
        </DataArray>
        <DataArray type="Float32" Name="ux" format="ascii">
          0
          0
          0
          0
          0
          0
          0
          0
          0
          0
          0
          0
          0
          0
          0
          0
          0
          -0.882816
          -0.929047
          -0.556552
          -0.0640498
          -0.497475
          -20.3428
          -0.26734
          -1.00974
          0.00054554
          1.00263
          0.711867
          -1.21756
          -5.05655
          0.0278461
          0
          0
          -0.479882
          -1.02516
          -1.51821
          0.120871
          -0.232965
          -1.19322
          1.23728
          -1.04492
          -0.00383567
          1.0061
          13.6322
          -4.15037
          -1.51501
          0.294477
          0
          0
          -0.412912
          -1.0132
          0.0660721
          -0.0676994
          -0.907818
          0.00902697
          4.15177
          -0.223232
          0.916549
          2.96284
          0.354426
          -1.05995
          -0.0478475
          0.934096
          0
          0
          -0.501006
          -0.905881
          -0.499062
          -0.631472
          1.17509
          5.45318e-05
          0.321296
          0.213598
          0.00546067
          -3.66553
          -0.944167
          -0.10717
          0.346712
          0.450615
          0
          0
          3.04807
          -0.518338
          -0.0177902
          -0.112593
          0.0082357
          -0.0707661
          0.482562
          -0.887921
          -0.841007
          0.0316575
          1.04888
          0.315627
          0.389976
          3.09589
          0
          0
          -1.22865
          -0.638476
          -0.46598
          -0.918471
          0.000230354
          0.435011
          0.751111
          -0.0993074
          -0.870713
          0.00631499
          0.960339
          -0.244399
          -1.89218
          0.149919
          0
          0
          -1.05851
          -0.0025252
          -0.776693
          -0.276493
          -1.37179
          0.0486383
          -1.39651
          -0.908499
          -1.00772
          -0.0261244
          0.423616
          0.185473
          -0.553651
          0.0940225
          0
          0
          -1.11393
          -0.222094
          0.277437
          0.843059
          -0.360082
          -0.515162
          -1.89454
          -0.240308
          0.0524345
          -1.65001
          0.0257193
          -0.188751
          0.19268
          1.03185
          0
          0
          -1.54143
          -0.99542
          -0.980511
          -0.0552485
          -0.373895
          0.30546
          -0.00605374
          -0.343363
          0.00827893
          0.702148
          -20.2522
          -0.996871
          0.326564
          0.925079
          0
          0
          -0.239919
          -1.51724
          -0.162588
          -0.18861
          0.529408
          -0.0930272
          -0.701645
          -0.441165
          0.0912631
          -0.042779
          -0.586294
          0.589659
          -0.0610693
          -0.157607
          0
          0
          -0.106986
          0.524991
          -0.799594
          0.4636
          1.34108
          -0.841131
          -3.36133
          -0.25698
          -0.228032
          -0.272146
          0.918733
          0.363669
          0.239088
          0.322213
          0
          0
          0.0930907
          -1.86467
          -0.908947
          0.0873468
          1.02114
          0.175538
          1.08275
          -1.38272
          3.03562
          -0.96541
          0.0137085
          2.89168
          -2.16796
          0.085261
          0
          0
          1.35202
          -0.01469
          -0.946084
          0.0034672
          0.879853
          0.14919
          0.634701
          -2.49578
          -0.379137
          -3.02859
          -0.199835
          0.970202
          0.0257735
          -1.6672
          0
          0
          2.72808
          -0.0378971
          -0.997175
          -0.066432
          8.06213
          -0.374719
          0.722466
          -0.451036
          0.0264606
          0.769025
          -6.6862
          0.000772851
          -0.517578
          0.244961
          0
          0.0256
          0.0256
          0.0256
          0.0256
          0.0256
          0.0256
          0.0256
          0.0256
          0.0256
          0.0256
          0.0256
          0.0256
          0.0256
          0.0256
          0.0256
          0.0256
        </DataArray>
        <DataArray type="Float32" Name="uy" format="ascii">
          0
          0
          0
          0
          0
          0
          0
          0
          0
          0
          0
          0
          0
          0
          0
          0
          0
          -0.0419149
          -1.07266
          0.0317072
          -0.0585208
          -0.206496
          -0.849277
          -0.0654709
          -0.00020957
          0.000597196
          9.33244e-05
          -0.186019
          0.713289
          -2.1626
          -1.06663
          0
          0
          -0.105909
          0.147258
          1.97012
          0.92047
          0.868441
          0.106211
          -0.398905
          1.0072
          1.00509
          1.01837
          6.5378
          -5.84496
          -1.17129
          -0.363923
          0
          0
          0.224401
          0.369228
          0.1838
          0.560485
          -0.416445
          0.170383
          -1.79158
          0.151881
          -1.0763
          1.72911
          0.207554
          -0.273328
          0.107082
          0.110964
          0
          0
          -0.463449
          0.795498
          1.13063
          -0.414645
          -2.49677
          0.427169
          1.96133
          1.19857
          0.204235
          -0.675653
          0.205668
          2.36608
          -1.2892
          -0.42292
          0
          0
          0.39189
          0.0449318
          -0.249592
          -0.107624
          0.0312811
          1.14719
          0.745804
          -0.191747
          -0.905654
          -0.629823
          -1.07942
          0.067392
          -0.221679
          -0.157317
          0
          0
          -1.16593
          0.246576
          0.137906
          0.305893
          1.05765
          0.802332
          0.00185759
          0.619875
          0.173621
          0.010434
          -0.115656
          -0.327967
          -0.250837
          0.371403
          0
          0
          -1.21376
          -0.686688
          -0.230298
          0.229177
          -0.495357
          0.00145753
          -0.117553
          0.221822
          0.994869
          1.16877
          1.04986
          0.355826
          0.198229
          0.901927
          0
          0
          -0.374085
          -0.172647
          -0.231653
          -0.886405
          -0.334002
          -0.00191226
          0.667208
          -0.176549
          0.520611
          0.673833
          0.15655
          0.399487
          -0.10218
          0.106523
          0
          0
          1.37339
          -0.802174
          -1.26091
          -0.840298
          -2.67435
          -0.78388
          0.360275
          -1.19798
          -0.68779
          -1.20543
          33.4131
          -1.1097
          -0.435839
          -0.673179
          0
          0
          -0.714421
          0.274664
          -0.0755828
          -0.0903693
          -0.124935
          -2.99891
          0.0873979
          -0.0423911
          -0.0435279
          -0.228399
          -1.21502
          -2.92077
          -0.270997
          -0.278075
          0
          0
          0.0076876
          0.169363
          -0.539852
          1.12012
          0.419176
          1.62361
          3.32264
          0.811714
          1.04357
          -0.485735
          -1.99136
          -0.337262
          -0.332724
          0.369136
          0
          0
          -1.20713
          0.740499
          -0.526329
          -1.68407
          -1.01917
          -0.179587
          -0.0614742
          1.41861
          4.6916
          0.074698
          0.0222734
          -0.316233
          -6.34035
          0.947941
          0
          0
          3.29515
          0.370029
          -0.078463
          0.0100407
          -0.0550307
          -0.243272
          -0.187518
          -1.05288
          -0.6251
          4.47049
          1.07437
          0.924791
          0.239057
          1.12885
          0
          0
          -2.16126
          0.0299335
          1.01031
          0.860062
          3.75094
          1.04946
          -0.576534
          -0.0809353
          -0.023792
          0.186883
          -0.603383
          1.0945
          1.56721
          0.982848
          0
          0
          0
          0
          0
          0
          0
          0
          0
          0
          0
          0
          0
          0
          0
          0
          0
        </DataArray>
        <DataArray type="Float32" Name="velocity" NumberOfComponents="3" format="ascii">
          0 0 0
          0 0 0
          0 0 0
          0 0 0
          0 0 0
          0 0 0
          0 0 0
          0 0 0
          0 0 0
          0 0 0
          0 0 0
          0 0 0
          0 0 0
          0 0 0
          0 0 0
          0 0 0
          0 0 0
          -0.882816 -0.0419149 0
          -0.929047 -1.07266 0
          -0.556552 0.0317072 0
          -0.0640498 -0.0585208 0
          -0.497475 -0.206496 0
          -20.3428 -0.849277 0
          -0.26734 -0.0654709 0
          -1.00974 -0.00020957 0
          0.00054554 0.000597196 0
          1.00263 9.33244e-05 0
          0.711867 -0.186019 0
          -1.21756 0.713289 0
          -5.05655 -2.1626 0
          0.0278461 -1.06663 0
          0 0 0
          0 0 0
          -0.479882 -0.105909 0
          -1.02516 0.147258 0
          -1.51821 1.97012 0
          0.120871 0.92047 0
          -0.232965 0.868441 0
          -1.19322 0.106211 0
          1.23728 -0.398905 0
          -1.04492 1.0072 0
          -0.00383567 1.00509 0
          1.0061 1.01837 0
          13.6322 6.5378 0
          -4.15037 -5.84496 0
          -1.51501 -1.17129 0
          0.294477 -0.363923 0
          0 0 0
          0 0 0
          -0.412912 0.224401 0
          -1.0132 0.369228 0
          0.0660721 0.1838 0
          -0.0676994 0.560485 0
          -0.907818 -0.416445 0
          0.00902697 0.170383 0
          4.15177 -1.79158 0
          -0.223232 0.151881 0
          0.916549 -1.0763 0
          2.96284 1.72911 0
          0.354426 0.207554 0
          -1.05995 -0.273328 0
          -0.0478475 0.107082 0
          0.934096 0.110964 0
          0 0 0
          0 0 0
          -0.501006 -0.463449 0
          -0.905881 0.795498 0
          -0.499062 1.13063 0
          -0.631472 -0.414645 0
          1.17509 -2.49677 0
          5.45318e-05 0.427169 0
          0.321296 1.96133 0
          0.213598 1.19857 0
          0.00546067 0.204235 0
          -3.66553 -0.675653 0
          -0.944167 0.205668 0
          -0.10717 2.36608 0
          0.346712 -1.2892 0
          0.450615 -0.42292 0
          0 0 0
          0 0 0
          3.04807 0.39189 0
          -0.518338 0.0449318 0
          -0.0177902 -0.249592 0
          -0.112593 -0.107624 0
          0.0082357 0.0312811 0
          -0.0707661 1.14719 0
          0.482562 0.745804 0
          -0.887921 -0.191747 0
          -0.841007 -0.905654 0
          0.0316575 -0.629823 0
          1.04888 -1.07942 0
          0.315627 0.067392 0
          0.389976 -0.221679 0
          3.09589 -0.157317 0
          0 0 0
          0 0 0
          -1.22865 -1.16593 0
          -0.638476 0.246576 0
          -0.46598 0.137906 0
          -0.918471 0.305893 0
          0.000230354 1.05765 0
          0.435011 0.802332 0
          0.751111 0.00185759 0
          -0.0993074 0.619875 0
          -0.870713 0.173621 0
          0.00631499 0.010434 0
          0.960339 -0.115656 0
          -0.244399 -0.327967 0
          -1.89218 -0.250837 0
          0.149919 0.371403 0
          0 0 0
          0 0 0
          -1.05851 -1.21376 0
          -0.0025252 -0.686688 0
          -0.776693 -0.230298 0
          -0.276493 0.229177 0
          -1.37179 -0.495357 0
          0.0486383 0.00145753 0
          -1.39651 -0.117553 0
          -0.908499 0.221822 0
          -1.00772 0.994869 0
          -0.0261244 1.16877 0
          0.423616 1.04986 0
          0.185473 0.355826 0
          -0.553651 0.198229 0
          0.0940225 0.901927 0
          0 0 0
          0 0 0
          -1.11393 -0.374085 0
          -0.222094 -0.172647 0
          0.277437 -0.231653 0
          0.843059 -0.886405 0
          -0.360082 -0.334002 0
          -0.515162 -0.00191226 0
          -1.89454 0.667208 0
          -0.240308 -0.176549 0
          0.0524345 0.520611 0
          -1.65001 0.673833 0
          0.0257193 0.15655 0
          -0.188751 0.399487 0
          0.19268 -0.10218 0
          1.03185 0.106523 0
          0 0 0
          0 0 0
          -1.54143 1.37339 0
          -0.99542 -0.802174 0
          -0.980511 -1.26091 0
          -0.0552485 -0.840298 0
          -0.373895 -2.67435 0
          0.30546 -0.78388 0
          -0.00605374 0.360275 0
          -0.343363 -1.19798 0
          0.00827893 -0.68779 0
          0.702148 -1.20543 0
          -20.2522 33.4131 0
          -0.996871 -1.1097 0
          0.326564 -0.435839 0
          0.925079 -0.673179 0
          0 0 0
          0 0 0
          -0.239919 -0.714421 0
          -1.51724 0.274664 0
          -0.162588 -0.0755828 0
          -0.18861 -0.0903693 0
          0.529408 -0.124935 0
          -0.0930272 -2.99891 0
          -0.701645 0.0873979 0
          -0.441165 -0.0423911 0
          0.0912631 -0.0435279 0
          -0.042779 -0.228399 0
          -0.586294 -1.21502 0
          0.589659 -2.92077 0
          -0.0610693 -0.270997 0
          -0.157607 -0.278075 0
          0 0 0
          0 0 0
          -0.106986 0.0076876 0
          0.524991 0.169363 0
          -0.799594 -0.539852 0
          0.4636 1.12012 0
          1.34108 0.419176 0
          -0.841131 1.62361 0
          -3.36133 3.32264 0
          -0.25698 0.811714 0
          -0.228032 1.04357 0
          -0.272146 -0.485735 0
          0.918733 -1.99136 0
          0.363669 -0.337262 0
          0.239088 -0.332724 0
          0.322213 0.369136 0
          0 0 0
          0 0 0
          0.0930907 -1.20713 0
          -1.86467 0.740499 0
          -0.908947 -0.526329 0
          0.0873468 -1.68407 0
          1.02114 -1.01917 0
          0.175538 -0.179587 0
          1.08275 -0.0614742 0
          -1.38272 1.41861 0
          3.03562 4.6916 0
          -0.96541 0.074698 0
          0.0137085 0.0222734 0
          2.89168 -0.316233 0
          -2.16796 -6.34035 0
          0.085261 0.947941 0
          0 0 0
          0 0 0
          1.35202 3.29515 0
          -0.01469 0.370029 0
          -0.946084 -0.078463 0
          0.0034672 0.0100407 0
          0.879853 -0.0550307 0
          0.14919 -0.243272 0
          0.634701 -0.187518 0
          -2.49578 -1.05288 0
          -0.379137 -0.6251 0
          -3.02859 4.47049 0
          -0.199835 1.07437 0
          0.970202 0.924791 0
          0.0257735 0.239057 0
          -1.6672 1.12885 0
          0 0 0
          0 0 0
          2.72808 -2.16126 0
          -0.0378971 0.0299335 0
          -0.997175 1.01031 0
          -0.066432 0.860062 0
          8.06213 3.75094 0
          -0.374719 1.04946 0
          0.722466 -0.576534 0
          -0.451036 -0.0809353 0
          0.0264606 -0.023792 0
          0.769025 0.186883 0
          -6.6862 -0.603383 0
          0.000772851 1.0945 0
          -0.517578 1.56721 0
          0.244961 0.982848 0
          0 0 0
          0.0256 0 0
          0.0256 0 0
          0.0256 0 0
          0.0256 0 0
          0.0256 0 0
          0.0256 0 0
          0.0256 0 0
          0.0256 0 0
          0.0256 0 0
          0.0256 0 0
          0.0256 0 0
          0.0256 0 0
          0.0256 0 0
          0.0256 0 0
          0.0256 0 0
          0.0256 0 0
        </DataArray>
      </PointData>
      <CellData>
      </CellData>
    </Piece>
  </ImageData>
</VTKFile>
