<?xml version="1.0"?>
<VTKFile type="ImageData" version="0.1" byte_order="LittleEndian">
  <ImageData WholeExtent="0 15 0 15 0 0" Origin="0 0 0" Spacing="1 1 1">
    <Piece Extent="0 15 0 15 0 0">
      <PointData>
        <DataArray type="Float32" Name="rho" format="ascii">
          1.00013
          1.0031
          1.00115
          1.00127
          1.00078
          1.00018
          1.00002
          0.999964
          0.99987
          0.999545
          0.998541
          0.997555
          0.994481
          0.995662
          0.984079
          0.993795
          0.999931
          1.00059
          1.00042
          1.00017
          0.999951
          0.999901
          0.999935
          0.999971
          0.999934
          0.999733
          0.99928
          0.998578
          0.998233
          0.997647
          0.997684
          0.996796
          1.0002
          1.00016
          1.00011
          0.999912
          0.999804
          0.999849
          0.99994
          0.999987
          0.999978
          0.999859
          0.999532
          0.99898
          0.998574
          0.998136
          0.99817
          0.99842
          1
          0.999828
          0.999785
          0.999717
          0.999766
          0.999886
          0.999971
          0.999997
          0.999996
          0.999951
          0.999779
          0.99942
          0.999037
          0.998845
          0.998627
          0.999102
          1.00002
          0.999768
          0.999745
          0.999789
          0.999873
          0.999959
          0.999995
          1
          1
          0.999993
          0.999939
          0.999781
          0.999565
          0.99939
          0.999291
          0.999677
          1.00001
          0.999892
          0.999893
          0.999931
          0.999971
          0.999995
          1
          1
          1
          1
          0.999994
          0.999959
          0.999889
          0.999807
          0.999767
          0.999916
          1.00001
          0.999973
          0.999979
          0.99999
          0.999998
          1
          1
          1
          1
          1
          1
          0.999997
          0.999986
          0.999967
          0.999952
          0.99999
          0.999986
          0.999993
          0.999999
          1
          1
          1
          1
          1
          1
          1
          1
          1
          1
          1
          1.00002
          1.00001
          0.999884
          0.999958
          1
          1.00001
          1
          1
          1
          1
          1
          1
          1
          0.999997
          1.00003
          1.00009
          1.0002
          1.0001
          0.999532
          0.999683
          0.999901
          1
          1.00002
          1
          1
          1
          1
          0.999999
          0.999998
          1.00006
          1.00033
          1.00064
          1.00097
          1.0006
          0.998226
          0.998622
          0.999223
          0.999755
          1.00003
          1.00003
          1
          1
          1
          0.999998
          1.0001
          1.00058
          1.00156
          1.00242
          1.00315
          1.0019
          0.996065
          0.995914
          0.997043
          0.998486
          0.999709
          1.00006
          1.00002
          0.999999
          0.999997
          1.00006
          1.00058
          1.00203
          1.00399
          1.0054
          1.00627
          1.00526
          0.990217
          0.992658
          0.99384
          0.995925
          0.99864
          0.99989
          1.00005
          1.00001
          1.00003
          1.00033
          1.00156
          1.00396
          1.00644
          1.00821
          1.00912
          1.00804
          0.984675
          0.989614
          0.991685
          0.994062
          0.997412
          0.999515
          1.00003
          1.00003
          1.0001
          1.00064
          1.00241
          1.0053
          1.0081
          1.00775
          1.01043
          1.01572
          0.958296
          0.986005
          0.990109
          0.992892
          0.996553
          0.999117
          0.999922
          1.00005
          1.00021
          1.00096
          1.00306
          1.00603
          1.00891
          1.01005
          1.01607
          1.02186
          0.909899
          0.973342
          0.98746
          0.994448
          0.998097
          0.999591
          0.999997
          1.00003
          1.00011
          1.00054
          1.00161
          1.00435
          1.00633
          1.01393
          1.01366
          1.07305
        </DataArray>
        <DataArray type="Float32" Name="ux" format="ascii">
          0
          0
          0
          0
          0
          0
          0
          0
          0
          0
          0
          0
          0
          0
          0
          0
          0
          -0.000176227
          -4.59879e-05
          -8.28716e-05
          -9.86673e-05
          -7.32092e-05
          -4.2391e-05
          -6.83983e-06
          4.10461e-05
          0.000174994
          0.000430266
          0.000833232
          0.000902175
          0.00136623
          0.000760047
          0
          0
          -2.28231e-05
          -0.000103539
          -0.000122014
          -0.000126882
          -8.48339e-05
          -3.57333e-05
          -6.64228e-06
          1.26719e-05
          8.00249e-05
          0.000245846
          0.000487467
          0.000676688
          0.000752344
          0.000295386
          0
          0
          4.36809e-05
          -4.67606e-05
          -0.00010292
          -0.000107153
          -6.09285e-05
          -1.74833e-05
          -2.46987e-06
          3.865e-06
          3.06811e-05
          0.000118272
          0.000257554
          0.000320788
          0.000249512
          -9.59089e-06
          0
          0
          1.13387e-05
          -4.41671e-05
          -5.96191e-05
          -5.2496e-05
          -2.07414e-05
          -3.62473e-06
          1.47149e-07
          -4.09782e-07
          4.65292e-06
          3.12906e-05
          9.24335e-05
          0.000127878
          0.000130936
          3.07722e-05
          0
          0
          4.01071e-06
          -1.53536e-05
          -1.82198e-05
          -1.20964e-05
          -2.76232e-06
          1.43424e-07
          6.70552e-08
          -2.79397e-08
          -1.13621e-07
          3.50366e-06
          1.77629e-05
          3.0085e-05
          3.36179e-05
          1.00923e-05
          0
          0
          -1.22752e-06
          -3.81105e-06
          -3.32858e-06
          -1.22376e-06
          9.12696e-08
          5.40167e-08
          4.47035e-08
          -5.02914e-08
          -9.68575e-08
          -1.41561e-07
          1.72481e-06
          4.75726e-06
          6.7281e-06
          4.19115e-06
          0
          0
          -2.90947e-06
          -4.97327e-07
          -2.23518e-07
          -7.26432e-08
          2.6077e-08
          2.98023e-08
          8.56817e-08
          -4.09782e-08
          6.70552e-08
          -9.49949e-08
          4.74975e-07
          -2.6077e-08
          -1.17346e-07
          -6.78921e-06
          0
          0
          -1.2592e-05
          -1.05612e-06
          4.43121e-06
          2.03214e-06
          6.05359e-07
          5.97909e-07
          2.14204e-07
          -1.78814e-07
          -7.63684e-07
          -1.55344e-06
          -1.92971e-06
          -1.857e-05
          -2.68419e-05
          -5.29314e-05
          0
          0
          -9.98471e-05
          -6.09816e-05
          -1.25598e-05
          6.84697e-06
          2.35811e-06
          1.67638e-07
          3.48315e-07
          -3.22237e-07
          9.87203e-07
          1.32248e-07
          -2.72452e-05
          -0.000108067
          -0.000123223
          -0.000129249
          0
          0
          -0.000217766
          -0.000238364
          -0.000109711
          1.40439e-06
          2.36195e-05
          3.12365e-06
          4.06057e-07
          1.2666e-07
          -2.87593e-06
          -7.45433e-05
          -0.00028803
          -0.000602184
          -0.000601956
          -0.000495001
          0
          0
          -0.000762744
          -0.000989773
          -0.00066035
          -0.00019374
          1.02737e-05
          1.45078e-05
          -1.05612e-06
          6.40752e-07
          -4.46804e-05
          -0.000309762
          -0.000877753
          -0.00135885
          -0.000937133
          -0.000534574
          0
          0
          -0.00150054
          -0.00224912
          -0.00179592
          -0.000785372
          -9.70247e-05
          3.20285e-05
          1.7274e-05
          -1.88307e-05
          -0.000217516
          -0.000911083
          -0.00211686
          -0.00337508
          -0.00380761
          -0.00373108
          0
          0
          -0.00376899
          -0.00441115
          -0.00326887
          -0.00147655
          -0.000387402
          -3.54638e-05
          -2.54523e-05
          -9.81125e-05
          -0.0004321
          -0.00137172
          -0.00298689
          -0.00400279
          -0.00308046
          -0.00276911
          0
          0
          -0.0120658
          -0.00793735
          -0.00481071
          -0.00221144
          -0.0004877
          7.17622e-05
          0.000143853
          1.99261e-06
          -0.000531244
          -0.00198594
          -0.00400845
          -0.00722354
          -0.0101957
          -0.0164761
          0
          0.0256
          0.0256
          0.0256
          0.0256
          0.0256
          0.0256
          0.0256
          0.0256
          0.0256
          0.0256
          0.0256
          0.0256
          0.0256
          0.0256
          0.0256
          0.0256
        </DataArray>
        <DataArray type="Float32" Name="uy" format="ascii">
          0
          0
          0
          0
          0
          0
          0
          0
          0
          0
          0
          0
          0
          0
          0
          0
          0
          0.000192702
          0.00014747
          0.000161836
          8.74071e-05
          2.67819e-05
          -5.32938e-06
          -6.80258e-06
          -1.80707e-05
          -7.33184e-05
          -0.000154059
          -0.000450954
          -0.000667649
          -0.00127068
          -0.00252504
          0
          0
          -9.03167e-05
          -4.47023e-05
          -2.15024e-05
          -5.02286e-05
          -2.55202e-05
          -1.83072e-05
          -3.91533e-06
          -7.37065e-06
          -5.49055e-05
          -0.000143888
          -0.000440361
          -0.000625415
          -0.00129635
          -0.00148733
          0
          0
          -0.000166955
          -0.00014676
          -0.00014082
          -9.05551e-05
          -4.07686e-05
          -1.20051e-05
          -1.41003e-06
          -1.81981e-06
          -2.36176e-05
          -8.93019e-05
          -0.000269005
          -0.000508662
          -0.000720615
          -0.000968924
          0
          0
          -0.000167593
          -0.000139544
          -0.000114942
          -6.50369e-05
          -2.03521e-05
          -3.66012e-06
          1.80677e-07
          4.60073e-07
          -5.34024e-06
          -3.18662e-05
          -0.000119483
          -0.00025059
          -0.000353086
          -0.000499534
          0
          0
          -7.60432e-05
          -6.68612e-05
          -4.35796e-05
          -1.88915e-05
          -3.45895e-06
          1.28522e-07
          5.21541e-08
          1.00583e-07
          7.63684e-08
          -4.29156e-06
          -2.75571e-05
          -7.2994e-05
          -0.000123089
          -0.000167664
          0
          0
          -2.08324e-05
          -1.51827e-05
          -7.64437e-06
          -1.91667e-06
          9.87202e-08
          -3.72529e-08
          -3.1665e-08
          -2.6077e-08
          5.58794e-09
          1.09896e-07
          -2.42145e-06
          -1.09395e-05
          -2.32112e-05
          -4.00097e-05
          0
          0
          -2.27244e-07
          -2.78093e-06
          -4.69387e-07
          7.63685e-08
          -9.68575e-08
          -4.84288e-08
          -1.15484e-07
          -1.24797e-07
          5.58794e-08
          -3.27825e-07
          5.88596e-07
          -1.26287e-06
          -5.73507e-06
          -2.64453e-05
          0
          0
          3.19066e-05
          -3.57627e-07
          -4.41072e-06
          -5.55068e-07
          -8.94069e-08
          -3.78117e-07
          -3.53902e-07
          -4.24683e-07
          -3.53902e-07
          -7.07804e-07
          2.5183e-06
          -2.78177e-05
          -6.32178e-05
          -0.000156157
          0
          0
          0.000228377
          6.59777e-05
          2.42888e-06
          -1.2744e-05
          -2.49594e-06
          -2.40281e-07
          -4.82425e-07
          -8.99657e-07
          9.70439e-07
          -3.6154e-06
          -4.26614e-05
          -0.000227221
          -0.000394538
          -0.000696333
          0
          0
          0.000908176
          0.000482208
          0.000160215
          -6.19496e-06
          -2.42416e-05
          -2.26125e-06
          -5.36442e-07
          -1.71736e-06
          3.24101e-07
          -7.53534e-05
          -0.000307753
          -0.000924141
          -0.00135009
          -0.00219195
          0
          0
          0.00265167
          0.00157419
          0.000796071
          0.000158246
          -2.08958e-05
          -1.20157e-05
          -1.1418e-06
          -2.07872e-06
          -2.72638e-05
          -0.000289184
          -0.000872645
          -0.00213703
          -0.00299171
          -0.00426754
          0
          0
          0.00482501
          0.00321561
          0.00158807
          0.000504093
          3.96079e-05
          -1.05122e-05
          -7.0016e-06
          -1.93057e-05
          -0.00010803
          -0.000604297
          -0.00133076
          -0.00335702
          -0.00399611
          -0.00739207
          0
          0
          0.00799208
          0.00387281
          0.00186084
          0.000681669
          0.000121716
          6.86925e-06
          -7.6571e-06
          -2.89948e-05
          -0.000124172
          -0.000600683
          -0.000872537
          -0.00374028
          -0.00282226
          -0.0105007
          0
          0
          0.0100923
          0.00284375
          0.000888171
          0.000370876
          8.06958e-05
          3.03337e-05
          -1.29727e-05
          -5.54598e-05
          -0.000123939
          -0.000477169
          -0.000394858
          -0.00359191
          -0.00212759
          -0.0154819
          0
          0
          0
          0
          0
          0
          0
          0
          0
          0
          0
          0
          0
          0
          0
          0
          0
        </DataArray>
        <DataArray type="Float32" Name="velocity" NumberOfComponents="3" format="ascii">
          0 0 0
          0 0 0
          0 0 0
          0 0 0
          0 0 0
          0 0 0
          0 0 0
          0 0 0
          0 0 0
          0 0 0
          0 0 0
          0 0 0
          0 0 0
          0 0 0
          0 0 0
          0 0 0
          0 0 0
          -0.000176227 0.000192702 0
          -4.59879e-05 0.00014747 0
          -8.28716e-05 0.000161836 0
          -9.86673e-05 8.74071e-05 0
          -7.32092e-05 2.67819e-05 0
          -4.2391e-05 -5.32938e-06 0
          -6.83983e-06 -6.80258e-06 0
          4.10461e-05 -1.80707e-05 0
          0.000174994 -7.33184e-05 0
          0.000430266 -0.000154059 0
          0.000833232 -0.000450954 0
          0.000902175 -0.000667649 0
          0.00136623 -0.00127068 0
          0.000760047 -0.00252504 0
          0 0 0
          0 0 0
          -2.28231e-05 -9.03167e-05 0
          -0.000103539 -4.47023e-05 0
          -0.000122014 -2.15024e-05 0
          -0.000126882 -5.02286e-05 0
          -8.48339e-05 -2.55202e-05 0
          -3.57333e-05 -1.83072e-05 0
          -6.64228e-06 -3.91533e-06 0
          1.26719e-05 -7.37065e-06 0
          8.00249e-05 -5.49055e-05 0
          0.000245846 -0.000143888 0
          0.000487467 -0.000440361 0
          0.000676688 -0.000625415 0
          0.000752344 -0.00129635 0
          0.000295386 -0.00148733 0
          0 0 0
          0 0 0
          4.36809e-05 -0.000166955 0
          -4.67606e-05 -0.00014676 0
          -0.00010292 -0.00014082 0
          -0.000107153 -9.05551e-05 0
          -6.09285e-05 -4.07686e-05 0
          -1.74833e-05 -1.20051e-05 0
          -2.46987e-06 -1.41003e-06 0
          3.865e-06 -1.81981e-06 0
          3.06811e-05 -2.36176e-05 0
          0.000118272 -8.93019e-05 0
          0.000257554 -0.000269005 0
          0.000320788 -0.000508662 0
          0.000249512 -0.000720615 0
          -9.59089e-06 -0.000968924 0
          0 0 0
          0 0 0
          1.13387e-05 -0.000167593 0
          -4.41671e-05 -0.000139544 0
          -5.96191e-05 -0.000114942 0
          -5.2496e-05 -6.50369e-05 0
          -2.07414e-05 -2.03521e-05 0
          -3.62473e-06 -3.66012e-06 0
          1.47149e-07 1.80677e-07 0
          -4.09782e-07 4.60073e-07 0
          4.65292e-06 -5.34024e-06 0
          3.12906e-05 -3.18662e-05 0
          9.24335e-05 -0.000119483 0
          0.000127878 -0.00025059 0
          0.000130936 -0.000353086 0
          3.07722e-05 -0.000499534 0
          0 0 0
          0 0 0
          4.01071e-06 -7.60432e-05 0
          -1.53536e-05 -6.68612e-05 0
          -1.82198e-05 -4.35796e-05 0
          -1.20964e-05 -1.88915e-05 0
          -2.76232e-06 -3.45895e-06 0
          1.43424e-07 1.28522e-07 0
          6.70552e-08 5.21541e-08 0
          -2.79397e-08 1.00583e-07 0
          -1.13621e-07 7.63684e-08 0
          3.50366e-06 -4.29156e-06 0
          1.77629e-05 -2.75571e-05 0
          3.0085e-05 -7.2994e-05 0
          3.36179e-05 -0.000123089 0
          1.00923e-05 -0.000167664 0
          0 0 0
          0 0 0
          -1.22752e-06 -2.08324e-05 0
          -3.81105e-06 -1.51827e-05 0
          -3.32858e-06 -7.64437e-06 0
          -1.22376e-06 -1.91667e-06 0
          9.12696e-08 9.87202e-08 0
          5.40167e-08 -3.72529e-08 0
          4.47035e-08 -3.1665e-08 0
          -5.02914e-08 -2.6077e-08 0
          -9.68575e-08 5.58794e-09 0
          -1.41561e-07 1.09896e-07 0
          1.72481e-06 -2.42145e-06 0
          4.75726e-06 -1.09395e-05 0
          6.7281e-06 -2.32112e-05 0
          4.19115e-06 -4.00097e-05 0
          0 0 0
          0 0 0
          -2.90947e-06 -2.27244e-07 0
          -4.97327e-07 -2.78093e-06 0
          -2.23518e-07 -4.69387e-07 0
          -7.26432e-08 7.63685e-08 0
          2.6077e-08 -9.68575e-08 0
          2.98023e-08 -4.84288e-08 0
          8.56817e-08 -1.15484e-07 0
          -4.09782e-08 -1.24797e-07 0
          6.70552e-08 5.58794e-08 0
          -9.49949e-08 -3.27825e-07 0
          4.74975e-07 5.88596e-07 0
          -2.6077e-08 -1.26287e-06 0
          -1.17346e-07 -5.73507e-06 0
          -6.78921e-06 -2.64453e-05 0
          0 0 0
          0 0 0
          -1.2592e-05 3.19066e-05 0
          -1.05612e-06 -3.57627e-07 0
          4.43121e-06 -4.41072e-06 0
          2.03214e-06 -5.55068e-07 0
          6.05359e-07 -8.94069e-08 0
          5.97909e-07 -3.78117e-07 0
          2.14204e-07 -3.53902e-07 0
          -1.78814e-07 -4.24683e-07 0
          -7.63684e-07 -3.53902e-07 0
          -1.55344e-06 -7.07804e-07 0
          -1.92971e-06 2.5183e-06 0
          -1.857e-05 -2.78177e-05 0
          -2.68419e-05 -6.32178e-05 0
          -5.29314e-05 -0.000156157 0
          0 0 0
          0 0 0
          -9.98471e-05 0.000228377 0
          -6.09816e-05 6.59777e-05 0
          -1.25598e-05 2.42888e-06 0
          6.84697e-06 -1.2744e-05 0
          2.35811e-06 -2.49594e-06 0
          1.67638e-07 -2.40281e-07 0
          3.48315e-07 -4.82425e-07 0
          -3.22237e-07 -8.99657e-07 0
          9.87203e-07 9.70439e-07 0
          1.32248e-07 -3.6154e-06 0
          -2.72452e-05 -4.26614e-05 0
          -0.000108067 -0.000227221 0
          -0.000123223 -0.000394538 0
          -0.000129249 -0.000696333 0
          0 0 0
          0 0 0
          -0.000217766 0.000908176 0
          -0.000238364 0.000482208 0
          -0.000109711 0.000160215 0
          1.40439e-06 -6.19496e-06 0
          2.36195e-05 -2.42416e-05 0
          3.12365e-06 -2.26125e-06 0
          4.06057e-07 -5.36442e-07 0
          1.2666e-07 -1.71736e-06 0
          -2.87593e-06 3.24101e-07 0
          -7.45433e-05 -7.53534e-05 0
          -0.00028803 -0.000307753 0
          -0.000602184 -0.000924141 0
          -0.000601956 -0.00135009 0
          -0.000495001 -0.00219195 0
          0 0 0
          0 0 0
          -0.000762744 0.00265167 0
          -0.000989773 0.00157419 0
          -0.00066035 0.000796071 0
          -0.00019374 0.000158246 0
          1.02737e-05 -2.08958e-05 0
          1.45078e-05 -1.20157e-05 0
          -1.05612e-06 -1.1418e-06 0
          6.40752e-07 -2.07872e-06 0
          -4.46804e-05 -2.72638e-05 0
          -0.000309762 -0.000289184 0
          -0.000877753 -0.000872645 0
          -0.00135885 -0.00213703 0
          -0.000937133 -0.00299171 0
          -0.000534574 -0.00426754 0
          0 0 0
          0 0 0
          -0.00150054 0.00482501 0
          -0.00224912 0.00321561 0
          -0.00179592 0.00158807 0
          -0.000785372 0.000504093 0
          -9.70247e-05 3.96079e-05 0
          3.20285e-05 -1.05122e-05 0
          1.7274e-05 -7.0016e-06 0
          -1.88307e-05 -1.93057e-05 0
          -0.000217516 -0.00010803 0
          -0.000911083 -0.000604297 0
          -0.00211686 -0.00133076 0
          -0.00337508 -0.00335702 0
          -0.00380761 -0.00399611 0
          -0.00373108 -0.00739207 0
          0 0 0
          0 0 0
          -0.00376899 0.00799208 0
          -0.00441115 0.00387281 0
          -0.00326887 0.00186084 0
          -0.00147655 0.000681669 0
          -0.000387402 0.000121716 0
          -3.54638e-05 6.86925e-06 0
          -2.54523e-05 -7.6571e-06 0
          -9.81125e-05 -2.89948e-05 0
          -0.0004321 -0.000124172 0
          -0.00137172 -0.000600683 0
          -0.00298689 -0.000872537 0
          -0.00400279 -0.00374028 0
          -0.00308046 -0.00282226 0
          -0.00276911 -0.0105007 0
          0 0 0
          0 0 0
          -0.0120658 0.0100923 0
          -0.00793735 0.00284375 0
          -0.00481071 0.000888171 0
          -0.00221144 0.000370876 0
          -0.0004877 8.06958e-05 0
          7.17622e-05 3.03337e-05 0
          0.000143853 -1.29727e-05 0
          1.99261e-06 -5.54598e-05 0
          -0.000531244 -0.000123939 0
          -0.00198594 -0.000477169 0
          -0.00400845 -0.000394858 0
          -0.00722354 -0.00359191 0
          -0.0101957 -0.00212759 0
          -0.0164761 -0.0154819 0
          0 0 0
          0.0256 0 0
          0.0256 0 0
          0.0256 0 0
          0.0256 0 0
          0.0256 0 0
          0.0256 0 0
          0.0256 0 0
          0.0256 0 0
          0.0256 0 0
          0.0256 0 0
          0.0256 0 0
          0.0256 0 0
          0.0256 0 0
          0.0256 0 0
          0.0256 0 0
          0.0256 0 0
        </DataArray>
      </PointData>
      <CellData>
      </CellData>
    </Piece>
  </ImageData>
</VTKFile>
