<?xml version="1.0"?>
<VTKFile type="ImageData" version="0.1" byte_order="LittleEndian">
  <ImageData WholeExtent="0 15 0 15 0 0" Origin="0 0 0" Spacing="1 1 1">
    <Piece Extent="0 15 0 15 0 0">
      <PointData>
        <DataArray type="Float32" Name="rho" format="ascii">
          0.99718
          0.998403
          0.996
          0.999295
          0.996243
          0.997545
          0.995618
          0.995566
          0.994107
          0.993998
          0.992079
          0.993917
          0.987999
          0.998406
          0.988281
          0.993415
          0.996137
          0.996178
          0.996382
          0.996312
          0.996264
          0.996297
          0.996277
          0.996232
          0.996271
          0.996224
          0.996255
          0.996167
          0.996291
          0.996017
          0.996578
          0.995523
          0.996128
          0.996387
          0.99627
          0.996292
          0.996291
          0.996259
          0.996277
          0.996314
          0.99624
          0.996328
          0.996241
          0.996305
          0.996283
          0.996246
          0.99607
          0.996432
          0.995644
          0.996232
          0.996253
          0.996233
          0.996282
          0.99628
          0.996264
          0.996323
          0.996361
          0.996298
          0.996407
          0.996382
          0.996317
          0.9964
          0.996421
          0.996631
          0.995619
          0.996167
          0.99622
          0.996206
          0.996193
          0.996304
          0.996331
          0.996275
          0.99643
          0.996452
          0.99644
          0.996475
          0.99656
          0.996494
          0.996475
          0.996907
          0.995176
          0.996119
          0.996086
          0.996198
          0.996204
          0.996198
          0.99635
          0.996448
          0.996353
          0.99659
          0.996562
          0.996639
          0.996664
          0.996689
          0.996712
          0.997174
          0.994844
          0.995996
          0.996076
          0.996026
          0.996244
          0.996228
          0.996257
          0.996512
          0.996564
          0.996484
          0.996843
          0.996734
          0.996851
          0.996891
          0.99692
          0.997531
          0.994491
          0.995995
          0.995946
          0.996098
          0.995995
          0.99636
          0.996395
          0.996242
          0.996799
          0.996785
          0.996623
          0.997142
          0.996952
          0.997116
          0.997026
          0.997839
          0.99399
          0.995692
          0.995969
          0.995927
          0.996174
          0.996106
          0.996371
          0.996733
          0.99634
          0.997054
          0.997062
          0.996807
          0.997459
          0.997081
          0.997525
          0.998213
          0.993891
          0.996021
          0.995704
          0.995963
          0.996122
          0.996106
          0.996409
          0.996581
          0.99695
          0.996502
          0.997453
          0.997307
          0.997072
          0.997898
          0.997016
          0.998405
          0.99246
          0.995301
          0.99589
          0.995934
          0.99574
          0.996546
          0.9963
          0.996432
          0.996993
          0.9973
          0.996563
          0.998017
          0.99735
          0.997026
          0.998416
          0.998987
          0.994307
          0.996198
          0.995679
          0.995512
          0.99644
          0.995858
          0.996493
          0.996861
          0.996527
          0.997279
          0.997881
          0.996166
          0.9986
          0.997754
          0.996495
          0.99878
          0.987921
          0.994638
          0.995585
          0.996396
          0.995566
          0.996308
          0.996533
          0.996528
          0.997242
          0.996893
          0.997362
          0.998402
          0.996633
          0.998541
          0.998954
          0.99944
          0.992382
          0.996887
          0.995426
          0.995571
          0.995974
          0.996346
          0.996295
          0.996899
          0.996831
          0.997675
          0.996914
          0.99801
          0.99829
          0.996012
          0.994468
          1.00139
          0.97266
          0.993593
          0.996442
          0.995163
          0.996561
          0.995666
          0.996883
          0.996486
          0.997379
          0.996897
          0.998156
          0.996595
          0.99857
          0.994794
          1.00485
          1.00326
          0.939191
          0.985915
          0.992648
          0.996404
          0.996058
          0.996758
          0.996537
          0.996999
          0.996738
          0.997243
          0.996592
          0.997883
          0.995393
          1.00105
          0.994938
          1.02307
        </DataArray>
        <DataArray type="Float32" Name="ux" format="ascii">
          0
          0
          0
          0
          0
          0
          0
          0
          0
          0
          0
          0
          0
          0
          0
          0
          0
          -0.000443773
          -0.000278617
          -2.36497e-06
          0.000454075
          0.000505294
          0.000689963
          0.000826386
          0.000789993
          0.000696049
          0.000446547
          0.000527242
          -0.000319898
          -0.000219061
          -0.000133386
          0
          0
          -5.36536e-05
          0.000489017
          0.000196386
          0.000419016
          0.000813229
          0.000718514
          0.000800403
          0.000864584
          0.00068606
          0.000861055
          0.000218268
          0.000190256
          0.00074301
          -0.000340573
          0
          0
          -0.000721881
          -0.00027445
          1.4864e-05
          -3.47726e-05
          5.99712e-05
          0.000540841
          0.000241331
          0.000182064
          0.000496299
          -0.000142339
          -7.48997e-05
          -0.00010079
          -0.000689257
          -0.0011393
          0
          0
          -0.00044911
          -9.41026e-05
          -0.000125764
          0.00039073
          0.000119371
          0.000169495
          0.00060689
          0.000472724
          7.27354e-05
          0.000368405
          0.000405272
          -0.000295357
          0.000204326
          -0.000499389
          0
          0
          -0.000699399
          -9.18433e-05
          -0.000507221
          -8.40431e-05
          0.000208676
          -0.000234201
          5.25961e-05
          0.000300787
          -9.34603e-05
          8.24073e-06
          -0.000256452
          -0.000443721
          -6.72967e-05
          -0.0011677
          0
          0
          -0.00106754
          -0.00043094
          -0.000421568
          -0.000592071
          -0.000391405
          0.000475561
          -0.000610247
          -0.000405128
          0.000638623
          -0.000504918
          -0.000453336
          -0.00031723
          -0.00032783
          -0.00129895
          0
          0
          -0.000936622
          -0.000349295
          -0.00061111
          -0.000131886
          -0.000456475
          -0.000362382
          0.000401168
          -0.000367196
          -0.000562407
          0.000498314
          -0.000269869
          -0.000681447
          0.000143887
          -0.00138617
          0
          0
          -0.00182478
          -0.0010541
          -0.00149707
          -0.000711651
          -0.000761729
          -0.00156747
          -0.000466709
          0.000211005
          -0.00147685
          -0.000878337
          0.000166734
          -0.00111842
          -0.000635503
          -0.00204209
          0
          0
          -0.000643472
          -0.000178841
          -0.000378413
          -0.000594519
          -0.000741637
          0.000839813
          -0.00115288
          -0.000311614
          0.00195866
          -0.00113688
          -0.000181841
          0.00120478
          0.00066458
          -0.00100971
          0
          0
          -0.00399043
          -0.00247575
          -0.00300679
          -0.00304733
          -0.00185348
          -0.00248858
          -0.00149395
          -0.00272271
          -0.00231527
          0.000499566
          -0.00378741
          -0.00232773
          -0.000170255
          -0.00512878
          0
          0
          0.00140076
          0.000991529
          -0.000603888
          0.00210233
          0.000273616
          0.000367804
          0.00154027
          0.00237261
          0.000357261
          0.0017148
          0.00681562
          0.000852357
          0.00463818
          0.00504739
          0
          0
          -0.00850004
          -0.00758798
          -0.00492321
          -0.00715382
          -0.00671381
          -0.00526935
          -0.00659823
          -0.00589737
          -0.00401605
          -0.00808091
          -0.00710637
          -0.00133954
          -0.0119185
          -0.0160423
          0
          0
          0.00313208
          0.0072072
          0.00222251
          0.00383799
          0.00493083
          0.00373192
          0.00488376
          0.0049264
          0.00502652
          0.00864808
          0.00483638
          0.0069191
          0.0174794
          0.00738431
          0
          0
          -0.0130013
          -0.0150944
          -0.0128274
          -0.0111874
          -0.0124617
          -0.0113058
          -0.0123593
          -0.0132275
          -0.0142914
          -0.0167294
          -0.0146918
          -0.0223769
          -0.0218415
          -0.0131555
          0
          0.0256
          0.0256
          0.0256
          0.0256
          0.0256
          0.0256
          0.0256
          0.0256
          0.0256
          0.0256
          0.0256
          0.0256
          0.0256
          0.0256
          0.0256
          0.0256
        </DataArray>
        <DataArray type="Float32" Name="uy" format="ascii">
          0
          0
          0
          0
          0
          0
          0
          0
          0
          0
          0
          0
          0
          0
          0
          0
          0
          0.000534231
          1.36616e-05
          0.000634262
          1.54917e-05
          0.00043204
          -0.000315485
          -0.000152277
          -0.000634301
          -0.000617313
          -0.0011408
          -0.000928074
          -0.00161284
          -0.000223278
          -0.00166494
          0
          0
          0.000693061
          0.000166385
          0.000817441
          -0.000258111
          0.000598539
          -0.000298353
          -0.000275022
          -0.000509645
          -0.000558277
          -0.00136011
          -0.000355299
          -0.00202648
          -0.00051969
          -0.0016645
          0
          0
          0.000887803
          -0.000140095
          0.00123286
          -0.000322403
          0.000370334
          -0.000130966
          -6.71606e-05
          -0.000630555
          -0.000491042
          -0.000987051
          -0.000122207
          -0.0025708
          0.000543186
          -0.00210411
          0
          0
          0.00122919
          -0.000220284
          0.00108367
          1.20076e-05
          0.000370002
          -0.000412691
          0.000225572
          -0.000685483
          -0.000438712
          -0.000894134
          -0.000419615
          -0.00216594
          0.000533481
          -0.00240669
          0
          0
          0.00131304
          -0.000150211
          0.00129925
          -0.000501648
          0.00102537
          -0.000392611
          -0.000459003
          3.46524e-05
          -0.000334547
          -0.00155141
          0.000540374
          -0.00279807
          0.000891207
          -0.00241548
          0
          0
          0.00160853
          -0.000382163
          0.00178329
          -0.000571187
          0.000666557
          -5.14077e-05
          -2.45982e-06
          -0.000892492
          3.92349e-05
          -0.00107085
          0.000197626
          -0.00309901
          0.00150109
          -0.00283629
          0
          0
          0.00179473
          -0.000532553
          0.00179638
          -0.00012508
          0.000250254
          -0.00034055
          0.000820836
          -0.0011404
          -0.000676779
          -0.000284648
          0.000230395
          -0.00359991
          0.00217306
          -0.0030305
          0
          0
          0.00235949
          -0.000835628
          0.00237916
          -0.00109628
          0.00161133
          -0.000688382
          -0.000671929
          0.000656557
          -0.000678257
          -0.00230991
          0.00218642
          -0.00477914
          0.00303263
          -0.00351515
          0
          0
          0.0022124
          -0.000460923
          0.00194811
          -0.000550872
          0.00116849
          -0.000585896
          -0.000116405
          -0.00139226
          0.00114245
          -0.00196094
          -0.000192561
          -0.00304743
          0.00285585
          -0.00306216
          0
          0
          0.00360281
          -0.00173527
          0.00344324
          -0.000571995
          9.27523e-05
          -9.68919e-05
          0.000593597
          -0.00184391
          -0.00127248
          0.000780194
          0.000209382
          -0.00779131
          0.00772565
          -0.00509915
          0
          0
          0.00288933
          -0.000822116
          0.00358495
          -0.00259749
          0.00217581
          -0.00132119
          -0.00031479
          -0.000254322
          -0.00128357
          -0.00349736
          0.00489972
          -0.00880983
          0.00477823
          -0.00049521
          0
          0
          0.00515396
          -0.000498542
          0.00184748
          1.296e-05
          0.00108746
          -0.00115614
          -0.000534161
          -0.00167546
          9.95044e-05
          -0.00357486
          -0.00201584
          -0.00335683
          0.00653749
          -0.00538407
          0
          0
          0.00472074
          -0.00390213
          0.0055614
          -0.00214624
          0.00115034
          -0.00118657
          -0.000267267
          -0.00225274
          -0.000530657
          -0.00133137
          -8.22244e-05
          -0.0117704
          0.0208833
          -0.00673924
          0
          0
          0.00368035
          -0.00119192
          0.0056129
          -0.00328217
          0.00234334
          -0.00170639
          -0.000309465
          -0.00224103
          -0.00121853
          -0.00433298
          0.00244661
          -0.0148
          0.0104699
          -0.00395861
          0
          0
          0
          0
          0
          0
          0
          0
          0
          0
          0
          0
          0
          0
          0
          0
          0
        </DataArray>
        <DataArray type="Float32" Name="velocity" NumberOfComponents="3" format="ascii">
          0 0 0
          0 0 0
          0 0 0
          0 0 0
          0 0 0
          0 0 0
          0 0 0
          0 0 0
          0 0 0
          0 0 0
          0 0 0
          0 0 0
          0 0 0
          0 0 0
          0 0 0
          0 0 0
          0 0 0
          -0.000443773 0.000534231 0
          -0.000278617 1.36616e-05 0
          -2.36497e-06 0.000634262 0
          0.000454075 1.54917e-05 0
          0.000505294 0.00043204 0
          0.000689963 -0.000315485 0
          0.000826386 -0.000152277 0
          0.000789993 -0.000634301 0
          0.000696049 -0.000617313 0
          0.000446547 -0.0011408 0
          0.000527242 -0.000928074 0
          -0.000319898 -0.00161284 0
          -0.000219061 -0.000223278 0
          -0.000133386 -0.00166494 0
          0 0 0
          0 0 0
          -5.36536e-05 0.000693061 0
          0.000489017 0.000166385 0
          0.000196386 0.000817441 0
          0.000419016 -0.000258111 0
          0.000813229 0.000598539 0
          0.000718514 -0.000298353 0
          0.000800403 -0.000275022 0
          0.000864584 -0.000509645 0
          0.00068606 -0.000558277 0
          0.000861055 -0.00136011 0
          0.000218268 -0.000355299 0
          0.000190256 -0.00202648 0
          0.00074301 -0.00051969 0
          -0.000340573 -0.0016645 0
          0 0 0
          0 0 0
          -0.000721881 0.000887803 0
          -0.00027445 -0.000140095 0
          1.4864e-05 0.00123286 0
          -3.47726e-05 -0.000322403 0
          5.99712e-05 0.000370334 0
          0.000540841 -0.000130966 0
          0.000241331 -6.71606e-05 0
          0.000182064 -0.000630555 0
          0.000496299 -0.000491042 0
          -0.000142339 -0.000987051 0
          -7.48997e-05 -0.000122207 0
          -0.00010079 -0.0025708 0
          -0.000689257 0.000543186 0
          -0.0011393 -0.00210411 0
          0 0 0
          0 0 0
          -0.00044911 0.00122919 0
          -9.41026e-05 -0.000220284 0
          -0.000125764 0.00108367 0
          0.00039073 1.20076e-05 0
          0.000119371 0.000370002 0
          0.000169495 -0.000412691 0
          0.00060689 0.000225572 0
          0.000472724 -0.000685483 0
          7.27354e-05 -0.000438712 0
          0.000368405 -0.000894134 0
          0.000405272 -0.000419615 0
          -0.000295357 -0.00216594 0
          0.000204326 0.000533481 0
          -0.000499389 -0.00240669 0
          0 0 0
          0 0 0
          -0.000699399 0.00131304 0
          -9.18433e-05 -0.000150211 0
          -0.000507221 0.00129925 0
          -8.40431e-05 -0.000501648 0
          0.000208676 0.00102537 0
          -0.000234201 -0.000392611 0
          5.25961e-05 -0.000459003 0
          0.000300787 3.46524e-05 0
          -9.34603e-05 -0.000334547 0
          8.24073e-06 -0.00155141 0
          -0.000256452 0.000540374 0
          -0.000443721 -0.00279807 0
          -6.72967e-05 0.000891207 0
          -0.0011677 -0.00241548 0
          0 0 0
          0 0 0
          -0.00106754 0.00160853 0
          -0.00043094 -0.000382163 0
          -0.000421568 0.00178329 0
          -0.000592071 -0.000571187 0
          -0.000391405 0.000666557 0
          0.000475561 -5.14077e-05 0
          -0.000610247 -2.45982e-06 0
          -0.000405128 -0.000892492 0
          0.000638623 3.92349e-05 0
          -0.000504918 -0.00107085 0
          -0.000453336 0.000197626 0
          -0.00031723 -0.00309901 0
          -0.00032783 0.00150109 0
          -0.00129895 -0.00283629 0
          0 0 0
          0 0 0
          -0.000936622 0.00179473 0
          -0.000349295 -0.000532553 0
          -0.00061111 0.00179638 0
          -0.000131886 -0.00012508 0
          -0.000456475 0.000250254 0
          -0.000362382 -0.00034055 0
          0.000401168 0.000820836 0
          -0.000367196 -0.0011404 0
          -0.000562407 -0.000676779 0
          0.000498314 -0.000284648 0
          -0.000269869 0.000230395 0
          -0.000681447 -0.00359991 0
          0.000143887 0.00217306 0
          -0.00138617 -0.0030305 0
          0 0 0
          0 0 0
          -0.00182478 0.00235949 0
          -0.0010541 -0.000835628 0
          -0.00149707 0.00237916 0
          -0.000711651 -0.00109628 0
          -0.000761729 0.00161133 0
          -0.00156747 -0.000688382 0
          -0.000466709 -0.000671929 0
          0.000211005 0.000656557 0
          -0.00147685 -0.000678257 0
          -0.000878337 -0.00230991 0
          0.000166734 0.00218642 0
          -0.00111842 -0.00477914 0
          -0.000635503 0.00303263 0
          -0.00204209 -0.00351515 0
          0 0 0
          0 0 0
          -0.000643472 0.0022124 0
          -0.000178841 -0.000460923 0
          -0.000378413 0.00194811 0
          -0.000594519 -0.000550872 0
          -0.000741637 0.00116849 0
          0.000839813 -0.000585896 0
          -0.00115288 -0.000116405 0
          -0.000311614 -0.00139226 0
          0.00195866 0.00114245 0
          -0.00113688 -0.00196094 0
          -0.000181841 -0.000192561 0
          0.00120478 -0.00304743 0
          0.00066458 0.00285585 0
          -0.00100971 -0.00306216 0
          0 0 0
          0 0 0
          -0.00399043 0.00360281 0
          -0.00247575 -0.00173527 0
          -0.00300679 0.00344324 0
          -0.00304733 -0.000571995 0
          -0.00185348 9.27523e-05 0
          -0.00248858 -9.68919e-05 0
          -0.00149395 0.000593597 0
          -0.00272271 -0.00184391 0
          -0.00231527 -0.00127248 0
          0.000499566 0.000780194 0
          -0.00378741 0.000209382 0
          -0.00232773 -0.00779131 0
          -0.000170255 0.00772565 0
          -0.00512878 -0.00509915 0
          0 0 0
          0 0 0
          0.00140076 0.00288933 0
          0.000991529 -0.000822116 0
          -0.000603888 0.00358495 0
          0.00210233 -0.00259749 0
          0.000273616 0.00217581 0
          0.000367804 -0.00132119 0
          0.00154027 -0.00031479 0
          0.00237261 -0.000254322 0
          0.000357261 -0.00128357 0
          0.0017148 -0.00349736 0
          0.00681562 0.00489972 0
          0.000852357 -0.00880983 0
          0.00463818 0.00477823 0
          0.00504739 -0.00049521 0
          0 0 0
          0 0 0
          -0.00850004 0.00515396 0
          -0.00758798 -0.000498542 0
          -0.00492321 0.00184748 0
          -0.00715382 1.296e-05 0
          -0.00671381 0.00108746 0
          -0.00526935 -0.00115614 0
          -0.00659823 -0.000534161 0
          -0.00589737 -0.00167546 0
          -0.00401605 9.95044e-05 0
          -0.00808091 -0.00357486 0
          -0.00710637 -0.00201584 0
          -0.00133954 -0.00335683 0
          -0.0119185 0.00653749 0
          -0.0160423 -0.00538407 0
          0 0 0
          0 0 0
          0.00313208 0.00472074 0
          0.0072072 -0.00390213 0
          0.00222251 0.0055614 0
          0.00383799 -0.00214624 0
          0.00493083 0.00115034 0
          0.00373192 -0.00118657 0
          0.00488376 -0.000267267 0
          0.0049264 -0.00225274 0
          0.00502652 -0.000530657 0
          0.00864808 -0.00133137 0
          0.00483638 -8.22244e-05 0
          0.0069191 -0.0117704 0
          0.0174794 0.0208833 0
          0.00738431 -0.00673924 0
          0 0 0
          0 0 0
          -0.0130013 0.00368035 0
          -0.0150944 -0.00119192 0
          -0.0128274 0.0056129 0
          -0.0111874 -0.00328217 0
          -0.0124617 0.00234334 0
          -0.0113058 -0.00170639 0
          -0.0123593 -0.000309465 0
          -0.0132275 -0.00224103 0
          -0.0142914 -0.00121853 0
          -0.0167294 -0.00433298 0
          -0.0146918 0.00244661 0
          -0.0223769 -0.0148 0
          -0.0218415 0.0104699 0
          -0.0131555 -0.00395861 0
          0 0 0
          0.0256 0 0
          0.0256 0 0
          0.0256 0 0
          0.0256 0 0
          0.0256 0 0
          0.0256 0 0
          0.0256 0 0
          0.0256 0 0
          0.0256 0 0
          0.0256 0 0
          0.0256 0 0
          0.0256 0 0
          0.0256 0 0
          0.0256 0 0
          0.0256 0 0
          0.0256 0 0
        </DataArray>
      </PointData>
      <CellData>
      </CellData>
    </Piece>
  </ImageData>
</VTKFile>
