<?xml version="1.0"?>
<VTKFile type="ImageData" version="0.1" byte_order="LittleEndian">
  <ImageData WholeExtent="0 15 0 15 0 0" Origin="0 0 0" Spacing="1 1 1">
    <Piece Extent="0 15 0 15 0 0">
      <PointData>
        <DataArray type="Float32" Name="rho" format="ascii">
          0.989323
          0.987302
          0.988465
          0.9903
          0.98853
          0.990517
          0.988693
          0.989991
          0.989035
          0.990363
          0.989687
          0.992823
          0.988201
          1.00058
          0.990765
          0.993218
          0.990681
          0.992378
          0.992574
          0.99264
          0.992408
          0.992668
          0.992518
          0.99257
          0.992578
          0.992617
          0.992552
          0.992716
          0.992627
          0.992588
          0.993174
          0.992831
          0.991692
          0.992714
          0.992513
          0.992625
          0.992671
          0.992488
          0.992659
          0.992577
          0.992554
          0.992605
          0.992584
          0.992561
          0.99266
          0.992614
          0.992435
          0.993244
          0.991154
          0.992667
          0.992716
          0.992576
          0.992703
          0.992671
          0.992516
          0.992667
          0.992556
          0.99254
          0.992581
          0.992528
          0.992526
          0.992533
          0.992634
          0.99329
          0.991553
          0.992705
          0.992786
          0.99277
          0.992581
          0.992751
          0.992663
          0.992464
          0.992688
          0.992474
          0.992485
          0.992522
          0.992433
          0.992489
          0.992384
          0.993136
          0.991459
          0.992863
          0.992739
          0.992857
          0.992791
          0.992544
          0.992759
          0.992651
          0.99236
          0.992646
          0.992373
          0.992394
          0.992403
          0.992311
          0.992341
          0.993089
          0.991302
          0.992925
          0.99295
          0.992729
          0.992889
          0.992799
          0.992492
          0.992732
          0.992514
          0.992284
          0.992575
          0.992161
          0.99234
          0.992206
          0.992292
          0.992988
          0.991503
          0.993072
          0.992959
          0.993009
          0.992724
          0.99292
          0.99273
          0.992252
          0.992833
          0.992291
          0.99207
          0.992558
          0.991906
          0.992331
          0.991746
          0.993029
          0.990965
          0.993024
          0.993124
          0.993048
          0.993037
          0.992575
          0.992772
          0.992852
          0.991911
          0.992768
          0.992092
          0.991794
          0.992429
          0.991363
          0.992534
          0.992649
          0.992499
          0.993446
          0.993196
          0.993147
          0.992953
          0.992924
          0.992697
          0.992505
          0.992684
          0.991587
          0.992722
          0.991749
          0.991596
          0.992581
          0.990703
          0.99272
          0.988881
          0.993296
          0.993488
          0.993106
          0.993035
          0.993267
          0.992522
          0.992419
          0.992482
          0.9924
          0.991212
          0.992825
          0.991106
          0.990986
          0.992818
          0.992031
          0.994669
          0.994274
          0.993189
          0.993488
          0.993581
          0.992479
          0.992935
          0.992635
          0.991847
          0.992321
          0.992399
          0.989854
          0.993033
          0.991014
          0.988732
          0.992915
          0.984024
          0.992345
          0.99448
          0.99397
          0.992751
          0.993373
          0.992768
          0.992295
          0.992442
          0.991652
          0.991658
          0.992029
          0.990531
          0.991514
          0.9935
          0.991001
          0.992671
          0.996405
          0.993692
          0.993499
          0.993507
          0.993198
          0.992488
          0.992573
          0.991808
          0.991963
          0.990663
          0.991994
          0.991361
          0.988707
          0.985909
          0.993397
          0.973876
          0.993622
          0.993751
          0.994222
          0.993961
          0.992369
          0.99345
          0.991745
          0.992387
          0.991071
          0.991883
          0.990302
          0.991144
          0.987779
          0.998461
          0.997732
          0.94247
          0.985652
          0.990973
          0.993432
          0.993459
          0.992994
          0.992705
          0.992406
          0.991783
          0.991796
          0.991007
          0.991935
          0.989229
          0.99463
          0.988172
          1.00353
        </DataArray>
        <DataArray type="Float32" Name="ux" format="ascii">
          0
          0
          0
          0
          0
          0
          0
          0
          0
          0
          0
          0
          0
          0
          0
          0
          0
          -0.00140001
          -0.00143241
          -0.00129352
          -0.00105594
          -0.00118893
          -0.00122971
          -0.00115127
          -0.00129105
          -0.0014554
          -0.00149844
          -0.0014745
          -0.00195512
          -0.00139954
          -0.00120854
          0
          0
          -0.000108552
          4.26198e-05
          -0.000644623
          -0.000489432
          -0.000139181
          -0.000474149
          -0.000549257
          -0.000511816
          -0.000688824
          -0.000491406
          -0.00099145
          -0.00086286
          0.000311282
          -0.000248918
          0
          0
          -0.00144235
          -0.000989507
          -0.000703795
          -0.00128674
          -0.00116345
          -0.000577302
          -0.00123794
          -0.00120287
          -0.000907099
          -0.00166182
          -0.00149002
          -0.00117518
          -0.00160068
          -0.00203138
          0
          0
          -0.000600939
          -0.000681783
          -0.000616789
          0.000123144
          -0.000802671
          -0.000657709
          0.00010916
          -0.000364141
          -0.00077877
          -0.000388256
          -0.000204047
          -0.000875101
          -0.00018272
          -0.000654211
          0
          0
          -0.000717369
          -0.000148666
          -0.00100414
          -0.000481739
          0.000180853
          -0.000867282
          -0.000432895
          6.35359e-06
          -0.000754608
          -0.000109847
          -0.000701918
          -0.000887038
          0.000201489
          -0.00117096
          0
          0
          -0.00115476
          -0.000469266
          -0.000326643
          -0.000915683
          -0.000459857
          0.000996404
          -0.00127323
          -0.000501513
          0.00111093
          -0.00101344
          -0.000513732
          -0.000286096
          -0.000308658
          -0.00129086
          0
          0
          -0.000669313
          -0.000323706
          -0.000297253
          0.000778864
          -0.000321528
          -0.000199642
          0.00162607
          0.000115181
          -2.91272e-05
          0.00144049
          8.04916e-05
          2.80081e-05
          0.000795612
          -0.00112998
          0
          0
          -0.00155866
          -0.000576825
          -0.000987654
          -0.000116206
          -0.00010874
          -0.00102309
          0.000528461
          0.00151723
          -0.00142448
          0.000305793
          0.000945474
          -0.00124377
          -0.000176932
          -0.00233768
          0
          0
          0.000435656
          0.00120534
          0.000887048
          0.000561589
          0.00138579
          0.00402639
          0.000322061
          0.00199092
          0.0054743
          0.000569836
          0.00319705
          0.00392843
          0.00352684
          0.00252708
          0
          0
          -0.00328727
          -0.0019382
          -0.00271902
          -0.000797546
          0.000143306
          -0.00159752
          0.00036435
          -0.0019034
          -0.00173822
          0.00207
          -0.0053846
          -0.000755473
          -0.000731868
          -0.0091484
          0
          0
          0.00187795
          0.00155233
          0.00270129
          0.00593893
          0.00254071
          0.00421976
          0.00566872
          0.0076993
          0.00509318
          0.00703137
          0.0144679
          0.00517929
          0.0117459
          0.0125611
          0
          0
          -0.0062632
          -0.000988447
          0.000953156
          -0.00314745
          -0.00188533
          -0.00077249
          -0.00282604
          -0.0025532
          -0.00206443
          -0.00784955
          -0.00856938
          -0.0036963
          -0.0206258
          -0.022197
          0
          0
          0.0112189
          0.0151632
          0.00550648
          0.0101842
          0.00981418
          0.00940997
          0.0106239
          0.0108433
          0.0117959
          0.0156558
          0.0107755
          0.014209
          0.0237537
          0.0111728
          0
          0
          -0.0249508
          -0.0361983
          -0.0349128
          -0.0383879
          -0.0417736
          -0.0422321
          -0.0445926
          -0.0446749
          -0.0442347
          -0.0431571
          -0.036805
          -0.0395807
          -0.0322295
          -0.0152997
          0
          0.0256
          0.0256
          0.0256
          0.0256
          0.0256
          0.0256
          0.0256
          0.0256
          0.0256
          0.0256
          0.0256
          0.0256
          0.0256
          0.0256
          0.0256
          0.0256
        </DataArray>
        <DataArray type="Float32" Name="uy" format="ascii">
          0
          0
          0
          0
          0
          0
          0
          0
          0
          0
          0
          0
          0
          0
          0
          0
          0
          -0.0014495
          -0.00177019
          -0.000774969
          -0.00162325
          -0.000327618
          -0.00164909
          -0.000510685
          -0.00125207
          -0.000317034
          -0.00107536
          0.000457794
          -0.00105295
          0.0022434
          -5.92735e-05
          0
          0
          -0.00145139
          -0.00153891
          -0.000739215
          -0.00206559
          -0.000125447
          -0.0015282
          -0.000729438
          -0.000919594
          -0.00037045
          -0.00118342
          0.0010439
          -0.00166863
          0.00156613
          -9.98086e-05
          0
          0
          -0.00144203
          -0.00192859
          -0.000267795
          -0.00208694
          -0.000772693
          -0.00101155
          -0.000514365
          -0.0010802
          -0.000146044
          -0.000624807
          0.00120674
          -0.00222784
          0.0024846
          -0.000507431
          0
          0
          -0.0010224
          -0.00238205
          -0.000698653
          -0.0016108
          -0.000715491
          -0.0018197
          0.000178387
          -0.00131947
          0.000178762
          -0.000515804
          0.000904859
          -0.00186478
          0.0028051
          -0.00109045
          0
          0
          -0.00131828
          -0.00206912
          -0.00089187
          -0.00247332
          0.000278589
          -0.00184024
          -0.00114333
          0.0002821
          -0.000148476
          -0.00110863
          0.00230507
          -0.00260606
          0.00309675
          -0.000638157
          0
          0
          -0.00134834
          -0.00267228
          -0.00014448
          -0.00288979
          -0.000797017
          -0.000906783
          -0.000460222
          -0.00153403
          0.000982226
          -0.000784827
          0.00232706
          -0.00308302
          0.0037903
          -0.000580957
          0
          0
          -0.00153159
          -0.00297723
          -0.000815533
          -0.00224169
          -0.00137405
          -0.00171147
          0.000923576
          -0.00211321
          8.95948e-05
          0.00116145
          0.00162898
          -0.00289087
          0.004633
          -8.65619e-05
          0
          0
          -0.00146937
          -0.00346077
          -0.000905954
          -0.00357836
          0.000682014
          -0.00273704
          -0.00173539
          0.00137744
          -0.000462554
          -0.00152084
          0.00552339
          -0.00534057
          0.00699812
          -0.000597925
          0
          0
          -0.00237311
          -0.00356989
          -0.00124912
          -0.00311129
          -0.00108569
          -0.00224251
          -0.000523543
          -0.00207614
          0.00300348
          -0.00171802
          0.00300444
          -0.00119989
          0.00454558
          0.00295536
          0
          0
          -0.00252132
          -0.00442824
          -0.000263573
          -0.0045886
          -0.00242848
          -0.00156264
          0.000313374
          -0.00252466
          -0.000659291
          0.00318294
          0.00238121
          -0.00720296
          0.0128224
          4.13722e-05
          0
          0
          -0.00339997
          -0.00372321
          -0.00276596
          -0.00650247
          0.000905306
          -0.00368591
          -0.000740281
          1.45034e-05
          -0.000229791
          -0.00172598
          0.00961761
          -0.00927065
          0.0117486
          0.00826281
          0
          0
          -0.00229132
          -0.00728492
          -0.00422411
          -0.00307498
          -0.00174583
          -0.00381673
          -0.00184136
          -0.00209765
          0.00208597
          -0.00271528
          0.00158166
          0.000822502
          0.0101348
          0.00346143
          0
          0
          -0.0122495
          -0.00738876
          0.000459604
          -0.00605762
          -0.000528576
          -0.00351461
          -0.000136544
          -0.00111597
          0.00287934
          0.00330397
          0.00527638
          -0.00485049
          0.0310266
          -0.00121092
          0
          0
          -0.00962581
          -0.00124253
          0.000725623
          -0.00680317
          0.000860593
          -0.00509653
          -0.000824787
          -0.00353584
          -0.000353278
          -0.00287097
          0.00538533
          -0.0120618
          0.0174669
          0.00308331
          0
          0
          0
          0
          0
          0
          0
          0
          0
          0
          0
          0
          0
          0
          0
          0
          0
        </DataArray>
        <DataArray type="Float32" Name="velocity" NumberOfComponents="3" format="ascii">
          0 0 0
          0 0 0
          0 0 0
          0 0 0
          0 0 0
          0 0 0
          0 0 0
          0 0 0
          0 0 0
          0 0 0
          0 0 0
          0 0 0
          0 0 0
          0 0 0
          0 0 0
          0 0 0
          0 0 0
          -0.00140001 -0.0014495 0
          -0.00143241 -0.00177019 0
          -0.00129352 -0.000774969 0
          -0.00105594 -0.00162325 0
          -0.00118893 -0.000327618 0
          -0.00122971 -0.00164909 0
          -0.00115127 -0.000510685 0
          -0.00129105 -0.00125207 0
          -0.0014554 -0.000317034 0
          -0.00149844 -0.00107536 0
          -0.0014745 0.000457794 0
          -0.00195512 -0.00105295 0
          -0.00139954 0.0022434 0
          -0.00120854 -5.92735e-05 0
          0 0 0
          0 0 0
          -0.000108552 -0.00145139 0
          4.26198e-05 -0.00153891 0
          -0.000644623 -0.000739215 0
          -0.000489432 -0.00206559 0
          -0.000139181 -0.000125447 0
          -0.000474149 -0.0015282 0
          -0.000549257 -0.000729438 0
          -0.000511816 -0.000919594 0
          -0.000688824 -0.00037045 0
          -0.000491406 -0.00118342 0
          -0.00099145 0.0010439 0
          -0.00086286 -0.00166863 0
          0.000311282 0.00156613 0
          -0.000248918 -9.98086e-05 0
          0 0 0
          0 0 0
          -0.00144235 -0.00144203 0
          -0.000989507 -0.00192859 0
          -0.000703795 -0.000267795 0
          -0.00128674 -0.00208694 0
          -0.00116345 -0.000772693 0
          -0.000577302 -0.00101155 0
          -0.00123794 -0.000514365 0
          -0.00120287 -0.0010802 0
          -0.000907099 -0.000146044 0
          -0.00166182 -0.000624807 0
          -0.00149002 0.00120674 0
          -0.00117518 -0.00222784 0
          -0.00160068 0.0024846 0
          -0.00203138 -0.000507431 0
          0 0 0
          0 0 0
          -0.000600939 -0.0010224 0
          -0.000681783 -0.00238205 0
          -0.000616789 -0.000698653 0
          0.000123144 -0.0016108 0
          -0.000802671 -0.000715491 0
          -0.000657709 -0.0018197 0
          0.00010916 0.000178387 0
          -0.000364141 -0.00131947 0
          -0.00077877 0.000178762 0
          -0.000388256 -0.000515804 0
          -0.000204047 0.000904859 0
          -0.000875101 -0.00186478 0
          -0.00018272 0.0028051 0
          -0.000654211 -0.00109045 0
          0 0 0
          0 0 0
          -0.000717369 -0.00131828 0
          -0.000148666 -0.00206912 0
          -0.00100414 -0.00089187 0
          -0.000481739 -0.00247332 0
          0.000180853 0.000278589 0
          -0.000867282 -0.00184024 0
          -0.000432895 -0.00114333 0
          6.35359e-06 0.0002821 0
          -0.000754608 -0.000148476 0
          -0.000109847 -0.00110863 0
          -0.000701918 0.00230507 0
          -0.000887038 -0.00260606 0
          0.000201489 0.00309675 0
          -0.00117096 -0.000638157 0
          0 0 0
          0 0 0
          -0.00115476 -0.00134834 0
          -0.000469266 -0.00267228 0
          -0.000326643 -0.00014448 0
          -0.000915683 -0.00288979 0
          -0.000459857 -0.000797017 0
          0.000996404 -0.000906783 0
          -0.00127323 -0.000460222 0
          -0.000501513 -0.00153403 0
          0.00111093 0.000982226 0
          -0.00101344 -0.000784827 0
          -0.000513732 0.00232706 0
          -0.000286096 -0.00308302 0
          -0.000308658 0.0037903 0
          -0.00129086 -0.000580957 0
          0 0 0
          0 0 0
          -0.000669313 -0.00153159 0
          -0.000323706 -0.00297723 0
          -0.000297253 -0.000815533 0
          0.000778864 -0.00224169 0
          -0.000321528 -0.00137405 0
          -0.000199642 -0.00171147 0
          0.00162607 0.000923576 0
          0.000115181 -0.00211321 0
          -2.91272e-05 8.95948e-05 0
          0.00144049 0.00116145 0
          8.04916e-05 0.00162898 0
          2.80081e-05 -0.00289087 0
          0.000795612 0.004633 0
          -0.00112998 -8.65619e-05 0
          0 0 0
          0 0 0
          -0.00155866 -0.00146937 0
          -0.000576825 -0.00346077 0
          -0.000987654 -0.000905954 0
          -0.000116206 -0.00357836 0
          -0.00010874 0.000682014 0
          -0.00102309 -0.00273704 0
          0.000528461 -0.00173539 0
          0.00151723 0.00137744 0
          -0.00142448 -0.000462554 0
          0.000305793 -0.00152084 0
          0.000945474 0.00552339 0
          -0.00124377 -0.00534057 0
          -0.000176932 0.00699812 0
          -0.00233768 -0.000597925 0
          0 0 0
          0 0 0
          0.000435656 -0.00237311 0
          0.00120534 -0.00356989 0
          0.000887048 -0.00124912 0
          0.000561589 -0.00311129 0
          0.00138579 -0.00108569 0
          0.00402639 -0.00224251 0
          0.000322061 -0.000523543 0
          0.00199092 -0.00207614 0
          0.0054743 0.00300348 0
          0.000569836 -0.00171802 0
          0.00319705 0.00300444 0
          0.00392843 -0.00119989 0
          0.00352684 0.00454558 0
          0.00252708 0.00295536 0
          0 0 0
          0 0 0
          -0.00328727 -0.00252132 0
          -0.0019382 -0.00442824 0
          -0.00271902 -0.000263573 0
          -0.000797546 -0.0045886 0
          0.000143306 -0.00242848 0
          -0.00159752 -0.00156264 0
          0.00036435 0.000313374 0
          -0.0019034 -0.00252466 0
          -0.00173822 -0.000659291 0
          0.00207 0.00318294 0
          -0.0053846 0.00238121 0
          -0.000755473 -0.00720296 0
          -0.000731868 0.0128224 0
          -0.0091484 4.13722e-05 0
          0 0 0
          0 0 0
          0.00187795 -0.00339997 0
          0.00155233 -0.00372321 0
          0.00270129 -0.00276596 0
          0.00593893 -0.00650247 0
          0.00254071 0.000905306 0
          0.00421976 -0.00368591 0
          0.00566872 -0.000740281 0
          0.0076993 1.45034e-05 0
          0.00509318 -0.000229791 0
          0.00703137 -0.00172598 0
          0.0144679 0.00961761 0
          0.00517929 -0.00927065 0
          0.0117459 0.0117486 0
          0.0125611 0.00826281 0
          0 0 0
          0 0 0
          -0.0062632 -0.00229132 0
          -0.000988447 -0.00728492 0
          0.000953156 -0.00422411 0
          -0.00314745 -0.00307498 0
          -0.00188533 -0.00174583 0
          -0.00077249 -0.00381673 0
          -0.00282604 -0.00184136 0
          -0.0025532 -0.00209765 0
          -0.00206443 0.00208597 0
          -0.00784955 -0.00271528 0
          -0.00856938 0.00158166 0
          -0.0036963 0.000822502 0
          -0.0206258 0.0101348 0
          -0.022197 0.00346143 0
          0 0 0
          0 0 0
          0.0112189 -0.0122495 0
          0.0151632 -0.00738876 0
          0.00550648 0.000459604 0
          0.0101842 -0.00605762 0
          0.00981418 -0.000528576 0
          0.00940997 -0.00351461 0
          0.0106239 -0.000136544 0
          0.0108433 -0.00111597 0
          0.0117959 0.00287934 0
          0.0156558 0.00330397 0
          0.0107755 0.00527638 0
          0.014209 -0.00485049 0
          0.0237537 0.0310266 0
          0.0111728 -0.00121092 0
          0 0 0
          0 0 0
          -0.0249508 -0.00962581 0
          -0.0361983 -0.00124253 0
          -0.0349128 0.000725623 0
          -0.0383879 -0.00680317 0
          -0.0417736 0.000860593 0
          -0.0422321 -0.00509653 0
          -0.0445926 -0.000824787 0
          -0.0446749 -0.00353584 0
          -0.0442347 -0.000353278 0
          -0.0431571 -0.00287097 0
          -0.036805 0.00538533 0
          -0.0395807 -0.0120618 0
          -0.0322295 0.0174669 0
          -0.0152997 0.00308331 0
          0 0 0
          0.0256 0 0
          0.0256 0 0
          0.0256 0 0
          0.0256 0 0
          0.0256 0 0
          0.0256 0 0
          0.0256 0 0
          0.0256 0 0
          0.0256 0 0
          0.0256 0 0
          0.0256 0 0
          0.0256 0 0
          0.0256 0 0
          0.0256 0 0
          0.0256 0 0
          0.0256 0 0
        </DataArray>
      </PointData>
      <CellData>
      </CellData>
    </Piece>
  </ImageData>
</VTKFile>
