<?xml version="1.0"?>
<VTKFile type="ImageData" version="0.1" byte_order="LittleEndian">
  <ImageData WholeExtent="0 15 0 15 0 0" Origin="0 0 0" Spacing="1 1 1">
    <Piece Extent="0 15 0 15 0 0">
      <PointData>
        <DataArray type="Float32" Name="rho" format="ascii">
          0.995377
          0.997045
          0.995113
          0.998301
          0.995347
          0.996836
          0.99489
          0.995032
          0.993666
          0.993755
          0.99203
          0.994066
          0.98835
          0.999381
          0.989119
          0.994465
          0.995386
          0.996711
          0.996911
          0.996805
          0.996606
          0.996557
          0.996341
          0.996141
          0.995989
          0.995793
          0.995633
          0.995485
          0.995458
          0.995198
          0.995772
          0.995574
          0.995709
          0.997015
          0.996838
          0.996791
          0.996687
          0.996471
          0.996348
          0.996177
          0.995918
          0.99581
          0.995578
          0.99548
          0.995386
          0.995281
          0.995078
          0.996221
          0.99529
          0.996911
          0.996882
          0.996747
          0.996682
          0.996506
          0.996275
          0.996148
          0.995952
          0.995695
          0.995611
          0.995427
          0.995256
          0.995249
          0.995262
          0.99623
          0.995438
          0.996909
          0.996905
          0.996778
          0.996577
          0.996523
          0.99632
          0.996003
          0.995948
          0.99571
          0.995486
          0.99536
          0.995268
          0.995139
          0.995046
          0.996219
          0.995133
          0.99694
          0.996812
          0.996805
          0.996624
          0.996366
          0.9963
          0.996117
          0.995722
          0.995719
          0.99543
          0.995286
          0.995157
          0.995048
          0.995013
          0.996178
          0.994939
          0.99689
          0.996875
          0.996644
          0.996679
          0.996406
          0.996118
          0.9961
          0.995819
          0.995432
          0.99552
          0.995141
          0.995076
          0.994962
          0.994908
          0.99621
          0.99476
          0.996961
          0.996794
          0.996776
          0.996416
          0.996516
          0.996224
          0.995685
          0.995955
          0.995541
          0.995065
          0.995341
          0.994855
          0.994901
          0.994654
          0.996167
          0.994395
          0.996721
          0.99688
          0.99664
          0.996622
          0.996207
          0.996139
          0.996134
          0.995276
          0.995687
          0.995274
          0.9947
          0.995136
          0.994467
          0.994886
          0.996174
          0.994556
          0.997137
          0.996676
          0.996709
          0.996567
          0.996217
          0.996114
          0.995846
          0.99582
          0.994876
          0.995503
          0.994936
          0.994415
          0.995093
          0.993921
          0.996011
          0.993
          0.996483
          0.996934
          0.996697
          0.996226
          0.996642
          0.995932
          0.995628
          0.995702
          0.995546
          0.994343
          0.995482
          0.994356
          0.993815
          0.995153
          0.996255
          0.995443
          0.997515
          0.996742
          0.996387
          0.996932
          0.995905
          0.996121
          0.995961
          0.995106
          0.995385
          0.995493
          0.993262
          0.995498
          0.994233
          0.992691
          0.995802
          0.988411
          0.995858
          0.996845
          0.99728
          0.996058
          0.996415
          0.996104
          0.995558
          0.995747
          0.994853
          0.994801
          0.995335
          0.993259
          0.994803
          0.995183
          0.996146
          0.993461
          0.998527
          0.99668
          0.996528
          0.996552
          0.996422
          0.995858
          0.995916
          0.995239
          0.995492
          0.99419
          0.994877
          0.99457
          0.991946
          0.98997
          0.99777
          0.973935
          0.995202
          0.997701
          0.996247
          0.997155
          0.99573
          0.99648
          0.995416
          0.995745
          0.994651
          0.995288
          0.993286
          0.994706
          0.990613
          1.00073
          0.999783
          0.941174
          0.987014
          0.99332
          0.996739
          0.996173
          0.99644
          0.995896
          0.995912
          0.995254
          0.995299
          0.994302
          0.995176
          0.992372
          0.997826
          0.991304
          1.01752
        </DataArray>
        <DataArray type="Float32" Name="ux" format="ascii">
          0
          0
          0
          0
          0
          0
          0
          0
          0
          0
          0
          0
          0
          0
          0
          0
          0
          -0.00124598
          -0.00147026
          -0.00155568
          -0.00141112
          -0.00162924
          -0.00164073
          -0.00157451
          -0.00162245
          -0.00164684
          -0.00168026
          -0.00138571
          -0.00187861
          -0.00134677
          -0.000881553
          0
          0
          -0.000593788
          -0.000484548
          -0.00122704
          -0.0013061
          -0.0011264
          -0.00142691
          -0.00145291
          -0.00137464
          -0.00146034
          -0.00111494
          -0.00151177
          -0.0012107
          -0.00018589
          -0.000794924
          0
          0
          -0.00144508
          -0.00133109
          -0.00135208
          -0.00179757
          -0.00190713
          -0.00151922
          -0.00197959
          -0.00202888
          -0.00159741
          -0.00211654
          -0.00181407
          -0.00147817
          -0.00174614
          -0.00183881
          0
          0
          -0.00101727
          -0.00108772
          -0.00141217
          -0.00111258
          -0.00174053
          -0.00182145
          -0.00135564
          -0.00154722
          -0.00190297
          -0.00140277
          -0.00112092
          -0.00154944
          -0.000674254
          -0.00100654
          0
          0
          -0.00121706
          -0.000954332
          -0.00178901
          -0.00158305
          -0.00141859
          -0.00216616
          -0.00189628
          -0.00156998
          -0.00197502
          -0.00164258
          -0.00174757
          -0.00165133
          -0.00086498
          -0.00168096
          0
          0
          -0.00160365
          -0.0012754
          -0.00154536
          -0.00209008
          -0.00201567
          -0.00111929
          -0.00256418
          -0.0022625
          -0.00094161
          -0.00216612
          -0.00184509
          -0.00139242
          -0.00113535
          -0.00178943
          0
          0
          -0.00135589
          -0.00115237
          -0.00165618
          -0.00134319
          -0.00202376
          -0.00203152
          -0.0011177
          -0.00207415
          -0.0022226
          -0.000832009
          -0.00154577
          -0.00165586
          -0.000502461
          -0.00182634
          0
          0
          -0.00227968
          -0.00180274
          -0.00256747
          -0.00196292
          -0.00220358
          -0.00327088
          -0.00203299
          -0.00123444
          -0.00314141
          -0.00221151
          -0.000921817
          -0.00212616
          -0.00123637
          -0.00245565
          0
          0
          -0.000855653
          -0.000745091
          -0.00123552
          -0.00174915
          -0.00197663
          -0.000266851
          -0.00273802
          -0.00166357
          0.00102016
          -0.00243318
          -0.00103581
          0.000663447
          0.000274556
          -0.00105007
          0
          0
          -0.00446894
          -0.0032386
          -0.00409887
          -0.00417922
          -0.00308955
          -0.00404139
          -0.00287386
          -0.00433876
          -0.00384288
          -0.000506313
          -0.00524012
          -0.00302796
          -0.000725958
          -0.00606223
          0
          0
          0.00131262
          0.000424234
          -0.00124892
          0.00140811
          -0.000969763
          -0.00075387
          0.000448145
          0.00146538
          -0.000581126
          0.00113166
          0.00706461
          0.000703211
          0.00524244
          0.00599587
          0
          0
          -0.00912521
          -0.00810072
          -0.00567952
          -0.00848956
          -0.00799325
          -0.00668833
          -0.00809134
          -0.00719992
          -0.00522597
          -0.00939366
          -0.00828762
          -0.00214209
          -0.013962
          -0.0177291
          0
          0
          0.00402025
          0.00796285
          0.00201251
          0.00393922
          0.00466654
          0.00335937
          0.00449239
          0.00446304
          0.00463429
          0.00832623
          0.00438299
          0.00687705
          0.0175713
          0.00737282
          0
          0
          -0.0149128
          -0.0182369
          -0.016254
          -0.0155524
          -0.0173703
          -0.0165897
          -0.0181422
          -0.019172
          -0.0203041
          -0.0223587
          -0.0198054
          -0.0269916
          -0.0247932
          -0.0141463
          0
          0.0256
          0.0256
          0.0256
          0.0256
          0.0256
          0.0256
          0.0256
          0.0256
          0.0256
          0.0256
          0.0256
          0.0256
          0.0256
          0.0256
          0.0256
          0.0256
        </DataArray>
        <DataArray type="Float32" Name="uy" format="ascii">
          0
          0
          0
          0
          0
          0
          0
          0
          0
          0
          0
          0
          0
          0
          0
          0
          0
          -7.59645e-05
          -0.000613769
          0.000164887
          -0.000517237
          0.000177232
          -0.00068666
          -0.000255098
          -0.000751823
          -0.000496255
          -0.00106023
          -0.000515814
          -0.00138348
          0.000505331
          -0.00118457
          0
          0
          1.98181e-05
          -0.000457504
          0.000308836
          -0.000860507
          0.000334047
          -0.000671058
          -0.000437149
          -0.000609206
          -0.000483733
          -0.00129469
          5.68422e-05
          -0.00188607
          0.000102198
          -0.00124457
          0
          0
          0.000142541
          -0.000819911
          0.000730876
          -0.000935427
          -2.63834e-05
          -0.000446988
          -0.000233619
          -0.000773974
          -0.000432365
          -0.000865776
          0.000228955
          -0.00244009
          0.00113191
          -0.00171971
          0
          0
          0.000516314
          -0.00101038
          0.000521694
          -0.000565991
          -2.8968e-05
          -0.000872115
          0.000138539
          -0.000885893
          -0.000356426
          -0.000806533
          -8.60661e-05
          -0.00208639
          0.00117998
          -0.0021287
          0
          0
          0.000532218
          -0.00087408
          0.00065671
          -0.0011657
          0.000730639
          -0.000854788
          -0.000751194
          1.94023e-05
          -0.000333883
          -0.00151351
          0.000939974
          -0.00278639
          0.00150751
          -0.00210252
          0
          0
          0.000809776
          -0.00115795
          0.00124712
          -0.00130432
          0.000239611
          -0.000385872
          -0.000227175
          -0.00115086
          0.000155058
          -0.00102098
          0.000559972
          -0.00313249
          0.00212407
          -0.00251739
          0
          0
          0.000983834
          -0.00129678
          0.00116982
          -0.000723573
          -0.000268731
          -0.00077276
          0.000773168
          -0.00148113
          -0.000678313
          -6.01343e-05
          0.000471819
          -0.00362318
          0.00283667
          -0.0026766
          0
          0
          0.00157463
          -0.0015806
          0.0017377
          -0.0017787
          0.00135083
          -0.001244
          -0.00102973
          0.000731401
          -0.000803881
          -0.00234258
          0.00275023
          -0.00506297
          0.00383298
          -0.00312321
          0
          0
          0.00137724
          -0.00111644
          0.0013161
          -0.00115702
          0.000747932
          -0.00104918
          -0.000375342
          -0.00172424
          0.00137122
          -0.00205754
          0.000116253
          -0.00296393
          0.00331238
          -0.00229036
          0
          0
          0.00276359
          -0.00231636
          0.00290556
          -0.0012756
          -0.000430345
          -0.000444902
          0.000410079
          -0.00222871
          -0.00138417
          0.00113218
          0.000348406
          -0.00813687
          0.0088426
          -0.00451272
          0
          0
          0.0020592
          -0.00121905
          0.00279607
          -0.00331931
          0.00196842
          -0.00188989
          -0.000551107
          -0.000412142
          -0.00150085
          -0.00354819
          0.00548093
          -0.00942481
          0.00586524
          0.000921811
          0
          0
          0.00451674
          -0.00110748
          0.00112165
          -0.000396058
          0.00070829
          -0.00171398
          -0.000927076
          -0.00208877
          1.2827e-05
          -0.00393773
          -0.00196716
          -0.00311333
          0.00730133
          -0.00395553
          0
          0
          0.00312849
          -0.00418961
          0.0051082
          -0.00276265
          0.000924195
          -0.00171766
          -0.000659108
          -0.00258793
          -0.000570713
          -0.00115222
          2.00928e-05
          -0.0112118
          0.0232143
          -0.00602454
          0
          0
          0.00231947
          -0.000930461
          0.00525596
          -0.00375072
          0.00234537
          -0.0022094
          -0.000480734
          -0.00259428
          -0.00131053
          -0.00440586
          0.00249908
          -0.0148929
          0.0117754
          -0.00329359
          0
          0
          0
          0
          0
          0
          0
          0
          0
          0
          0
          0
          0
          0
          0
          0
          0
        </DataArray>
        <DataArray type="Float32" Name="velocity" NumberOfComponents="3" format="ascii">
          0 0 0
          0 0 0
          0 0 0
          0 0 0
          0 0 0
          0 0 0
          0 0 0
          0 0 0
          0 0 0
          0 0 0
          0 0 0
          0 0 0
          0 0 0
          0 0 0
          0 0 0
          0 0 0
          0 0 0
          -0.00124598 -7.59645e-05 0
          -0.00147026 -0.000613769 0
          -0.00155568 0.000164887 0
          -0.00141112 -0.000517237 0
          -0.00162924 0.000177232 0
          -0.00164073 -0.00068666 0
          -0.00157451 -0.000255098 0
          -0.00162245 -0.000751823 0
          -0.00164684 -0.000496255 0
          -0.00168026 -0.00106023 0
          -0.00138571 -0.000515814 0
          -0.00187861 -0.00138348 0
          -0.00134677 0.000505331 0
          -0.000881553 -0.00118457 0
          0 0 0
          0 0 0
          -0.000593788 1.98181e-05 0
          -0.000484548 -0.000457504 0
          -0.00122704 0.000308836 0
          -0.0013061 -0.000860507 0
          -0.0011264 0.000334047 0
          -0.00142691 -0.000671058 0
          -0.00145291 -0.000437149 0
          -0.00137464 -0.000609206 0
          -0.00146034 -0.000483733 0
          -0.00111494 -0.00129469 0
          -0.00151177 5.68422e-05 0
          -0.0012107 -0.00188607 0
          -0.00018589 0.000102198 0
          -0.000794924 -0.00124457 0
          0 0 0
          0 0 0
          -0.00144508 0.000142541 0
          -0.00133109 -0.000819911 0
          -0.00135208 0.000730876 0
          -0.00179757 -0.000935427 0
          -0.00190713 -2.63834e-05 0
          -0.00151922 -0.000446988 0
          -0.00197959 -0.000233619 0
          -0.00202888 -0.000773974 0
          -0.00159741 -0.000432365 0
          -0.00211654 -0.000865776 0
          -0.00181407 0.000228955 0
          -0.00147817 -0.00244009 0
          -0.00174614 0.00113191 0
          -0.00183881 -0.00171971 0
          0 0 0
          0 0 0
          -0.00101727 0.000516314 0
          -0.00108772 -0.00101038 0
          -0.00141217 0.000521694 0
          -0.00111258 -0.000565991 0
          -0.00174053 -2.8968e-05 0
          -0.00182145 -0.000872115 0
          -0.00135564 0.000138539 0
          -0.00154722 -0.000885893 0
          -0.00190297 -0.000356426 0
          -0.00140277 -0.000806533 0
          -0.00112092 -8.60661e-05 0
          -0.00154944 -0.00208639 0
          -0.000674254 0.00117998 0
          -0.00100654 -0.0021287 0
          0 0 0
          0 0 0
          -0.00121706 0.000532218 0
          -0.000954332 -0.00087408 0
          -0.00178901 0.00065671 0
          -0.00158305 -0.0011657 0
          -0.00141859 0.000730639 0
          -0.00216616 -0.000854788 0
          -0.00189628 -0.000751194 0
          -0.00156998 1.94023e-05 0
          -0.00197502 -0.000333883 0
          -0.00164258 -0.00151351 0
          -0.00174757 0.000939974 0
          -0.00165133 -0.00278639 0
          -0.00086498 0.00150751 0
          -0.00168096 -0.00210252 0
          0 0 0
          0 0 0
          -0.00160365 0.000809776 0
          -0.0012754 -0.00115795 0
          -0.00154536 0.00124712 0
          -0.00209008 -0.00130432 0
          -0.00201567 0.000239611 0
          -0.00111929 -0.000385872 0
          -0.00256418 -0.000227175 0
          -0.0022625 -0.00115086 0
          -0.00094161 0.000155058 0
          -0.00216612 -0.00102098 0
          -0.00184509 0.000559972 0
          -0.00139242 -0.00313249 0
          -0.00113535 0.00212407 0
          -0.00178943 -0.00251739 0
          0 0 0
          0 0 0
          -0.00135589 0.000983834 0
          -0.00115237 -0.00129678 0
          -0.00165618 0.00116982 0
          -0.00134319 -0.000723573 0
          -0.00202376 -0.000268731 0
          -0.00203152 -0.00077276 0
          -0.0011177 0.000773168 0
          -0.00207415 -0.00148113 0
          -0.0022226 -0.000678313 0
          -0.000832009 -6.01343e-05 0
          -0.00154577 0.000471819 0
          -0.00165586 -0.00362318 0
          -0.000502461 0.00283667 0
          -0.00182634 -0.0026766 0
          0 0 0
          0 0 0
          -0.00227968 0.00157463 0
          -0.00180274 -0.0015806 0
          -0.00256747 0.0017377 0
          -0.00196292 -0.0017787 0
          -0.00220358 0.00135083 0
          -0.00327088 -0.001244 0
          -0.00203299 -0.00102973 0
          -0.00123444 0.000731401 0
          -0.00314141 -0.000803881 0
          -0.00221151 -0.00234258 0
          -0.000921817 0.00275023 0
          -0.00212616 -0.00506297 0
          -0.00123637 0.00383298 0
          -0.00245565 -0.00312321 0
          0 0 0
          0 0 0
          -0.000855653 0.00137724 0
          -0.000745091 -0.00111644 0
          -0.00123552 0.0013161 0
          -0.00174915 -0.00115702 0
          -0.00197663 0.000747932 0
          -0.000266851 -0.00104918 0
          -0.00273802 -0.000375342 0
          -0.00166357 -0.00172424 0
          0.00102016 0.00137122 0
          -0.00243318 -0.00205754 0
          -0.00103581 0.000116253 0
          0.000663447 -0.00296393 0
          0.000274556 0.00331238 0
          -0.00105007 -0.00229036 0
          0 0 0
          0 0 0
          -0.00446894 0.00276359 0
          -0.0032386 -0.00231636 0
          -0.00409887 0.00290556 0
          -0.00417922 -0.0012756 0
          -0.00308955 -0.000430345 0
          -0.00404139 -0.000444902 0
          -0.00287386 0.000410079 0
          -0.00433876 -0.00222871 0
          -0.00384288 -0.00138417 0
          -0.000506313 0.00113218 0
          -0.00524012 0.000348406 0
          -0.00302796 -0.00813687 0
          -0.000725958 0.0088426 0
          -0.00606223 -0.00451272 0
          0 0 0
          0 0 0
          0.00131262 0.0020592 0
          0.000424234 -0.00121905 0
          -0.00124892 0.00279607 0
          0.00140811 -0.00331931 0
          -0.000969763 0.00196842 0
          -0.00075387 -0.00188989 0
          0.000448145 -0.000551107 0
          0.00146538 -0.000412142 0
          -0.000581126 -0.00150085 0
          0.00113166 -0.00354819 0
          0.00706461 0.00548093 0
          0.000703211 -0.00942481 0
          0.00524244 0.00586524 0
          0.00599587 0.000921811 0
          0 0 0
          0 0 0
          -0.00912521 0.00451674 0
          -0.00810072 -0.00110748 0
          -0.00567952 0.00112165 0
          -0.00848956 -0.000396058 0
          -0.00799325 0.00070829 0
          -0.00668833 -0.00171398 0
          -0.00809134 -0.000927076 0
          -0.00719992 -0.00208877 0
          -0.00522597 1.2827e-05 0
          -0.00939366 -0.00393773 0
          -0.00828762 -0.00196716 0
          -0.00214209 -0.00311333 0
          -0.013962 0.00730133 0
          -0.0177291 -0.00395553 0
          0 0 0
          0 0 0
          0.00402025 0.00312849 0
          0.00796285 -0.00418961 0
          0.00201251 0.0051082 0
          0.00393922 -0.00276265 0
          0.00466654 0.000924195 0
          0.00335937 -0.00171766 0
          0.00449239 -0.000659108 0
          0.00446304 -0.00258793 0
          0.00463429 -0.000570713 0
          0.00832623 -0.00115222 0
          0.00438299 2.00928e-05 0
          0.00687705 -0.0112118 0
          0.0175713 0.0232143 0
          0.00737282 -0.00602454 0
          0 0 0
          0 0 0
          -0.0149128 0.00231947 0
          -0.0182369 -0.000930461 0
          -0.016254 0.00525596 0
          -0.0155524 -0.00375072 0
          -0.0173703 0.00234537 0
          -0.0165897 -0.0022094 0
          -0.0181422 -0.000480734 0
          -0.019172 -0.00259428 0
          -0.0203041 -0.00131053 0
          -0.0223587 -0.00440586 0
          -0.0198054 0.00249908 0
          -0.0269916 -0.0148929 0
          -0.0247932 0.0117754 0
          -0.0141463 -0.00329359 0
          0 0 0
          0.0256 0 0
          0.0256 0 0
          0.0256 0 0
          0.0256 0 0
          0.0256 0 0
          0.0256 0 0
          0.0256 0 0
          0.0256 0 0
          0.0256 0 0
          0.0256 0 0
          0.0256 0 0
          0.0256 0 0
          0.0256 0 0
          0.0256 0 0
          0.0256 0 0
          0.0256 0 0
        </DataArray>
      </PointData>
      <CellData>
      </CellData>
    </Piece>
  </ImageData>
</VTKFile>
