<?xml version="1.0"?>
<VTKFile type="ImageData" version="0.1" byte_order="LittleEndian">
  <ImageData WholeExtent="0 15 0 15 0 0" Origin="0 0 0" Spacing="1 1 1">
    <Piece Extent="0 15 0 15 0 0">
      <PointData>
        <DataArray type="Float32" Name="rho" format="ascii">
          1.00438
          1.00742
          1.00354
          1.00642
          1.00279
          1.00284
          1.0003
          0.999085
          0.996712
          0.995457
          0.992584
          0.993155
          0.986661
          0.994752
          0.983858
          0.991009
          1.00362
          1.00393
          1.00374
          1.00301
          1.0024
          1.00142
          1.00052
          0.999357
          0.998325
          0.997137
          0.996305
          0.995183
          0.994818
          0.993873
          0.994088
          0.993435
          1.00322
          1.00376
          1.00334
          1.00281
          1.0021
          1.00131
          1.00033
          0.999368
          0.998266
          0.997335
          0.996279
          0.995583
          0.994856
          0.994336
          0.993897
          0.994627
          1.00248
          1.00324
          1.00291
          1.00248
          1.00181
          1.00105
          1.0002
          0.999274
          0.998359
          0.997364
          0.996576
          0.995818
          0.995062
          0.994775
          0.994424
          0.995051
          1.00189
          1.00271
          1.00246
          1.00198
          1.00147
          1.00077
          1.00002
          0.999176
          0.998366
          0.997569
          0.996771
          0.996022
          0.995599
          0.995032
          0.994818
          0.995678
          1.00092
          1.00215
          1.00189
          1.00154
          1.00104
          1.00045
          0.999788
          0.999105
          0.998322
          0.997694
          0.99695
          0.996397
          0.995843
          0.995495
          0.995279
          0.996275
          1.00001
          1.00153
          1.00135
          1.00104
          1.00067
          1.00011
          0.999553
          0.99899
          0.998385
          0.997658
          0.997256
          0.996637
          0.996174
          0.99591
          0.99571
          0.996893
          0.999036
          1.00099
          1.0008
          1.00058
          1.00017
          0.999889
          0.99935
          0.998737
          0.998419
          0.997896
          0.997193
          0.996995
          0.996515
          0.996232
          0.996057
          0.9975
          0.997914
          1.0003
          1.00034
          1.00005
          0.999931
          0.999466
          0.999139
          0.998826
          0.998148
          0.998019
          0.99756
          0.996904
          0.996943
          0.99647
          0.996543
          0.998045
          0.997038
          1.00007
          0.999717
          0.999773
          0.999559
          0.999171
          0.99898
          0.998649
          0.998374
          0.997665
          0.997816
          0.997337
          0.996715
          0.997077
          0.996336
          0.998537
          0.995434
          0.999162
          0.999543
          0.999411
          0.998988
          0.999263
          0.998707
          0.998356
          0.998364
          0.998115
          0.997117
          0.997803
          0.997062
          0.996432
          0.997337
          0.99905
          0.995805
          0.999514
          0.999179
          0.99872
          0.999354
          0.99857
          0.998651
          0.998534
          0.997886
          0.998015
          0.998042
          0.996338
          0.997875
          0.997008
          0.995811
          0.999202
          0.990618
          0.99833
          0.998586
          0.999406
          0.99846
          0.998689
          0.998557
          0.998193
          0.998248
          0.997544
          0.997578
          0.998068
          0.995888
          0.997668
          0.997553
          0.999798
          0.993162
          0.999546
          0.998789
          0.998438
          0.998613
          0.998709
          0.998244
          0.998287
          0.997904
          0.998111
          0.997018
          0.997502
          0.997758
          0.995109
          0.994095
          1.00238
          0.973071
          0.996402
          0.999432
          0.997958
          0.999125
          0.998029
          0.998637
          0.997983
          0.998201
          0.997385
          0.998172
          0.996149
          0.997824
          0.994194
          1.00288
          1.00437
          0.935659
          0.986968
          0.99394
          0.998227
          0.997645
          0.998471
          0.997978
          0.998327
          0.997825
          0.998208
          0.997253
          0.998487
          0.995835
          1.00166
          0.995676
          1.03182
        </DataArray>
        <DataArray type="Float32" Name="ux" format="ascii">
          0
          0
          0
          0
          0
          0
          0
          0
          0
          0
          0
          0
          0
          0
          0
          0
          0
          -0.000359503
          -0.000584101
          -0.00064376
          -0.000455402
          -0.000605012
          -0.000521354
          -0.000519435
          -0.00052127
          -0.000454068
          -0.000605979
          -0.000182736
          -0.00074799
          -0.000357668
          0.000170305
          0
          0
          -0.000479982
          -0.000277171
          -0.000642984
          -0.000721869
          -0.000630459
          -0.000758046
          -0.000721217
          -0.000688851
          -0.00074727
          -0.000467694
          -0.000788117
          -0.000497943
          0.000119145
          -0.000650584
          0
          0
          -0.000746433
          -0.000763943
          -0.000841869
          -0.000950142
          -0.00111276
          -0.000990017
          -0.00113484
          -0.00116113
          -0.000964748
          -0.00127391
          -0.000955055
          -0.0008637
          -0.00102895
          -0.00102304
          0
          0
          -0.000713309
          -0.000708051
          -0.0010853
          -0.00100875
          -0.00123287
          -0.00133018
          -0.0012412
          -0.0012594
          -0.00140137
          -0.0011445
          -0.000933595
          -0.00125755
          -0.000556468
          -0.000728201
          0
          0
          -0.00103811
          -0.000918275
          -0.00140149
          -0.00141963
          -0.00153741
          -0.00172812
          -0.00169646
          -0.00165779
          -0.0017179
          -0.00161148
          -0.00156543
          -0.00148169
          -0.000922739
          -0.00135843
          0
          0
          -0.00131718
          -0.00121852
          -0.00162322
          -0.00182433
          -0.0020162
          -0.00184538
          -0.00222604
          -0.0021713
          -0.00176303
          -0.00212094
          -0.00188656
          -0.00163322
          -0.00118492
          -0.00157516
          0
          0
          -0.00147668
          -0.0012909
          -0.00198137
          -0.00202831
          -0.00227708
          -0.00240983
          -0.00228001
          -0.00253311
          -0.00250686
          -0.00193987
          -0.00208517
          -0.00212123
          -0.00109622
          -0.0017822
          0
          0
          -0.00213321
          -0.00199584
          -0.00269021
          -0.00252138
          -0.0028568
          -0.00328019
          -0.00294395
          -0.0027015
          -0.00333495
          -0.00298403
          -0.00217686
          -0.00265913
          -0.00197871
          -0.00252997
          0
          0
          -0.00186653
          -0.0017424
          -0.00236455
          -0.00272937
          -0.00318786
          -0.00266818
          -0.00348943
          -0.00318327
          -0.00215909
          -0.0034664
          -0.00273331
          -0.00161657
          -0.00133959
          -0.00234442
          0
          0
          -0.00402753
          -0.00326776
          -0.00420006
          -0.00475156
          -0.00431824
          -0.00469219
          -0.00446818
          -0.00501231
          -0.0045763
          -0.00310944
          -0.00523402
          -0.00420006
          -0.0021532
          -0.00490812
          0
          0
          -0.000748007
          -0.00124096
          -0.00326106
          -0.00184273
          -0.00298552
          -0.00329856
          -0.00265786
          -0.0022563
          -0.00345609
          -0.00243884
          0.000613333
          -0.00311288
          4.32702e-05
          0.00077248
          0
          0
          -0.00847728
          -0.00847897
          -0.00674131
          -0.0080663
          -0.00818551
          -0.00715831
          -0.00815043
          -0.00797236
          -0.00680053
          -0.00973765
          -0.00881851
          -0.00481456
          -0.011472
          -0.0142448
          0
          0
          -0.000747348
          0.00187625
          -0.00206129
          -0.00211222
          -0.00138605
          -0.00254552
          -0.00196471
          -0.00181507
          -0.0015012
          0.00164899
          -0.00074458
          0.00191344
          0.0119044
          0.00395028
          0
          0
          -0.0127499
          -0.0130064
          -0.0113367
          -0.00891014
          -0.00968221
          -0.00853025
          -0.00881394
          -0.00919747
          -0.00976276
          -0.0119188
          -0.0101278
          -0.0171143
          -0.0181283
          -0.0143135
          0
          0.0256
          0.0256
          0.0256
          0.0256
          0.0256
          0.0256
          0.0256
          0.0256
          0.0256
          0.0256
          0.0256
          0.0256
          0.0256
          0.0256
          0.0256
          0.0256
        </DataArray>
        <DataArray type="Float32" Name="uy" format="ascii">
          0
          0
          0
          0
          0
          0
          0
          0
          0
          0
          0
          0
          0
          0
          0
          0
          0
          0.000804222
          0.000418156
          0.000597956
          0.000415929
          0.000266814
          4.22733e-05
          -0.000194075
          -0.0003748
          -0.000695706
          -0.000822439
          -0.001303
          -0.00132168
          -0.00118616
          -0.00219758
          0
          0
          0.00103137
          0.000715327
          0.00082755
          0.000393791
          0.00041824
          5.90596e-05
          -0.000220552
          -0.00039671
          -0.000722172
          -0.00109893
          -0.0010865
          -0.00168647
          -0.00163553
          -0.00208026
          0
          0
          0.00139236
          0.000584234
          0.00128174
          0.000373437
          0.000518576
          9.22622e-05
          -8.65977e-05
          -0.000495412
          -0.000686083
          -0.00110425
          -0.000894564
          -0.00239058
          -0.000740072
          -0.00251388
          0
          0
          0.00171293
          0.000842048
          0.00131286
          0.000669561
          0.000573113
          0.000120849
          -3.05707e-05
          -0.000502482
          -0.000752195
          -0.00111569
          -0.0012878
          -0.0020558
          -0.00110669
          -0.00270747
          0
          0
          0.00201629
          0.000972424
          0.00167929
          0.000520015
          0.000944217
          0.000132658
          -0.000162074
          -0.000330696
          -0.000673643
          -0.00161002
          -0.000745288
          -0.00259504
          -0.00102491
          -0.00284911
          0
          0
          0.00244498
          0.00101757
          0.00203241
          0.00064094
          0.00095764
          0.00023565
          2.09163e-05
          -0.000639331
          -0.000615888
          -0.00145106
          -0.000998437
          -0.0029739
          -0.000700582
          -0.00335149
          0
          0
          0.0028326
          0.00102088
          0.00238547
          0.000809812
          0.000934172
          0.000229273
          0.000291641
          -0.000717239
          -0.000951377
          -0.00123379
          -0.000937255
          -0.00354752
          -0.000377515
          -0.00371368
          0
          0
          0.00343318
          0.000992642
          0.00296046
          0.000409006
          0.00158397
          0.000157229
          -0.000170319
          -0.000144692
          -0.000881598
          -0.00232209
          4.68229e-06
          -0.00431477
          -2.45301e-05
          -0.00439946
          0
          0
          0.00375471
          0.00122844
          0.00285615
          0.000812829
          0.00154791
          0.000164151
          7.44611e-05
          -0.000919354
          -0.000114912
          -0.00213963
          -0.0013411
          -0.00363026
          0.000141048
          -0.00483687
          0
          0
          0.00512597
          0.000252727
          0.00415157
          0.000854929
          0.0011324
          0.000389648
          0.000445054
          -0.00114709
          -0.00132151
          -0.000841122
          -0.000981345
          -0.00698112
          0.00324317
          -0.00680553
          0
          0
          0.00486905
          0.000984689
          0.00474714
          -0.000401056
          0.00228471
          -0.000132971
          -4.58137e-06
          -0.00040897
          -0.00120917
          -0.00337973
          0.00198583
          -0.00760522
          0.000950728
          -0.00461798
          0
          0
          0.0070917
          0.00140914
          0.00351715
          0.00116751
          0.00165835
          -5.43764e-05
          -1.87479e-05
          -0.00104674
          -0.000364534
          -0.00304173
          -0.00241099
          -0.00424529
          0.00268951
          -0.00993512
          0
          0
          0.00841384
          -0.00202011
          0.00637126
          -0.000432693
          0.00164582
          -0.000134007
          0.000380899
          -0.00144385
          -0.000586084
          -0.00181655
          -0.000535688
          -0.0117932
          0.0132222
          -0.0110069
          0
          0
          0.00818515
          -0.000128741
          0.00658943
          -0.00115255
          0.00241253
          -0.000390048
          5.44861e-05
          -0.00157738
          -0.00137519
          -0.00412373
          0.000943485
          -0.0142635
          0.00585262
          -0.00918126
          0
          0
          0
          0
          0
          0
          0
          0
          0
          0
          0
          0
          0
          0
          0
          0
          0
        </DataArray>
        <DataArray type="Float32" Name="velocity" NumberOfComponents="3" format="ascii">
          0 0 0
          0 0 0
          0 0 0
          0 0 0
          0 0 0
          0 0 0
          0 0 0
          0 0 0
          0 0 0
          0 0 0
          0 0 0
          0 0 0
          0 0 0
          0 0 0
          0 0 0
          0 0 0
          0 0 0
          -0.000359503 0.000804222 0
          -0.000584101 0.000418156 0
          -0.00064376 0.000597956 0
          -0.000455402 0.000415929 0
          -0.000605012 0.000266814 0
          -0.000521354 4.22733e-05 0
          -0.000519435 -0.000194075 0
          -0.00052127 -0.0003748 0
          -0.000454068 -0.000695706 0
          -0.000605979 -0.000822439 0
          -0.000182736 -0.001303 0
          -0.00074799 -0.00132168 0
          -0.000357668 -0.00118616 0
          0.000170305 -0.00219758 0
          0 0 0
          0 0 0
          -0.000479982 0.00103137 0
          -0.000277171 0.000715327 0
          -0.000642984 0.00082755 0
          -0.000721869 0.000393791 0
          -0.000630459 0.00041824 0
          -0.000758046 5.90596e-05 0
          -0.000721217 -0.000220552 0
          -0.000688851 -0.00039671 0
          -0.00074727 -0.000722172 0
          -0.000467694 -0.00109893 0
          -0.000788117 -0.0010865 0
          -0.000497943 -0.00168647 0
          0.000119145 -0.00163553 0
          -0.000650584 -0.00208026 0
          0 0 0
          0 0 0
          -0.000746433 0.00139236 0
          -0.000763943 0.000584234 0
          -0.000841869 0.00128174 0
          -0.000950142 0.000373437 0
          -0.00111276 0.000518576 0
          -0.000990017 9.22622e-05 0
          -0.00113484 -8.65977e-05 0
          -0.00116113 -0.000495412 0
          -0.000964748 -0.000686083 0
          -0.00127391 -0.00110425 0
          -0.000955055 -0.000894564 0
          -0.0008637 -0.00239058 0
          -0.00102895 -0.000740072 0
          -0.00102304 -0.00251388 0
          0 0 0
          0 0 0
          -0.000713309 0.00171293 0
          -0.000708051 0.000842048 0
          -0.0010853 0.00131286 0
          -0.00100875 0.000669561 0
          -0.00123287 0.000573113 0
          -0.00133018 0.000120849 0
          -0.0012412 -3.05707e-05 0
          -0.0012594 -0.000502482 0
          -0.00140137 -0.000752195 0
          -0.0011445 -0.00111569 0
          -0.000933595 -0.0012878 0
          -0.00125755 -0.0020558 0
          -0.000556468 -0.00110669 0
          -0.000728201 -0.00270747 0
          0 0 0
          0 0 0
          -0.00103811 0.00201629 0
          -0.000918275 0.000972424 0
          -0.00140149 0.00167929 0
          -0.00141963 0.000520015 0
          -0.00153741 0.000944217 0
          -0.00172812 0.000132658 0
          -0.00169646 -0.000162074 0
          -0.00165779 -0.000330696 0
          -0.0017179 -0.000673643 0
          -0.00161148 -0.00161002 0
          -0.00156543 -0.000745288 0
          -0.00148169 -0.00259504 0
          -0.000922739 -0.00102491 0
          -0.00135843 -0.00284911 0
          0 0 0
          0 0 0
          -0.00131718 0.00244498 0
          -0.00121852 0.00101757 0
          -0.00162322 0.00203241 0
          -0.00182433 0.00064094 0
          -0.0020162 0.00095764 0
          -0.00184538 0.00023565 0
          -0.00222604 2.09163e-05 0
          -0.0021713 -0.000639331 0
          -0.00176303 -0.000615888 0
          -0.00212094 -0.00145106 0
          -0.00188656 -0.000998437 0
          -0.00163322 -0.0029739 0
          -0.00118492 -0.000700582 0
          -0.00157516 -0.00335149 0
          0 0 0
          0 0 0
          -0.00147668 0.0028326 0
          -0.0012909 0.00102088 0
          -0.00198137 0.00238547 0
          -0.00202831 0.000809812 0
          -0.00227708 0.000934172 0
          -0.00240983 0.000229273 0
          -0.00228001 0.000291641 0
          -0.00253311 -0.000717239 0
          -0.00250686 -0.000951377 0
          -0.00193987 -0.00123379 0
          -0.00208517 -0.000937255 0
          -0.00212123 -0.00354752 0
          -0.00109622 -0.000377515 0
          -0.0017822 -0.00371368 0
          0 0 0
          0 0 0
          -0.00213321 0.00343318 0
          -0.00199584 0.000992642 0
          -0.00269021 0.00296046 0
          -0.00252138 0.000409006 0
          -0.0028568 0.00158397 0
          -0.00328019 0.000157229 0
          -0.00294395 -0.000170319 0
          -0.0027015 -0.000144692 0
          -0.00333495 -0.000881598 0
          -0.00298403 -0.00232209 0
          -0.00217686 4.68229e-06 0
          -0.00265913 -0.00431477 0
          -0.00197871 -2.45301e-05 0
          -0.00252997 -0.00439946 0
          0 0 0
          0 0 0
          -0.00186653 0.00375471 0
          -0.0017424 0.00122844 0
          -0.00236455 0.00285615 0
          -0.00272937 0.000812829 0
          -0.00318786 0.00154791 0
          -0.00266818 0.000164151 0
          -0.00348943 7.44611e-05 0
          -0.00318327 -0.000919354 0
          -0.00215909 -0.000114912 0
          -0.0034664 -0.00213963 0
          -0.00273331 -0.0013411 0
          -0.00161657 -0.00363026 0
          -0.00133959 0.000141048 0
          -0.00234442 -0.00483687 0
          0 0 0
          0 0 0
          -0.00402753 0.00512597 0
          -0.00326776 0.000252727 0
          -0.00420006 0.00415157 0
          -0.00475156 0.000854929 0
          -0.00431824 0.0011324 0
          -0.00469219 0.000389648 0
          -0.00446818 0.000445054 0
          -0.00501231 -0.00114709 0
          -0.0045763 -0.00132151 0
          -0.00310944 -0.000841122 0
          -0.00523402 -0.000981345 0
          -0.00420006 -0.00698112 0
          -0.0021532 0.00324317 0
          -0.00490812 -0.00680553 0
          0 0 0
          0 0 0
          -0.000748007 0.00486905 0
          -0.00124096 0.000984689 0
          -0.00326106 0.00474714 0
          -0.00184273 -0.000401056 0
          -0.00298552 0.00228471 0
          -0.00329856 -0.000132971 0
          -0.00265786 -4.58137e-06 0
          -0.0022563 -0.00040897 0
          -0.00345609 -0.00120917 0
          -0.00243884 -0.00337973 0
          0.000613333 0.00198583 0
          -0.00311288 -0.00760522 0
          4.32702e-05 0.000950728 0
          0.00077248 -0.00461798 0
          0 0 0
          0 0 0
          -0.00847728 0.0070917 0
          -0.00847897 0.00140914 0
          -0.00674131 0.00351715 0
          -0.0080663 0.00116751 0
          -0.00818551 0.00165835 0
          -0.00715831 -5.43764e-05 0
          -0.00815043 -1.87479e-05 0
          -0.00797236 -0.00104674 0
          -0.00680053 -0.000364534 0
          -0.00973765 -0.00304173 0
          -0.00881851 -0.00241099 0
          -0.00481456 -0.00424529 0
          -0.011472 0.00268951 0
          -0.0142448 -0.00993512 0
          0 0 0
          0 0 0
          -0.000747348 0.00841384 0
          0.00187625 -0.00202011 0
          -0.00206129 0.00637126 0
          -0.00211222 -0.000432693 0
          -0.00138605 0.00164582 0
          -0.00254552 -0.000134007 0
          -0.00196471 0.000380899 0
          -0.00181507 -0.00144385 0
          -0.0015012 -0.000586084 0
          0.00164899 -0.00181655 0
          -0.00074458 -0.000535688 0
          0.00191344 -0.0117932 0
          0.0119044 0.0132222 0
          0.00395028 -0.0110069 0
          0 0 0
          0 0 0
          -0.0127499 0.00818515 0
          -0.0130064 -0.000128741 0
          -0.0113367 0.00658943 0
          -0.00891014 -0.00115255 0
          -0.00968221 0.00241253 0
          -0.00853025 -0.000390048 0
          -0.00881394 5.44861e-05 0
          -0.00919747 -0.00157738 0
          -0.00976276 -0.00137519 0
          -0.0119188 -0.00412373 0
          -0.0101278 0.000943485 0
          -0.0171143 -0.0142635 0
          -0.0181283 0.00585262 0
          -0.0143135 -0.00918126 0
          0 0 0
          0.0256 0 0
          0.0256 0 0
          0.0256 0 0
          0.0256 0 0
          0.0256 0 0
          0.0256 0 0
          0.0256 0 0
          0.0256 0 0
          0.0256 0 0
          0.0256 0 0
          0.0256 0 0
          0.0256 0 0
          0.0256 0 0
          0.0256 0 0
          0.0256 0 0
          0.0256 0 0
        </DataArray>
      </PointData>
      <CellData>
      </CellData>
    </Piece>
  </ImageData>
</VTKFile>
