<?xml version="1.0"?>
<VTKFile type="ImageData" version="0.1" byte_order="LittleEndian">
  <ImageData WholeExtent="0 15 0 15 0 0" Origin="0 0 0" Spacing="1 1 1">
    <Piece Extent="0 15 0 15 0 0">
      <PointData>
        <DataArray type="Float32" Name="rho" format="ascii">
          0.996919
          1.00151
          0.997755
          1.00092
          0.999103
          0.999906
          0.999392
          0.99974
          0.999433
          0.999758
          0.998719
          1.00003
          0.995851
          1.0024
          0.991441
          1.00063
          0.996572
          0.998116
          0.998508
          0.998268
          0.998475
          0.998556
          0.999067
          0.999538
          1.00014
          1.00052
          1.0011
          1.00115
          1.0019
          1.00185
          1.00301
          1.00344
          0.997252
          0.998828
          0.998853
          0.998723
          0.998755
          0.998948
          0.999236
          0.999623
          1.00005
          1.00054
          1.00095
          1.00141
          1.00162
          1.00163
          1.00187
          1.00361
          0.998057
          0.999274
          0.999134
          0.9992
          0.999143
          0.99925
          0.999443
          0.99974
          1.00011
          1.00053
          1.00098
          1.00133
          1.00127
          1.0014
          1.00113
          1.00241
          0.999166
          0.999902
          0.999811
          0.999694
          0.999617
          0.999524
          0.999641
          0.999917
          1.00029
          1.00063
          1.00089
          1.00088
          1.0009
          1.0005
          1.00022
          1.00109
          1.00009
          1.00081
          1.00071
          1.00053
          1.00022
          0.99996
          0.999905
          1.00009
          1.00037
          1.00055
          1.0005
          1.00029
          0.999891
          0.999499
          0.999137
          0.999651
          1.00095
          1.00182
          1.00166
          1.00139
          1.00094
          1.00049
          1.00021
          1.00013
          1.00016
          1.00005
          0.999779
          0.999249
          0.99865
          0.998239
          0.997842
          0.998344
          1.0016
          1.00271
          1.0025
          1.00211
          1.00164
          1.0011
          1.00056
          1.00012
          0.9998
          0.999409
          0.998838
          0.998125
          0.997458
          0.99688
          0.996585
          0.997342
          1.00183
          1.00335
          1.00307
          1.00263
          1.0022
          1.00158
          1.00085
          1.00012
          0.999471
          0.998814
          0.998066
          0.997123
          0.99647
          0.995843
          0.995575
          0.99658
          1.00193
          1.00386
          1.0034
          1.00305
          1.00254
          1.00188
          1.00102
          1.0001
          0.999235
          0.99827
          0.997435
          0.996468
          0.995509
          0.995199
          0.994528
          0.996258
          1.00122
          1.00392
          1.00386
          1.00332
          1.00273
          1.0021
          1.00111
          1.00003
          0.999065
          0.998004
          0.996748
          0.996024
          0.995111
          0.994142
          0.994435
          0.995814
          1.00141
          1.00465
          1.00414
          1.00337
          1.00308
          1.00211
          1.00113
          1
          0.998817
          0.997743
          0.996679
          0.994951
          0.995062
          0.993911
          0.992563
          0.995892
          0.99784
          1.00455
          1.00397
          1.00424
          1.00293
          1.0022
          1.00114
          0.999934
          0.99878
          0.997401
          0.996367
          0.995564
          0.993118
          0.994185
          0.993063
          0.995516
          0.998457
          1.00549
          1.00519
          1.00374
          1.0032
          1.00237
          1.00105
          0.999833
          0.99866
          0.997558
          0.995859
          0.99501
          0.994557
          0.991077
          0.990266
          0.99832
          0.978783
          1.00355
          1.00551
          1.00372
          1.00367
          1.00188
          1.00113
          0.999723
          0.998699
          0.997257
          0.996722
          0.99397
          0.994216
          0.990569
          0.996112
          1.00051
          0.93803
          0.993993
          1.00024
          1.00395
          1.00226
          1.00191
          1.00038
          0.999656
          0.99843
          0.99789
          0.996103
          0.996173
          0.99259
          0.997371
          0.990981
          1.03615
        </DataArray>
        <DataArray type="Float32" Name="ux" format="ascii">
          0
          0
          0
          0
          0
          0
          0
          0
          0
          0
          0
          0
          0
          0
          0
          0
          0
          -0.000756393
          -0.00158871
          -0.00229794
          -0.00249717
          -0.00285733
          -0.00287914
          -0.00284131
          -0.0027208
          -0.00246283
          -0.00235829
          -0.00171251
          -0.00178345
          -0.000788692
          9.61599e-05
          0
          0
          -0.000841908
          -0.00126721
          -0.00197896
          -0.00256682
          -0.00284368
          -0.00302661
          -0.0030091
          -0.00288099
          -0.00267604
          -0.00228222
          -0.00208781
          -0.00138091
          -0.000572242
          -0.000689241
          0
          0
          -0.000874158
          -0.00138357
          -0.00190881
          -0.00243178
          -0.00288012
          -0.00304345
          -0.00308067
          -0.00298913
          -0.00277156
          -0.0026125
          -0.00206438
          -0.00164251
          -0.00137287
          -0.000985342
          0
          0
          -0.000613556
          -0.00112679
          -0.00177959
          -0.00227472
          -0.00274708
          -0.00300137
          -0.00306902
          -0.00300661
          -0.0028482
          -0.00252348
          -0.00200705
          -0.00170371
          -0.000933413
          -0.000512807
          0
          0
          -0.000720719
          -0.00112491
          -0.00171258
          -0.00219901
          -0.00265046
          -0.00295105
          -0.00309159
          -0.00308179
          -0.0029164
          -0.0026344
          -0.00222781
          -0.00173903
          -0.00105164
          -0.000795162
          0
          0
          -0.000849612
          -0.00120442
          -0.00172835
          -0.00214635
          -0.00261129
          -0.00294479
          -0.00314481
          -0.00316367
          -0.00300564
          -0.00276461
          -0.0022857
          -0.00184359
          -0.0011872
          -0.000947229
          0
          0
          -0.00103382
          -0.00131111
          -0.00187045
          -0.00222537
          -0.00267759
          -0.0030423
          -0.00328627
          -0.00335443
          -0.0032125
          -0.00287806
          -0.00243548
          -0.00208512
          -0.0012703
          -0.00113118
          0
          0
          -0.00138342
          -0.00161761
          -0.00219696
          -0.00247257
          -0.00292205
          -0.00332381
          -0.00360079
          -0.00368239
          -0.00358399
          -0.00324457
          -0.00270772
          -0.00249357
          -0.00177799
          -0.00174516
          0
          0
          -0.00168063
          -0.00179262
          -0.00243807
          -0.00271228
          -0.00318593
          -0.00354606
          -0.00386157
          -0.00395281
          -0.00376545
          -0.00356849
          -0.00299256
          -0.00251618
          -0.00175093
          -0.00202809
          0
          0
          -0.00271268
          -0.00259369
          -0.00328068
          -0.00363687
          -0.0039031
          -0.00423886
          -0.00454658
          -0.00478024
          -0.00463128
          -0.0042214
          -0.00432215
          -0.00373598
          -0.00263978
          -0.00365338
          0
          0
          -0.0018682
          -0.00189664
          -0.00340965
          -0.00330702
          -0.0037925
          -0.00421918
          -0.00448246
          -0.00453212
          -0.00457631
          -0.00398297
          -0.00285834
          -0.0037764
          -0.00136177
          -0.00141047
          0
          0
          -0.00684752
          -0.00669831
          -0.00584956
          -0.00570807
          -0.00573258
          -0.00562842
          -0.00598603
          -0.00622377
          -0.00612424
          -0.00716013
          -0.0069663
          -0.00609663
          -0.0094008
          -0.011137
          0
          0
          -0.00288678
          -0.00135031
          -0.0036073
          -0.00429711
          -0.00425722
          -0.00495192
          -0.00525595
          -0.00535268
          -0.00509288
          -0.00360099
          -0.00435241
          -0.00206749
          0.00433886
          -0.000225278
          0
          0
          -0.0132298
          -0.0108794
          -0.00923397
          -0.00668726
          -0.00685685
          -0.00630312
          -0.00647611
          -0.00677711
          -0.0071014
          -0.00846729
          -0.00753835
          -0.0125948
          -0.0142576
          -0.0161431
          0
          0.0256
          0.0256
          0.0256
          0.0256
          0.0256
          0.0256
          0.0256
          0.0256
          0.0256
          0.0256
          0.0256
          0.0256
          0.0256
          0.0256
          0.0256
          0.0256
        </DataArray>
        <DataArray type="Float32" Name="uy" format="ascii">
          0
          0
          0
          0
          0
          0
          0
          0
          0
          0
          0
          0
          0
          0
          0
          0
          0
          0.000415051
          0.000129194
          0.000199791
          0.000376792
          0.000229008
          0.000210565
          -1.91997e-05
          -6.40159e-05
          -0.000353828
          -0.000292654
          -0.000782787
          -0.000517031
          -0.000988658
          -0.00209487
          0
          0
          -0.000233419
          1.50992e-05
          -6.40469e-05
          0.000207203
          0.000114041
          0.000170618
          -2.54757e-05
          -3.35333e-05
          -0.000320683
          -0.000241812
          -0.000605262
          -0.000306671
          -0.000998334
          -0.000779669
          0
          0
          -0.000435769
          -0.000500289
          -0.000101735
          -0.000102716
          1.84988e-05
          7.26445e-05
          4.11062e-05
          2.41373e-06
          -0.00011823
          -0.00015592
          -0.000200926
          -0.000567242
          9.62812e-05
          -0.000457086
          0
          0
          -0.000385076
          -0.00047964
          -0.000304313
          -0.00017259
          -8.33633e-05
          3.02397e-05
          4.31704e-05
          4.79773e-05
          -2.87672e-05
          -3.4339e-05
          -0.000248152
          -0.000147992
          -4.34078e-05
          -0.0003825
          0
          0
          -9.85918e-05
          -0.000262952
          -0.000174719
          -0.000172976
          -4.23303e-05
          9.48735e-06
          1.92152e-05
          -9.02858e-06
          -7.41133e-05
          -0.000206337
          -0.000167735
          -0.000367646
          -0.000335168
          -0.000565676
          0
          0
          0.000455165
          9.58658e-05
          0.000205784
          1.81456e-05
          8.85734e-05
          2.01161e-05
          -3.67545e-05
          -0.0001823
          -0.000296676
          -0.000501151
          -0.000475361
          -0.000936771
          -0.00064647
          -0.00128701
          0
          0
          0.0011335
          0.000548849
          0.000718066
          0.00029759
          0.000277624
          4.59612e-05
          -9.77251e-05
          -0.00037524
          -0.000572526
          -0.000911983
          -0.000873271
          -0.00162823
          -0.00114647
          -0.00204973
          0
          0
          0.00189819
          0.001063
          0.00128919
          0.000568457
          0.000524175
          0.000110854
          -0.000134057
          -0.000507836
          -0.000776161
          -0.00140502
          -0.00113079
          -0.00237775
          -0.00163602
          -0.0029626
          0
          0
          0.00276137
          0.0015002
          0.00183534
          0.000867544
          0.000807725
          0.000215583
          -9.56728e-05
          -0.000603337
          -0.000827427
          -0.0016439
          -0.00155362
          -0.00283266
          -0.00188393
          -0.00386766
          0
          0
          0.00410878
          0.00157624
          0.00269434
          0.00110089
          0.00105136
          0.000315038
          1.05069e-05
          -0.000602814
          -0.000991732
          -0.00167386
          -0.00150173
          -0.00447375
          -0.000941483
          -0.00568983
          0
          0
          0.00470239
          0.00223103
          0.00350331
          0.00107543
          0.00140032
          0.000389557
          8.3657e-05
          -0.000496231
          -0.000910818
          -0.0022802
          -0.000805283
          -0.00511047
          -0.00221846
          -0.00528685
          0
          0
          0.00710263
          0.00252459
          0.00361938
          0.00150897
          0.00144467
          0.000477015
          0.000105321
          -0.000625286
          -0.000814945
          -0.00218987
          -0.00215674
          -0.00451735
          -0.000991251
          -0.00999833
          0
          0
          0.00925175
          0.000156822
          0.00509527
          0.00043504
          0.00144867
          0.000290379
          0.000313204
          -0.000577661
          -0.0004858
          -0.00167595
          -0.00032417
          -0.00863479
          0.00552874
          -0.0122419
          0
          0
          0.0105738
          0.00141503
          0.0055846
          0.000732018
          0.00181144
          0.00041986
          0.000212287
          -0.00081324
          -0.00107076
          -0.00292002
          -0.000635873
          -0.0106643
          0.00140222
          -0.0137245
          0
          0
          0
          0
          0
          0
          0
          0
          0
          0
          0
          0
          0
          0
          0
          0
          0
        </DataArray>
        <DataArray type="Float32" Name="velocity" NumberOfComponents="3" format="ascii">
          0 0 0
          0 0 0
          0 0 0
          0 0 0
          0 0 0
          0 0 0
          0 0 0
          0 0 0
          0 0 0
          0 0 0
          0 0 0
          0 0 0
          0 0 0
          0 0 0
          0 0 0
          0 0 0
          0 0 0
          -0.000756393 0.000415051 0
          -0.00158871 0.000129194 0
          -0.00229794 0.000199791 0
          -0.00249717 0.000376792 0
          -0.00285733 0.000229008 0
          -0.00287914 0.000210565 0
          -0.00284131 -1.91997e-05 0
          -0.0027208 -6.40159e-05 0
          -0.00246283 -0.000353828 0
          -0.00235829 -0.000292654 0
          -0.00171251 -0.000782787 0
          -0.00178345 -0.000517031 0
          -0.000788692 -0.000988658 0
          9.61599e-05 -0.00209487 0
          0 0 0
          0 0 0
          -0.000841908 -0.000233419 0
          -0.00126721 1.50992e-05 0
          -0.00197896 -6.40469e-05 0
          -0.00256682 0.000207203 0
          -0.00284368 0.000114041 0
          -0.00302661 0.000170618 0
          -0.0030091 -2.54757e-05 0
          -0.00288099 -3.35333e-05 0
          -0.00267604 -0.000320683 0
          -0.00228222 -0.000241812 0
          -0.00208781 -0.000605262 0
          -0.00138091 -0.000306671 0
          -0.000572242 -0.000998334 0
          -0.000689241 -0.000779669 0
          0 0 0
          0 0 0
          -0.000874158 -0.000435769 0
          -0.00138357 -0.000500289 0
          -0.00190881 -0.000101735 0
          -0.00243178 -0.000102716 0
          -0.00288012 1.84988e-05 0
          -0.00304345 7.26445e-05 0
          -0.00308067 4.11062e-05 0
          -0.00298913 2.41373e-06 0
          -0.00277156 -0.00011823 0
          -0.0026125 -0.00015592 0
          -0.00206438 -0.000200926 0
          -0.00164251 -0.000567242 0
          -0.00137287 9.62812e-05 0
          -0.000985342 -0.000457086 0
          0 0 0
          0 0 0
          -0.000613556 -0.000385076 0
          -0.00112679 -0.00047964 0
          -0.00177959 -0.000304313 0
          -0.00227472 -0.00017259 0
          -0.00274708 -8.33633e-05 0
          -0.00300137 3.02397e-05 0
          -0.00306902 4.31704e-05 0
          -0.00300661 4.79773e-05 0
          -0.0028482 -2.87672e-05 0
          -0.00252348 -3.4339e-05 0
          -0.00200705 -0.000248152 0
          -0.00170371 -0.000147992 0
          -0.000933413 -4.34078e-05 0
          -0.000512807 -0.0003825 0
          0 0 0
          0 0 0
          -0.000720719 -9.85918e-05 0
          -0.00112491 -0.000262952 0
          -0.00171258 -0.000174719 0
          -0.00219901 -0.000172976 0
          -0.00265046 -4.23303e-05 0
          -0.00295105 9.48735e-06 0
          -0.00309159 1.92152e-05 0
          -0.00308179 -9.02858e-06 0
          -0.0029164 -7.41133e-05 0
          -0.0026344 -0.000206337 0
          -0.00222781 -0.000167735 0
          -0.00173903 -0.000367646 0
          -0.00105164 -0.000335168 0
          -0.000795162 -0.000565676 0
          0 0 0
          0 0 0
          -0.000849612 0.000455165 0
          -0.00120442 9.58658e-05 0
          -0.00172835 0.000205784 0
          -0.00214635 1.81456e-05 0
          -0.00261129 8.85734e-05 0
          -0.00294479 2.01161e-05 0
          -0.00314481 -3.67545e-05 0
          -0.00316367 -0.0001823 0
          -0.00300564 -0.000296676 0
          -0.00276461 -0.000501151 0
          -0.0022857 -0.000475361 0
          -0.00184359 -0.000936771 0
          -0.0011872 -0.00064647 0
          -0.000947229 -0.00128701 0
          0 0 0
          0 0 0
          -0.00103382 0.0011335 0
          -0.00131111 0.000548849 0
          -0.00187045 0.000718066 0
          -0.00222537 0.00029759 0
          -0.00267759 0.000277624 0
          -0.0030423 4.59612e-05 0
          -0.00328627 -9.77251e-05 0
          -0.00335443 -0.00037524 0
          -0.0032125 -0.000572526 0
          -0.00287806 -0.000911983 0
          -0.00243548 -0.000873271 0
          -0.00208512 -0.00162823 0
          -0.0012703 -0.00114647 0
          -0.00113118 -0.00204973 0
          0 0 0
          0 0 0
          -0.00138342 0.00189819 0
          -0.00161761 0.001063 0
          -0.00219696 0.00128919 0
          -0.00247257 0.000568457 0
          -0.00292205 0.000524175 0
          -0.00332381 0.000110854 0
          -0.00360079 -0.000134057 0
          -0.00368239 -0.000507836 0
          -0.00358399 -0.000776161 0
          -0.00324457 -0.00140502 0
          -0.00270772 -0.00113079 0
          -0.00249357 -0.00237775 0
          -0.00177799 -0.00163602 0
          -0.00174516 -0.0029626 0
          0 0 0
          0 0 0
          -0.00168063 0.00276137 0
          -0.00179262 0.0015002 0
          -0.00243807 0.00183534 0
          -0.00271228 0.000867544 0
          -0.00318593 0.000807725 0
          -0.00354606 0.000215583 0
          -0.00386157 -9.56728e-05 0
          -0.00395281 -0.000603337 0
          -0.00376545 -0.000827427 0
          -0.00356849 -0.0016439 0
          -0.00299256 -0.00155362 0
          -0.00251618 -0.00283266 0
          -0.00175093 -0.00188393 0
          -0.00202809 -0.00386766 0
          0 0 0
          0 0 0
          -0.00271268 0.00410878 0
          -0.00259369 0.00157624 0
          -0.00328068 0.00269434 0
          -0.00363687 0.00110089 0
          -0.0039031 0.00105136 0
          -0.00423886 0.000315038 0
          -0.00454658 1.05069e-05 0
          -0.00478024 -0.000602814 0
          -0.00463128 -0.000991732 0
          -0.0042214 -0.00167386 0
          -0.00432215 -0.00150173 0
          -0.00373598 -0.00447375 0
          -0.00263978 -0.000941483 0
          -0.00365338 -0.00568983 0
          0 0 0
          0 0 0
          -0.0018682 0.00470239 0
          -0.00189664 0.00223103 0
          -0.00340965 0.00350331 0
          -0.00330702 0.00107543 0
          -0.0037925 0.00140032 0
          -0.00421918 0.000389557 0
          -0.00448246 8.3657e-05 0
          -0.00453212 -0.000496231 0
          -0.00457631 -0.000910818 0
          -0.00398297 -0.0022802 0
          -0.00285834 -0.000805283 0
          -0.0037764 -0.00511047 0
          -0.00136177 -0.00221846 0
          -0.00141047 -0.00528685 0
          0 0 0
          0 0 0
          -0.00684752 0.00710263 0
          -0.00669831 0.00252459 0
          -0.00584956 0.00361938 0
          -0.00570807 0.00150897 0
          -0.00573258 0.00144467 0
          -0.00562842 0.000477015 0
          -0.00598603 0.000105321 0
          -0.00622377 -0.000625286 0
          -0.00612424 -0.000814945 0
          -0.00716013 -0.00218987 0
          -0.0069663 -0.00215674 0
          -0.00609663 -0.00451735 0
          -0.0094008 -0.000991251 0
          -0.011137 -0.00999833 0
          0 0 0
          0 0 0
          -0.00288678 0.00925175 0
          -0.00135031 0.000156822 0
          -0.0036073 0.00509527 0
          -0.00429711 0.00043504 0
          -0.00425722 0.00144867 0
          -0.00495192 0.000290379 0
          -0.00525595 0.000313204 0
          -0.00535268 -0.000577661 0
          -0.00509288 -0.0004858 0
          -0.00360099 -0.00167595 0
          -0.00435241 -0.00032417 0
          -0.00206749 -0.00863479 0
          0.00433886 0.00552874 0
          -0.000225278 -0.0122419 0
          0 0 0
          0 0 0
          -0.0132298 0.0105738 0
          -0.0108794 0.00141503 0
          -0.00923397 0.0055846 0
          -0.00668726 0.000732018 0
          -0.00685685 0.00181144 0
          -0.00630312 0.00041986 0
          -0.00647611 0.000212287 0
          -0.00677711 -0.00081324 0
          -0.0071014 -0.00107076 0
          -0.00846729 -0.00292002 0
          -0.00753835 -0.000635873 0
          -0.0125948 -0.0106643 0
          -0.0142576 0.00140222 0
          -0.0161431 -0.0137245 0
          0 0 0
          0.0256 0 0
          0.0256 0 0
          0.0256 0 0
          0.0256 0 0
          0.0256 0 0
          0.0256 0 0
          0.0256 0 0
          0.0256 0 0
          0.0256 0 0
          0.0256 0 0
          0.0256 0 0
          0.0256 0 0
          0.0256 0 0
          0.0256 0 0
          0.0256 0 0
          0.0256 0 0
        </DataArray>
      </PointData>
      <CellData>
      </CellData>
    </Piece>
  </ImageData>
</VTKFile>
