<?xml version="1.0"?>
<VTKFile type="ImageData" version="0.1" byte_order="LittleEndian">
  <ImageData WholeExtent="0 15 0 15 0 0" Origin="0 0 0" Spacing="1 1 1">
    <Piece Extent="0 15 0 15 0 0">
      <PointData>
        <DataArray type="Float32" Name="rho" format="ascii">
          0.979494
          0.969707
          0.974369
          0.970639
          0.974346
          0.972208
          0.973087
          0.973733
          0.973414
          0.976881
          0.977788
          0.987315
          0.984262
          1.00313
          1.00371
          0.99487
          0.984413
          0.986963
          0.986793
          0.987018
          0.986416
          0.9869
          0.986418
          0.986598
          0.986488
          0.986572
          0.986684
          0.987001
          0.987064
          0.987449
          0.98799
          0.988537
          0.986538
          0.987181
          0.986943
          0.98709
          0.987062
          0.986752
          0.986969
          0.986728
          0.986778
          0.986859
          0.986889
          0.986959
          0.987239
          0.987364
          0.987189
          0.987755
          0.986373
          0.987402
          0.987512
          0.987143
          0.987352
          0.987218
          0.986948
          0.987158
          0.986932
          0.987008
          0.986993
          0.987036
          0.987157
          0.987116
          0.987268
          0.987443
          0.987116
          0.987709
          0.987701
          0.987779
          0.987358
          0.987527
          0.987356
          0.98711
          0.987341
          0.986914
          0.987147
          0.98708
          0.986963
          0.987098
          0.987073
          0.986814
          0.987939
          0.988211
          0.987987
          0.988018
          0.987935
          0.987494
          0.987766
          0.987397
          0.987056
          0.987448
          0.986888
          0.987065
          0.986877
          0.986912
          0.986664
          0.986795
          0.987676
          0.988687
          0.988618
          0.98817
          0.988238
          0.988213
          0.98744
          0.987763
          0.987352
          0.987064
          0.987295
          0.986546
          0.987029
          0.986376
          0.987093
          0.98568
          0.989882
          0.989037
          0.98896
          0.988948
          0.988465
          0.988215
          0.988056
          0.98739
          0.987927
          0.986852
          0.98683
          0.987139
          0.98607
          0.987061
          0.985101
          0.986049
          0.987242
          0.989978
          0.989503
          0.989449
          0.988764
          0.988249
          0.988402
          0.988106
          0.986757
          0.98793
          0.98634
          0.986414
          0.986655
          0.984832
          0.987654
          0.983135
          0.995031
          0.990373
          0.990496
          0.989309
          0.98918
          0.989242
          0.988035
          0.987738
          0.987849
          0.985967
          0.987789
          0.985209
          0.985884
          0.986616
          0.982228
          0.984901
          0.983933
          0.991725
          0.990551
          0.990084
          0.990118
          0.989035
          0.988007
          0.987925
          0.987429
          0.987288
          0.985316
          0.987625
          0.984238
          0.984022
          0.987904
          0.978232
          1.00242
          0.991837
          0.990965
          0.992086
          0.988752
          0.988625
          0.988606
          0.987996
          0.986728
          0.986917
          0.986932
          0.981739
          0.987505
          0.983545
          0.975686
          0.984807
          0.979001
          0.992737
          0.993578
          0.987646
          0.989057
          0.988994
          0.988253
          0.987758
          0.987379
          0.986416
          0.98527
          0.985676
          0.983787
          0.98162
          0.989983
          0.972043
          1.00853
          0.995526
          0.990996
          0.988765
          0.989188
          0.988465
          0.986897
          0.987772
          0.985934
          0.986652
          0.982474
          0.984292
          0.985419
          0.976092
          0.97351
          0.992074
          0.985473
          1.00611
          0.988465
          0.993666
          0.987844
          0.989476
          0.988257
          0.987219
          0.98858
          0.985036
          0.986348
          0.983782
          0.982696
          0.975916
          0.990322
          0.991112
          0.944436
          0.995453
          0.99209
          0.99011
          0.990622
          0.987123
          0.989171
          0.986419
          0.987473
          0.985687
          0.98531
          0.986273
          0.980559
          0.98487
          0.979928
          0.952799
        </DataArray>
        <DataArray type="Float32" Name="ux" format="ascii">
          0
          0
          0
          0
          0
          0
          0
          0
          0
          0
          0
          0
          0
          0
          0
          0
          0
          -0.000780866
          0.000145417
          0.000341792
          0.000802208
          0.000995097
          0.000676688
          0.0005734
          -0.00016444
          -0.000914109
          -0.00174389
          -0.00232854
          -0.0031046
          -0.00310365
          -0.00222157
          0
          0
          0.000505461
          0.000985745
          0.00114052
          0.00174798
          0.00215676
          0.00197173
          0.0016426
          0.00132902
          0.00063321
          0.000166868
          -0.000857036
          -0.00133111
          -0.000140837
          -8.90993e-05
          0
          0
          -0.000633215
          0.00043286
          0.00131917
          0.00122241
          0.00155889
          0.00208885
          0.00136679
          0.00137132
          0.00092494
          -0.000255158
          -0.000463761
          -0.000628176
          -0.000919068
          -0.00154572
          0
          0
          0.000712372
          0.00127668
          0.00179904
          0.00330035
          0.00252277
          0.00298952
          0.00369241
          0.00270694
          0.00205437
          0.00179657
          0.00169319
          0.000493412
          0.000335524
          -0.000245347
          0
          0
          0.000604445
          0.00230406
          0.00220729
          0.00304691
          0.00463666
          0.00391024
          0.00387985
          0.00413161
          0.00304919
          0.00377444
          0.00226492
          0.00132427
          0.00250175
          0.000317594
          0
          0
          0.000652649
          0.00231566
          0.00371777
          0.00430494
          0.00468672
          0.00628236
          0.00358061
          0.00493364
          0.00581329
          0.00283417
          0.0029001
          0.00207214
          0.00153381
          -0.000360944
          0
          0
          0.00168334
          0.00355754
          0.00502526
          0.00765167
          0.00600631
          0.0062078
          0.00914435
          0.00734197
          0.00689547
          0.00738727
          0.0058689
          0.00503331
          0.00486403
          0.00250233
          0
          0
          0.00188892
          0.00574342
          0.00601492
          0.00621076
          0.00765225
          0.00829214
          0.00778957
          0.00831058
          0.00347545
          0.00591681
          0.00390548
          0.000716337
          -0.000188783
          -0.00488122
          0
          0
          0.00436197
          0.00774222
          0.0082968
          0.010385
          0.0133074
          0.0164821
          0.0112082
          0.0126365
          0.0165257
          0.0109427
          0.0158724
          0.0131029
          0.015221
          0.0147266
          0
          0
          0.00271667
          0.00644445
          0.0097644
          0.0154647
          0.0117035
          0.0072603
          0.00854748
          0.00561101
          0.00314399
          0.00656966
          -0.00664795
          0.00125034
          -0.00476054
          -0.0178459
          0
          0
          0.00887218
          0.0226023
          0.0316328
          0.0283414
          0.021114
          0.0229207
          0.021575
          0.0257638
          0.0214137
          0.0225648
          0.0308092
          0.0171437
          0.0310323
          0.0310708
          0
          0
          0.0133773
          0.0311977
          0.026306
          0.0167344
          0.0164846
          0.0136785
          0.00512118
          -0.000388668
          -0.00535566
          -0.0152828
          -0.0222112
          -0.0135611
          -0.0398922
          -0.0368492
          0
          0
          0.0119822
          -0.00503886
          -0.0138995
          -0.000703963
          0.000936413
          0.011745
          0.0166355
          0.0260626
          0.0314068
          0.0452763
          0.0432412
          0.0459201
          0.0632738
          0.0399486
          0
          0
          -0.0574857
          -0.0968366
          -0.101163
          -0.110987
          -0.112005
          -0.11336
          -0.111518
          -0.106015
          -0.101824
          -0.0934623
          -0.0800955
          -0.0720456
          -0.0636718
          -0.027932
          0
          0.0256
          0.0256
          0.0256
          0.0256
          0.0256
          0.0256
          0.0256
          0.0256
          0.0256
          0.0256
          0.0256
          0.0256
          0.0256
          0.0256
          0.0256
          0.0256
        </DataArray>
        <DataArray type="Float32" Name="uy" format="ascii">
          0
          0
          0
          0
          0
          0
          0
          0
          0
          0
          0
          0
          0
          0
          0
          0
          0
          -0.00551713
          -0.00529686
          -0.00459898
          -0.00519348
          -0.00371859
          -0.00503869
          -0.00323616
          -0.00411519
          -0.00210059
          -0.00256515
          0.000950059
          -0.000463801
          0.00539912
          0.00441384
          0
          0
          -0.00632259
          -0.00559317
          -0.00483039
          -0.00593024
          -0.00346911
          -0.00474193
          -0.00299286
          -0.0031327
          -0.00154596
          -0.00175237
          0.00193122
          -0.000438749
          0.00450434
          0.00358357
          0
          0
          -0.0067844
          -0.00625672
          -0.00513465
          -0.00578913
          -0.00434373
          -0.0038262
          -0.00271
          -0.00279913
          -0.000533712
          -0.000872332
          0.00281428
          -0.000793481
          0.00494069
          0.00344888
          0
          0
          -0.0073056
          -0.00707188
          -0.00607108
          -0.00583169
          -0.00402234
          -0.00490007
          -0.00161813
          -0.00276111
          0.000560312
          -0.000374451
          0.00285978
          7.53352e-05
          0.00556548
          0.00296025
          0
          0
          -0.00875721
          -0.00729284
          -0.00659641
          -0.00711275
          -0.00354913
          -0.00475128
          -0.00261071
          -0.000425591
          6.87168e-05
          -0.000108867
          0.00473499
          0.000109283
          0.00614777
          0.00423469
          0
          0
          -0.0101631
          -0.00885358
          -0.00668332
          -0.00788362
          -0.00536302
          -0.00328318
          -0.00169382
          -0.00252299
          0.00226363
          -0.000151686
          0.00652638
          -0.000706144
          0.00758254
          0.00513499
          0
          0
          -0.0119871
          -0.00990734
          -0.0090966
          -0.00786255
          -0.00469142
          -0.00476935
          -0.000435836
          -0.0028103
          0.00211856
          0.00338083
          0.00510373
          0.00216965
          0.00756581
          0.00850373
          0
          0
          -0.0152972
          -0.0118228
          -0.010148
          -0.00892804
          -0.00393571
          -0.0057627
          -0.00328856
          0.00180786
          0.00174363
          0.000726098
          0.0112998
          -0.00166805
          0.0139701
          0.00634222
          0
          0
          -0.0194719
          -0.0140987
          -0.00926984
          -0.0101107
          -0.00774223
          -0.0042315
          0.000511724
          -0.00161694
          0.00707271
          0.000155866
          0.0106903
          0.00624086
          0.00870619
          0.0165497
          0
          0
          -0.0253902
          -0.0145754
          -0.0138067
          -0.0131531
          -0.00747699
          -0.00305285
          0.000859559
          -0.00101133
          0.00182436
          0.00652517
          0.00891239
          -0.000756511
          0.0196457
          0.0125164
          0
          0
          -0.0318853
          -0.0224463
          -0.0189943
          -0.00920064
          -0.00018742
          -0.00290097
          0.00135226
          0.00254847
          0.00671286
          0.00314566
          0.0223509
          -0.00344047
          0.0223306
          0.0276458
          0
          0
          -0.0512707
          -0.0376986
          -0.0119585
          -0.00337787
          -0.00236089
          -0.00069803
          0.00111562
          0.00114029
          0.00869267
          0.00420018
          0.0105134
          0.00698497
          0.0166018
          0.0185127
          0
          0
          -0.0716012
          -0.0230044
          -0.011195
          -0.00154416
          -0.0019122
          0.00343895
          0.00837906
          0.00679531
          0.0137336
          0.013648
          0.0201804
          0.00221429
          0.0438719
          0.0192368
          0
          0
          -0.035832
          -0.00669996
          -0.0162732
          -0.00908422
          -0.00956194
          -0.0112362
          -0.00494266
          -0.010482
          -0.00185532
          -0.00799561
          0.0120906
          -0.0112689
          0.022148
          0.0352511
          0
          0
          0
          0
          0
          0
          0
          0
          0
          0
          0
          0
          0
          0
          0
          0
          0
        </DataArray>
        <DataArray type="Float32" Name="velocity" NumberOfComponents="3" format="ascii">
          0 0 0
          0 0 0
          0 0 0
          0 0 0
          0 0 0
          0 0 0
          0 0 0
          0 0 0
          0 0 0
          0 0 0
          0 0 0
          0 0 0
          0 0 0
          0 0 0
          0 0 0
          0 0 0
          0 0 0
          -0.000780866 -0.00551713 0
          0.000145417 -0.00529686 0
          0.000341792 -0.00459898 0
          0.000802208 -0.00519348 0
          0.000995097 -0.00371859 0
          0.000676688 -0.00503869 0
          0.0005734 -0.00323616 0
          -0.00016444 -0.00411519 0
          -0.000914109 -0.00210059 0
          -0.00174389 -0.00256515 0
          -0.00232854 0.000950059 0
          -0.0031046 -0.000463801 0
          -0.00310365 0.00539912 0
          -0.00222157 0.00441384 0
          0 0 0
          0 0 0
          0.000505461 -0.00632259 0
          0.000985745 -0.00559317 0
          0.00114052 -0.00483039 0
          0.00174798 -0.00593024 0
          0.00215676 -0.00346911 0
          0.00197173 -0.00474193 0
          0.0016426 -0.00299286 0
          0.00132902 -0.0031327 0
          0.00063321 -0.00154596 0
          0.000166868 -0.00175237 0
          -0.000857036 0.00193122 0
          -0.00133111 -0.000438749 0
          -0.000140837 0.00450434 0
          -8.90993e-05 0.00358357 0
          0 0 0
          0 0 0
          -0.000633215 -0.0067844 0
          0.00043286 -0.00625672 0
          0.00131917 -0.00513465 0
          0.00122241 -0.00578913 0
          0.00155889 -0.00434373 0
          0.00208885 -0.0038262 0
          0.00136679 -0.00271 0
          0.00137132 -0.00279913 0
          0.00092494 -0.000533712 0
          -0.000255158 -0.000872332 0
          -0.000463761 0.00281428 0
          -0.000628176 -0.000793481 0
          -0.000919068 0.00494069 0
          -0.00154572 0.00344888 0
          0 0 0
          0 0 0
          0.000712372 -0.0073056 0
          0.00127668 -0.00707188 0
          0.00179904 -0.00607108 0
          0.00330035 -0.00583169 0
          0.00252277 -0.00402234 0
          0.00298952 -0.00490007 0
          0.00369241 -0.00161813 0
          0.00270694 -0.00276111 0
          0.00205437 0.000560312 0
          0.00179657 -0.000374451 0
          0.00169319 0.00285978 0
          0.000493412 7.53352e-05 0
          0.000335524 0.00556548 0
          -0.000245347 0.00296025 0
          0 0 0
          0 0 0
          0.000604445 -0.00875721 0
          0.00230406 -0.00729284 0
          0.00220729 -0.00659641 0
          0.00304691 -0.00711275 0
          0.00463666 -0.00354913 0
          0.00391024 -0.00475128 0
          0.00387985 -0.00261071 0
          0.00413161 -0.000425591 0
          0.00304919 6.87168e-05 0
          0.00377444 -0.000108867 0
          0.00226492 0.00473499 0
          0.00132427 0.000109283 0
          0.00250175 0.00614777 0
          0.000317594 0.00423469 0
          0 0 0
          0 0 0
          0.000652649 -0.0101631 0
          0.00231566 -0.00885358 0
          0.00371777 -0.00668332 0
          0.00430494 -0.00788362 0
          0.00468672 -0.00536302 0
          0.00628236 -0.00328318 0
          0.00358061 -0.00169382 0
          0.00493364 -0.00252299 0
          0.00581329 0.00226363 0
          0.00283417 -0.000151686 0
          0.0029001 0.00652638 0
          0.00207214 -0.000706144 0
          0.00153381 0.00758254 0
          -0.000360944 0.00513499 0
          0 0 0
          0 0 0
          0.00168334 -0.0119871 0
          0.00355754 -0.00990734 0
          0.00502526 -0.0090966 0
          0.00765167 -0.00786255 0
          0.00600631 -0.00469142 0
          0.0062078 -0.00476935 0
          0.00914435 -0.000435836 0
          0.00734197 -0.0028103 0
          0.00689547 0.00211856 0
          0.00738727 0.00338083 0
          0.0058689 0.00510373 0
          0.00503331 0.00216965 0
          0.00486403 0.00756581 0
          0.00250233 0.00850373 0
          0 0 0
          0 0 0
          0.00188892 -0.0152972 0
          0.00574342 -0.0118228 0
          0.00601492 -0.010148 0
          0.00621076 -0.00892804 0
          0.00765225 -0.00393571 0
          0.00829214 -0.0057627 0
          0.00778957 -0.00328856 0
          0.00831058 0.00180786 0
          0.00347545 0.00174363 0
          0.00591681 0.000726098 0
          0.00390548 0.0112998 0
          0.000716337 -0.00166805 0
          -0.000188783 0.0139701 0
          -0.00488122 0.00634222 0
          0 0 0
          0 0 0
          0.00436197 -0.0194719 0
          0.00774222 -0.0140987 0
          0.0082968 -0.00926984 0
          0.010385 -0.0101107 0
          0.0133074 -0.00774223 0
          0.0164821 -0.0042315 0
          0.0112082 0.000511724 0
          0.0126365 -0.00161694 0
          0.0165257 0.00707271 0
          0.0109427 0.000155866 0
          0.0158724 0.0106903 0
          0.0131029 0.00624086 0
          0.015221 0.00870619 0
          0.0147266 0.0165497 0
          0 0 0
          0 0 0
          0.00271667 -0.0253902 0
          0.00644445 -0.0145754 0
          0.0097644 -0.0138067 0
          0.0154647 -0.0131531 0
          0.0117035 -0.00747699 0
          0.0072603 -0.00305285 0
          0.00854748 0.000859559 0
          0.00561101 -0.00101133 0
          0.00314399 0.00182436 0
          0.00656966 0.00652517 0
          -0.00664795 0.00891239 0
          0.00125034 -0.000756511 0
          -0.00476054 0.0196457 0
          -0.0178459 0.0125164 0
          0 0 0
          0 0 0
          0.00887218 -0.0318853 0
          0.0226023 -0.0224463 0
          0.0316328 -0.0189943 0
          0.0283414 -0.00920064 0
          0.021114 -0.00018742 0
          0.0229207 -0.00290097 0
          0.021575 0.00135226 0
          0.0257638 0.00254847 0
          0.0214137 0.00671286 0
          0.0225648 0.00314566 0
          0.0308092 0.0223509 0
          0.0171437 -0.00344047 0
          0.0310323 0.0223306 0
          0.0310708 0.0276458 0
          0 0 0
          0 0 0
          0.0133773 -0.0512707 0
          0.0311977 -0.0376986 0
          0.026306 -0.0119585 0
          0.0167344 -0.00337787 0
          0.0164846 -0.00236089 0
          0.0136785 -0.00069803 0
          0.00512118 0.00111562 0
          -0.000388668 0.00114029 0
          -0.00535566 0.00869267 0
          -0.0152828 0.00420018 0
          -0.0222112 0.0105134 0
          -0.0135611 0.00698497 0
          -0.0398922 0.0166018 0
          -0.0368492 0.0185127 0
          0 0 0
          0 0 0
          0.0119822 -0.0716012 0
          -0.00503886 -0.0230044 0
          -0.0138995 -0.011195 0
          -0.000703963 -0.00154416 0
          0.000936413 -0.0019122 0
          0.011745 0.00343895 0
          0.0166355 0.00837906 0
          0.0260626 0.00679531 0
          0.0314068 0.0137336 0
          0.0452763 0.013648 0
          0.0432412 0.0201804 0
          0.0459201 0.00221429 0
          0.0632738 0.0438719 0
          0.0399486 0.0192368 0
          0 0 0
          0 0 0
          -0.0574857 -0.035832 0
          -0.0968366 -0.00669996 0
          -0.101163 -0.0162732 0
          -0.110987 -0.00908422 0
          -0.112005 -0.00956194 0
          -0.11336 -0.0112362 0
          -0.111518 -0.00494266 0
          -0.106015 -0.010482 0
          -0.101824 -0.00185532 0
          -0.0934623 -0.00799561 0
          -0.0800955 0.0120906 0
          -0.0720456 -0.0112689 0
          -0.0636718 0.022148 0
          -0.027932 0.0352511 0
          0 0 0
          0.0256 0 0
          0.0256 0 0
          0.0256 0 0
          0.0256 0 0
          0.0256 0 0
          0.0256 0 0
          0.0256 0 0
          0.0256 0 0
          0.0256 0 0
          0.0256 0 0
          0.0256 0 0
          0.0256 0 0
          0.0256 0 0
          0.0256 0 0
          0.0256 0 0
          0.0256 0 0
        </DataArray>
      </PointData>
      <CellData>
      </CellData>
    </Piece>
  </ImageData>
</VTKFile>
