<?xml version="1.0"?>
<VTKFile type="ImageData" version="0.1" byte_order="LittleEndian">
  <ImageData WholeExtent="0 15 0 15 0 0" Origin="0 0 0" Spacing="1 1 1">
    <Piece Extent="0 15 0 15 0 0">
      <PointData>
        <DataArray type="Float32" Name="rho" format="ascii">
          0.993399
          0.992777
          0.992404
          0.994807
          0.992229
          0.993871
          0.991723
          0.992229
          0.990856
          0.991369
          0.990025
          0.992417
          0.987275
          0.999094
          0.988784
          0.992323
          0.993675
          0.994617
          0.994778
          0.994703
          0.994391
          0.994442
          0.994151
          0.993993
          0.993817
          0.993656
          0.993431
          0.993387
          0.993218
          0.993024
          0.993553
          0.992906
          0.994296
          0.994924
          0.994684
          0.994664
          0.994576
          0.994279
          0.994235
          0.994009
          0.99378
          0.993654
          0.993452
          0.993292
          0.993239
          0.993096
          0.992858
          0.993452
          0.993744
          0.994841
          0.994811
          0.994613
          0.994586
          0.994406
          0.994117
          0.994054
          0.9938
          0.993579
          0.993468
          0.993268
          0.993115
          0.993046
          0.993073
          0.993526
          0.994029
          0.994862
          0.994868
          0.994744
          0.994471
          0.99447
          0.994234
          0.993874
          0.993884
          0.993556
          0.993361
          0.993248
          0.99307
          0.99299
          0.992834
          0.99344
          0.993817
          0.994984
          0.994814
          0.994826
          0.994632
          0.99429
          0.994292
          0.994052
          0.993602
          0.993662
          0.993287
          0.993131
          0.993018
          0.992841
          0.992805
          0.993389
          0.993653
          0.995026
          0.994992
          0.994704
          0.994744
          0.994475
          0.994076
          0.994109
          0.993746
          0.993335
          0.993441
          0.992946
          0.992928
          0.992751
          0.992709
          0.993361
          0.993679
          0.995187
          0.995
          0.994964
          0.994553
          0.994634
          0.99429
          0.993654
          0.994007
          0.993398
          0.992945
          0.993259
          0.99258
          0.992762
          0.992302
          0.99333
          0.993299
          0.995084
          0.995186
          0.994955
          0.994877
          0.99433
          0.994295
          0.994236
          0.993185
          0.993742
          0.993062
          0.992511
          0.993006
          0.992015
          0.992794
          0.993146
          0.994142
          0.995591
          0.995158
          0.995118
          0.994847
          0.994559
          0.994288
          0.993929
          0.993895
          0.992715
          0.993512
          0.992608
          0.992162
          0.992981
          0.991348
          0.993021
          0.9916
          0.995204
          0.995537
          0.995125
          0.99477
          0.995008
          0.994142
          0.993813
          0.99374
          0.993483
          0.992139
          0.993434
          0.991849
          0.99145
          0.993018
          0.99284
          0.995856
          0.996364
          0.995318
          0.995215
          0.995477
          0.994274
          0.994493
          0.994117
          0.993137
          0.993378
          0.993307
          0.99076
          0.993441
          0.991602
          0.989696
          0.992904
          0.986824
          0.994474
          0.996065
          0.996028
          0.994641
          0.995052
          0.994448
          0.993777
          0.993795
          0.992776
          0.9926
          0.992845
          0.99099
          0.992196
          0.993261
          0.992273
          0.993689
          0.998101
          0.995646
          0.995426
          0.995365
          0.995008
          0.994249
          0.99416
          0.993253
          0.993237
          0.991782
          0.992665
          0.991897
          0.989261
          0.986699
          0.993832
          0.974753
          0.994887
          0.996354
          0.995661
          0.995951
          0.994278
          0.995066
          0.993517
          0.993763
          0.9924
          0.992866
          0.990917
          0.991878
          0.988088
          0.998486
          0.996922
          0.943457
          0.987186
          0.992981
          0.995799
          0.995367
          0.995083
          0.99445
          0.994051
          0.993143
          0.99286
          0.991717
          0.992317
          0.98941
          0.994667
          0.988085
          1.00798
        </DataArray>
        <DataArray type="Float32" Name="ux" format="ascii">
          0
          0
          0
          0
          0
          0
          0
          0
          0
          0
          0
          0
          0
          0
          0
          0
          0
          -0.00105234
          -0.000942297
          -0.000681551
          -0.000290544
          -0.000333754
          -0.000266649
          -0.000134169
          -0.000245247
          -0.00041318
          -0.000549398
          -0.000582273
          -0.00125432
          -0.000908121
          -0.000863424
          0
          0
          3.6784e-05
          0.000397186
          -0.000161112
          6.15122e-05
          0.000491675
          0.000243713
          0.000224117
          0.000282118
          9.17175e-05
          0.000250653
          -0.000352009
          -0.000330464
          0.000593308
          -0.000207808
          0
          0
          -0.0011926
          -0.000646519
          -0.000288723
          -0.00069238
          -0.000528283
          9.66156e-05
          -0.000463402
          -0.000480309
          -0.00014825
          -0.000916576
          -0.000838047
          -0.000658291
          -0.00124267
          -0.0017642
          0
          0
          -0.000507142
          -0.000395607
          -0.000291278
          0.000432705
          -0.000287502
          -0.000151251
          0.000571084
          0.000206708
          -0.000252912
          0.000122065
          0.000219807
          -0.000522436
          8.29252e-05
          -0.000552309
          0
          0
          -0.0006649
          -3.92764e-05
          -0.000748491
          -0.000176738
          0.000407548
          -0.000499872
          -5.9862e-05
          0.000371167
          -0.000313091
          0.000116979
          -0.000388913
          -0.000602957
          0.000172432
          -0.00117869
          0
          0
          -0.00113166
          -0.00039679
          -0.000265582
          -0.000746559
          -0.000297332
          0.00106513
          -0.000897384
          -0.000323703
          0.00122336
          -0.000660618
          -0.000346257
          -0.000126902
          -0.000239458
          -0.00128929
          0
          0
          -0.000732571
          -0.000288233
          -0.000322553
          0.000537241
          -0.000292273
          -0.000107976
          0.00140291
          7.08437e-05
          -0.000122012
          0.00134887
          9.14765e-05
          -0.000114463
          0.00069881
          -0.00123088
          0
          0
          -0.00171732
          -0.000810672
          -0.00124286
          -0.000282436
          -0.000284755
          -0.00129155
          0.000317753
          0.00129779
          -0.00128874
          5.07422e-05
          0.000968148
          -0.000983977
          -8.68295e-05
          -0.00202208
          0
          0
          9.03829e-05
          0.000656964
          0.000450089
          0.000132077
          0.000563311
          0.00295886
          -0.000258773
          0.00127
          0.00449414
          -2.44381e-05
          0.00197624
          0.00313543
          0.00239912
          0.00101598
          0
          0
          -0.00380091
          -0.0022504
          -0.00295366
          -0.00193218
          -0.000647832
          -0.00195584
          -0.000204022
          -0.00216148
          -0.00177428
          0.00196408
          -0.00450106
          -0.000996667
          -1.62508e-06
          -0.00743942
          0
          0
          0.00204594
          0.00131763
          0.00109685
          0.00436448
          0.00144096
          0.00259588
          0.00407943
          0.00572713
          0.00342483
          0.00539917
          0.0123385
          0.00401519
          0.00954208
          0.0101443
          0
          0
          -0.0081243
          -0.00490684
          -0.00229657
          -0.00567896
          -0.00443624
          -0.00304675
          -0.00448502
          -0.0035996
          -0.00222096
          -0.00724267
          -0.00711028
          -0.00181457
          -0.0172337
          -0.0201564
          0
          0
          0.00836565
          0.0128781
          0.00506419
          0.00866394
          0.00891305
          0.0079906
          0.00912333
          0.00907189
          0.00948354
          0.0129372
          0.00826953
          0.0113059
          0.0209255
          0.00928611
          0
          0
          -0.0194685
          -0.026452
          -0.0246362
          -0.0260248
          -0.0287816
          -0.0286719
          -0.031023
          -0.0319063
          -0.0326017
          -0.0333084
          -0.028907
          -0.0340823
          -0.0285019
          -0.014116
          0
          0.0256
          0.0256
          0.0256
          0.0256
          0.0256
          0.0256
          0.0256
          0.0256
          0.0256
          0.0256
          0.0256
          0.0256
          0.0256
          0.0256
          0.0256
          0.0256
        </DataArray>
        <DataArray type="Float32" Name="uy" format="ascii">
          0
          0
          0
          0
          0
          0
          0
          0
          0
          0
          0
          0
          0
          0
          0
          0
          0
          -0.000532272
          -0.00102443
          -9.27949e-05
          -0.000957753
          0.000116669
          -0.00112689
          -0.000292921
          -0.00100496
          -0.000382501
          -0.00113394
          -8.79584e-06
          -0.00133497
          0.00148395
          -0.000693131
          0
          0
          -0.000460217
          -0.000757326
          2.70184e-05
          -0.00132968
          0.000345073
          -0.0010049
          -0.000475159
          -0.000707591
          -0.000372154
          -0.00126261
          0.000627664
          -0.00188277
          0.000946736
          -0.000706787
          0
          0
          -0.000378159
          -0.00110951
          0.000549943
          -0.00134061
          -0.000185037
          -0.000557684
          -0.000217916
          -0.000848137
          -0.000199418
          -0.000685025
          0.000805534
          -0.00239581
          0.00195818
          -0.00113428
          0
          0
          9.17241e-05
          -0.00145852
          0.000241203
          -0.000847825
          -0.000128175
          -0.00121649
          0.000398329
          -0.00101501
          4.80136e-05
          -0.000573529
          0.000537073
          -0.00202844
          0.00222504
          -0.00164003
          0
          0
          -4.91727e-05
          -0.00115973
          0.000181055
          -0.00159429
          0.000842736
          -0.00119273
          -0.000801635
          0.00036491
          -0.000105783
          -0.00122432
          0.00182624
          -0.00274481
          0.00254991
          -0.00133619
          0
          0
          8.72238e-05
          -0.00161497
          0.000929474
          -0.00191213
          1.70012e-05
          -0.000414651
          -0.000149722
          -0.00123404
          0.000783358
          -0.00076538
          0.00163167
          -0.00312321
          0.00324999
          -0.00147607
          0
          0
          7.72637e-05
          -0.00184712
          0.000525418
          -0.00120986
          -0.000625676
          -0.00105121
          0.00115765
          -0.00172933
          -0.000140732
          0.000789573
          0.00122378
          -0.00328787
          0.00413038
          -0.00127884
          0
          0
          0.000426959
          -0.00224289
          0.000751494
          -0.00248841
          0.0013475
          -0.00188984
          -0.0012476
          0.00132914
          -0.000549482
          -0.00181392
          0.00448874
          -0.00531997
          0.00583825
          -0.00161446
          0
          0
          -0.00015775
          -0.00202208
          0.0002623
          -0.00193
          9.10741e-05
          -0.00155179
          -0.000349903
          -0.00186049
          0.00244425
          -0.00178976
          0.00175566
          -0.0019995
          0.00425318
          0.000732001
          0
          0
          0.000505411
          -0.00318658
          0.00165128
          -0.00278681
          -0.00131896
          -0.000891778
          0.000462293
          -0.00241841
          -0.000936738
          0.00248193
          0.00150292
          -0.00779036
          0.0115996
          -0.00188788
          0
          0
          -0.000431604
          -0.002127
          0.000238506
          -0.00490347
          0.00157097
          -0.00288055
          -0.00064585
          -0.000214319
          -0.000982804
          -0.00259531
          0.00785902
          -0.00956221
          0.00951091
          0.00543172
          0
          0
          0.00172046
          -0.00378604
          -0.00151536
          -0.00169286
          -0.000530723
          -0.00299487
          -0.0016022
          -0.00236452
          0.000879164
          -0.00355991
          -6.18202e-05
          -0.000748586
          0.00933656
          0.000753513
          0
          0
          -0.00407498
          -0.00573961
          0.00281116
          -0.00469971
          5.77116e-05
          -0.00299509
          -0.000892258
          -0.0022472
          0.000906766
          0.00107404
          0.00268743
          -0.00734549
          0.0287159
          -0.00317229
          0
          0
          -0.00391752
          -0.00102504
          0.00299015
          -0.00547197
          0.00166966
          -0.00378133
          -0.00074921
          -0.0031635
          -0.000835996
          -0.00350519
          0.00398805
          -0.0131915
          0.0157418
          0.000243937
          0
          0
          0
          0
          0
          0
          0
          0
          0
          0
          0
          0
          0
          0
          0
          0
          0
        </DataArray>
        <DataArray type="Float32" Name="velocity" NumberOfComponents="3" format="ascii">
          0 0 0
          0 0 0
          0 0 0
          0 0 0
          0 0 0
          0 0 0
          0 0 0
          0 0 0
          0 0 0
          0 0 0
          0 0 0
          0 0 0
          0 0 0
          0 0 0
          0 0 0
          0 0 0
          0 0 0
          -0.00105234 -0.000532272 0
          -0.000942297 -0.00102443 0
          -0.000681551 -9.27949e-05 0
          -0.000290544 -0.000957753 0
          -0.000333754 0.000116669 0
          -0.000266649 -0.00112689 0
          -0.000134169 -0.000292921 0
          -0.000245247 -0.00100496 0
          -0.00041318 -0.000382501 0
          -0.000549398 -0.00113394 0
          -0.000582273 -8.79584e-06 0
          -0.00125432 -0.00133497 0
          -0.000908121 0.00148395 0
          -0.000863424 -0.000693131 0
          0 0 0
          0 0 0
          3.6784e-05 -0.000460217 0
          0.000397186 -0.000757326 0
          -0.000161112 2.70184e-05 0
          6.15122e-05 -0.00132968 0
          0.000491675 0.000345073 0
          0.000243713 -0.0010049 0
          0.000224117 -0.000475159 0
          0.000282118 -0.000707591 0
          9.17175e-05 -0.000372154 0
          0.000250653 -0.00126261 0
          -0.000352009 0.000627664 0
          -0.000330464 -0.00188277 0
          0.000593308 0.000946736 0
          -0.000207808 -0.000706787 0
          0 0 0
          0 0 0
          -0.0011926 -0.000378159 0
          -0.000646519 -0.00110951 0
          -0.000288723 0.000549943 0
          -0.00069238 -0.00134061 0
          -0.000528283 -0.000185037 0
          9.66156e-05 -0.000557684 0
          -0.000463402 -0.000217916 0
          -0.000480309 -0.000848137 0
          -0.00014825 -0.000199418 0
          -0.000916576 -0.000685025 0
          -0.000838047 0.000805534 0
          -0.000658291 -0.00239581 0
          -0.00124267 0.00195818 0
          -0.0017642 -0.00113428 0
          0 0 0
          0 0 0
          -0.000507142 9.17241e-05 0
          -0.000395607 -0.00145852 0
          -0.000291278 0.000241203 0
          0.000432705 -0.000847825 0
          -0.000287502 -0.000128175 0
          -0.000151251 -0.00121649 0
          0.000571084 0.000398329 0
          0.000206708 -0.00101501 0
          -0.000252912 4.80136e-05 0
          0.000122065 -0.000573529 0
          0.000219807 0.000537073 0
          -0.000522436 -0.00202844 0
          8.29252e-05 0.00222504 0
          -0.000552309 -0.00164003 0
          0 0 0
          0 0 0
          -0.0006649 -4.91727e-05 0
          -3.92764e-05 -0.00115973 0
          -0.000748491 0.000181055 0
          -0.000176738 -0.00159429 0
          0.000407548 0.000842736 0
          -0.000499872 -0.00119273 0
          -5.9862e-05 -0.000801635 0
          0.000371167 0.00036491 0
          -0.000313091 -0.000105783 0
          0.000116979 -0.00122432 0
          -0.000388913 0.00182624 0
          -0.000602957 -0.00274481 0
          0.000172432 0.00254991 0
          -0.00117869 -0.00133619 0
          0 0 0
          0 0 0
          -0.00113166 8.72238e-05 0
          -0.00039679 -0.00161497 0
          -0.000265582 0.000929474 0
          -0.000746559 -0.00191213 0
          -0.000297332 1.70012e-05 0
          0.00106513 -0.000414651 0
          -0.000897384 -0.000149722 0
          -0.000323703 -0.00123404 0
          0.00122336 0.000783358 0
          -0.000660618 -0.00076538 0
          -0.000346257 0.00163167 0
          -0.000126902 -0.00312321 0
          -0.000239458 0.00324999 0
          -0.00128929 -0.00147607 0
          0 0 0
          0 0 0
          -0.000732571 7.72637e-05 0
          -0.000288233 -0.00184712 0
          -0.000322553 0.000525418 0
          0.000537241 -0.00120986 0
          -0.000292273 -0.000625676 0
          -0.000107976 -0.00105121 0
          0.00140291 0.00115765 0
          7.08437e-05 -0.00172933 0
          -0.000122012 -0.000140732 0
          0.00134887 0.000789573 0
          9.14765e-05 0.00122378 0
          -0.000114463 -0.00328787 0
          0.00069881 0.00413038 0
          -0.00123088 -0.00127884 0
          0 0 0
          0 0 0
          -0.00171732 0.000426959 0
          -0.000810672 -0.00224289 0
          -0.00124286 0.000751494 0
          -0.000282436 -0.00248841 0
          -0.000284755 0.0013475 0
          -0.00129155 -0.00188984 0
          0.000317753 -0.0012476 0
          0.00129779 0.00132914 0
          -0.00128874 -0.000549482 0
          5.07422e-05 -0.00181392 0
          0.000968148 0.00448874 0
          -0.000983977 -0.00531997 0
          -8.68295e-05 0.00583825 0
          -0.00202208 -0.00161446 0
          0 0 0
          0 0 0
          9.03829e-05 -0.00015775 0
          0.000656964 -0.00202208 0
          0.000450089 0.0002623 0
          0.000132077 -0.00193 0
          0.000563311 9.10741e-05 0
          0.00295886 -0.00155179 0
          -0.000258773 -0.000349903 0
          0.00127 -0.00186049 0
          0.00449414 0.00244425 0
          -2.44381e-05 -0.00178976 0
          0.00197624 0.00175566 0
          0.00313543 -0.0019995 0
          0.00239912 0.00425318 0
          0.00101598 0.000732001 0
          0 0 0
          0 0 0
          -0.00380091 0.000505411 0
          -0.0022504 -0.00318658 0
          -0.00295366 0.00165128 0
          -0.00193218 -0.00278681 0
          -0.000647832 -0.00131896 0
          -0.00195584 -0.000891778 0
          -0.000204022 0.000462293 0
          -0.00216148 -0.00241841 0
          -0.00177428 -0.000936738 0
          0.00196408 0.00248193 0
          -0.00450106 0.00150292 0
          -0.000996667 -0.00779036 0
          -1.62508e-06 0.0115996 0
          -0.00743942 -0.00188788 0
          0 0 0
          0 0 0
          0.00204594 -0.000431604 0
          0.00131763 -0.002127 0
          0.00109685 0.000238506 0
          0.00436448 -0.00490347 0
          0.00144096 0.00157097 0
          0.00259588 -0.00288055 0
          0.00407943 -0.00064585 0
          0.00572713 -0.000214319 0
          0.00342483 -0.000982804 0
          0.00539917 -0.00259531 0
          0.0123385 0.00785902 0
          0.00401519 -0.00956221 0
          0.00954208 0.00951091 0
          0.0101443 0.00543172 0
          0 0 0
          0 0 0
          -0.0081243 0.00172046 0
          -0.00490684 -0.00378604 0
          -0.00229657 -0.00151536 0
          -0.00567896 -0.00169286 0
          -0.00443624 -0.000530723 0
          -0.00304675 -0.00299487 0
          -0.00448502 -0.0016022 0
          -0.0035996 -0.00236452 0
          -0.00222096 0.000879164 0
          -0.00724267 -0.00355991 0
          -0.00711028 -6.18202e-05 0
          -0.00181457 -0.000748586 0
          -0.0172337 0.00933656 0
          -0.0201564 0.000753513 0
          0 0 0
          0 0 0
          0.00836565 -0.00407498 0
          0.0128781 -0.00573961 0
          0.00506419 0.00281116 0
          0.00866394 -0.00469971 0
          0.00891305 5.77116e-05 0
          0.0079906 -0.00299509 0
          0.00912333 -0.000892258 0
          0.00907189 -0.0022472 0
          0.00948354 0.000906766 0
          0.0129372 0.00107404 0
          0.00826953 0.00268743 0
          0.0113059 -0.00734549 0
          0.0209255 0.0287159 0
          0.00928611 -0.00317229 0
          0 0 0
          0 0 0
          -0.0194685 -0.00391752 0
          -0.026452 -0.00102504 0
          -0.0246362 0.00299015 0
          -0.0260248 -0.00547197 0
          -0.0287816 0.00166966 0
          -0.0286719 -0.00378133 0
          -0.031023 -0.00074921 0
          -0.0319063 -0.0031635 0
          -0.0326017 -0.000835996 0
          -0.0333084 -0.00350519 0
          -0.028907 0.00398805 0
          -0.0340823 -0.0131915 0
          -0.0285019 0.0157418 0
          -0.014116 0.000243937 0
          0 0 0
          0.0256 0 0
          0.0256 0 0
          0.0256 0 0
          0.0256 0 0
          0.0256 0 0
          0.0256 0 0
          0.0256 0 0
          0.0256 0 0
          0.0256 0 0
          0.0256 0 0
          0.0256 0 0
          0.0256 0 0
          0.0256 0 0
          0.0256 0 0
          0.0256 0 0
          0.0256 0 0
        </DataArray>
      </PointData>
      <CellData>
      </CellData>
    </Piece>
  </ImageData>
</VTKFile>
