<?xml version="1.0"?>
<VTKFile type="ImageData" version="0.1" byte_order="LittleEndian">
  <ImageData WholeExtent="0 15 0 15 0 0" Origin="0 0 0" Spacing="1 1 1">
    <Piece Extent="0 15 0 15 0 0">
      <PointData>
        <DataArray type="Float32" Name="rho" format="ascii">
          0.984399
          0.977206
          0.981794
          0.980383
          0.981541
          0.982255
          0.981115
          0.983277
          0.982251
          0.985068
          0.984982
          0.990599
          0.986491
          1.00092
          0.995016
          0.992357
          0.988096
          0.990363
          0.990269
          0.990338
          0.989781
          0.989992
          0.989526
          0.989427
          0.989206
          0.989042
          0.988849
          0.988907
          0.988666
          0.988681
          0.989145
          0.989112
          0.989891
          0.990594
          0.990266
          0.990326
          0.990199
          0.989778
          0.989826
          0.989445
          0.989272
          0.989128
          0.988929
          0.988755
          0.988779
          0.988667
          0.988408
          0.989054
          0.989437
          0.990622
          0.990642
          0.990258
          0.990309
          0.990077
          0.989663
          0.989682
          0.989286
          0.989135
          0.988947
          0.988753
          0.988671
          0.98852
          0.988571
          0.988939
          0.989989
          0.990729
          0.990707
          0.990636
          0.99019
          0.990215
          0.9899
          0.989489
          0.989542
          0.988995
          0.988955
          0.988773
          0.988507
          0.988512
          0.98835
          0.988557
          0.990263
          0.991006
          0.990749
          0.990747
          0.990535
          0.990016
          0.990126
          0.989678
          0.989171
          0.98935
          0.988726
          0.988686
          0.988468
          0.988311
          0.988169
          0.988502
          0.990012
          0.991205
          0.991121
          0.990674
          0.990668
          0.990484
          0.989753
          0.989868
          0.989357
          0.988933
          0.989034
          0.98828
          0.988517
          0.988019
          0.988333
          0.987931
          0.991006
          0.991383
          0.991219
          0.991138
          0.990669
          0.990484
          0.990117
          0.989394
          0.989797
          0.988768
          0.988535
          0.988799
          0.987795
          0.988461
          0.987128
          0.988101
          0.989517
          0.991745
          0.991469
          0.991425
          0.990912
          0.990216
          0.990318
          0.989988
          0.988678
          0.989572
          0.988232
          0.988048
          0.988388
          0.986812
          0.988793
          0.986564
          0.993933
          0.992053
          0.992078
          0.991266
          0.99096
          0.990951
          0.990008
          0.9896
          0.989576
          0.987948
          0.989302
          0.987414
          0.9876
          0.988423
          0.985343
          0.987332
          0.9866
          0.992848
          0.992044
          0.991556
          0.991576
          0.990926
          0.989848
          0.989597
          0.989229
          0.988923
          0.987316
          0.989141
          0.986513
          0.98641
          0.989073
          0.983925
          0.998355
          0.993178
          0.991991
          0.99305
          0.991278
          0.99019
          0.990413
          0.98958
          0.988508
          0.988744
          0.988632
          0.984925
          0.989108
          0.986235
          0.981421
          0.987631
          0.9818
          0.992581
          0.995087
          0.991428
          0.990859
          0.991098
          0.989853
          0.989284
          0.988934
          0.987983
          0.987449
          0.987801
          0.986152
          0.985678
          0.99063
          0.979669
          0.999603
          0.996247
          0.992746
          0.991808
          0.991302
          0.990523
          0.989053
          0.989093
          0.98791
          0.988102
          0.985763
          0.987428
          0.987279
          0.982341
          0.979023
          0.989243
          0.980128
          0.998986
          0.990541
          0.994653
          0.990982
          0.990111
          0.990456
          0.988014
          0.989374
          0.986818
          0.987955
          0.986165
          0.985809
          0.981806
          0.99367
          0.994646
          0.944333
          0.990339
          0.991662
          0.991681
          0.992183
          0.989808
          0.990086
          0.98871
          0.98824
          0.987809
          0.98689
          0.987848
          0.983932
          0.988794
          0.98253
          0.979082
        </DataArray>
        <DataArray type="Float32" Name="ux" format="ascii">
          0
          0
          0
          0
          0
          0
          0
          0
          0
          0
          0
          0
          0
          0
          0
          0
          0
          -0.00123176
          -0.000850913
          -0.000585121
          -0.000317107
          -0.000231508
          -0.000387281
          -0.000372035
          -0.000693763
          -0.0010813
          -0.00135298
          -0.00160749
          -0.00218384
          -0.00187138
          -0.00159402
          0
          0
          0.000241091
          0.000485749
          0.000189139
          0.000636847
          0.00103017
          0.000775065
          0.000636284
          0.000530804
          0.00018184
          0.000112198
          -0.00060155
          -0.000744787
          0.000437585
          2.95677e-05
          0
          0
          -0.00103928
          -0.000285174
          0.000331265
          -4.35328e-05
          0.000261424
          0.000845703
          0.000139824
          0.000258262
          0.000173799
          -0.000786532
          -0.000781504
          -0.000713717
          -0.00115337
          -0.00181231
          0
          0
          9.47427e-05
          0.000287613
          0.000666233
          0.00185027
          0.00094494
          0.00132403
          0.00212638
          0.00136503
          0.000881793
          0.000943694
          0.000969271
          4.41492e-06
          0.000227462
          -0.000356813
          0
          0
          1.82598e-05
          0.0011698
          0.000670212
          0.00140709
          0.00260016
          0.00169756
          0.00198502
          0.00230562
          0.00134197
          0.0021246
          0.000939371
          0.000353594
          0.00155269
          -0.00037236
          0
          0
          -0.000204916
          0.000990775
          0.00180339
          0.00178923
          0.00236279
          0.00397392
          0.00134979
          0.00256187
          0.00380307
          0.00108528
          0.00146722
          0.00109193
          0.000812277
          -0.000653745
          0
          0
          0.000512328
          0.00151726
          0.00237347
          0.0045262
          0.00305234
          0.00321532
          0.00577528
          0.00397903
          0.00371754
          0.00461492
          0.00299573
          0.00262628
          0.00271491
          0.000486012
          0
          0
          0.000182013
          0.00259867
          0.00270818
          0.00335514
          0.00402524
          0.00397393
          0.00462892
          0.00533408
          0.00135267
          0.00360912
          0.00276668
          -0.000101128
          0.000189237
          -0.00335662
          0
          0
          0.0025136
          0.0047892
          0.00467854
          0.00553135
          0.00782363
          0.010873
          0.00613316
          0.00775995
          0.0114247
          0.00588839
          0.00976853
          0.00853229
          0.00929245
          0.00865859
          0
          0
          -0.000227006
          0.00145696
          0.00234719
          0.00753816
          0.00640782
          0.00343876
          0.00531507
          0.00235995
          0.00121869
          0.00460696
          -0.00591699
          0.000821905
          -0.00242352
          -0.0135167
          0
          0
          0.00362896
          0.00952337
          0.0158636
          0.0170439
          0.0120222
          0.0143457
          0.0144918
          0.0173101
          0.0133572
          0.014461
          0.0223605
          0.0107837
          0.0207243
          0.0212515
          0
          0
          0.00499223
          0.018413
          0.0164374
          0.00940469
          0.00941132
          0.00859959
          0.00291236
          -5.45213e-05
          -0.00276501
          -0.0109462
          -0.0144477
          -0.00851333
          -0.0295605
          -0.0283192
          0
          0
          0.0158525
          0.0120475
          0.000280001
          0.00986494
          0.00901884
          0.0137887
          0.0166637
          0.0203064
          0.0236058
          0.0311214
          0.0266583
          0.0292315
          0.0410127
          0.0234887
          0
          0
          -0.044141
          -0.0710016
          -0.0707985
          -0.0786286
          -0.0812806
          -0.0812506
          -0.0817741
          -0.0772919
          -0.0739872
          -0.0680555
          -0.0573462
          -0.0545951
          -0.0459169
          -0.0208648
          0
          0.0256
          0.0256
          0.0256
          0.0256
          0.0256
          0.0256
          0.0256
          0.0256
          0.0256
          0.0256
          0.0256
          0.0256
          0.0256
          0.0256
          0.0256
          0.0256
        </DataArray>
        <DataArray type="Float32" Name="uy" format="ascii">
          0
          0
          0
          0
          0
          0
          0
          0
          0
          0
          0
          0
          0
          0
          0
          0
          0
          -0.00386272
          -0.00369599
          -0.00276738
          -0.00343167
          -0.00186407
          -0.00319168
          -0.00147357
          -0.00226406
          -0.000633757
          -0.00129734
          0.00124115
          -0.000427385
          0.00405987
          0.00210983
          0
          0
          -0.00408935
          -0.00366076
          -0.00282964
          -0.00396366
          -0.00163136
          -0.00296163
          -0.00153337
          -0.00164858
          -0.000542709
          -0.00103629
          0.00195079
          -0.00082625
          0.00329135
          0.00190795
          0
          0
          -0.00424133
          -0.00406004
          -0.00267461
          -0.00389989
          -0.00237259
          -0.00222031
          -0.0013112
          -0.00162481
          5.36817e-05
          -0.000376598
          0.00241366
          -0.00130412
          0.00402801
          0.00173101
          0
          0
          -0.00417328
          -0.00466273
          -0.0033581
          -0.00360343
          -0.00219286
          -0.00317991
          -0.000402471
          -0.00179513
          0.000780032
          -0.000106089
          0.0022438
          -0.000677222
          0.00455733
          0.0011925
          0
          0
          -0.00500036
          -0.00451821
          -0.00373888
          -0.00467226
          -0.00137035
          -0.00319251
          -0.00159648
          0.000287905
          0.000226558
          -0.00024063
          0.00393354
          -0.00111486
          0.00500167
          0.0021126
          0
          0
          -0.00568703
          -0.00557933
          -0.00330232
          -0.00528703
          -0.0029368
          -0.00187972
          -0.00081734
          -0.00174368
          0.00200082
          -0.000184283
          0.0049033
          -0.00181246
          0.00598519
          0.00272635
          0
          0
          -0.00662567
          -0.00617922
          -0.00493671
          -0.00500912
          -0.00286896
          -0.00306883
          0.000556573
          -0.00227155
          0.00153213
          0.00269894
          0.00366666
          -0.0002111
          0.0064334
          0.00454784
          0
          0
          -0.00810059
          -0.00728868
          -0.00581085
          -0.00622086
          -0.00125943
          -0.00427547
          -0.00226111
          0.00202968
          0.000900767
          0.000119545
          0.00892584
          -0.00352074
          0.0109831
          0.00315504
          0
          0
          -0.0106538
          -0.00868136
          -0.00533738
          -0.00658563
          -0.00435531
          -0.00315186
          0.000244438
          -0.00152289
          0.00545562
          -0.000479943
          0.00746608
          0.00259607
          0.00670224
          0.0101892
          0
          0
          -0.0139238
          -0.00853394
          -0.0072315
          -0.00956218
          -0.00492519
          -0.00232582
          0.00105419
          -0.00143018
          0.00112204
          0.00550985
          0.00604494
          -0.00383681
          0.0165103
          0.00666819
          0
          0
          -0.0160216
          -0.0116787
          -0.0124122
          -0.00942354
          0.000264319
          -0.00375791
          0.000833127
          0.00198879
          0.00379198
          0.00161454
          0.0160464
          -0.00658115
          0.0178163
          0.0177692
          0
          0
          -0.0244899
          -0.0223718
          -0.0102643
          -0.00473982
          -0.00274568
          -0.00260791
          0.000298113
          0.000627654
          0.00687868
          0.0014061
          0.00643398
          0.0042599
          0.0132492
          0.0112383
          0
          0
          -0.0451327
          -0.0137549
          -0.00616822
          -0.00540213
          -0.000235948
          -0.000858673
          0.00585232
          0.00410415
          0.00989938
          0.00961716
          0.0129587
          -0.000431147
          0.0368542
          0.0080216
          0
          0
          -0.0272732
          -0.00298644
          -0.00814798
          -0.00916411
          -0.00290585
          -0.00880873
          -0.00103423
          -0.0056622
          0.000596565
          -0.00318785
          0.009687
          -0.0101931
          0.0206132
          0.0172427
          0
          0
          0
          0
          0
          0
          0
          0
          0
          0
          0
          0
          0
          0
          0
          0
          0
        </DataArray>
        <DataArray type="Float32" Name="velocity" NumberOfComponents="3" format="ascii">
          0 0 0
          0 0 0
          0 0 0
          0 0 0
          0 0 0
          0 0 0
          0 0 0
          0 0 0
          0 0 0
          0 0 0
          0 0 0
          0 0 0
          0 0 0
          0 0 0
          0 0 0
          0 0 0
          0 0 0
          -0.00123176 -0.00386272 0
          -0.000850913 -0.00369599 0
          -0.000585121 -0.00276738 0
          -0.000317107 -0.00343167 0
          -0.000231508 -0.00186407 0
          -0.000387281 -0.00319168 0
          -0.000372035 -0.00147357 0
          -0.000693763 -0.00226406 0
          -0.0010813 -0.000633757 0
          -0.00135298 -0.00129734 0
          -0.00160749 0.00124115 0
          -0.00218384 -0.000427385 0
          -0.00187138 0.00405987 0
          -0.00159402 0.00210983 0
          0 0 0
          0 0 0
          0.000241091 -0.00408935 0
          0.000485749 -0.00366076 0
          0.000189139 -0.00282964 0
          0.000636847 -0.00396366 0
          0.00103017 -0.00163136 0
          0.000775065 -0.00296163 0
          0.000636284 -0.00153337 0
          0.000530804 -0.00164858 0
          0.00018184 -0.000542709 0
          0.000112198 -0.00103629 0
          -0.00060155 0.00195079 0
          -0.000744787 -0.00082625 0
          0.000437585 0.00329135 0
          2.95677e-05 0.00190795 0
          0 0 0
          0 0 0
          -0.00103928 -0.00424133 0
          -0.000285174 -0.00406004 0
          0.000331265 -0.00267461 0
          -4.35328e-05 -0.00389989 0
          0.000261424 -0.00237259 0
          0.000845703 -0.00222031 0
          0.000139824 -0.0013112 0
          0.000258262 -0.00162481 0
          0.000173799 5.36817e-05 0
          -0.000786532 -0.000376598 0
          -0.000781504 0.00241366 0
          -0.000713717 -0.00130412 0
          -0.00115337 0.00402801 0
          -0.00181231 0.00173101 0
          0 0 0
          0 0 0
          9.47427e-05 -0.00417328 0
          0.000287613 -0.00466273 0
          0.000666233 -0.0033581 0
          0.00185027 -0.00360343 0
          0.00094494 -0.00219286 0
          0.00132403 -0.00317991 0
          0.00212638 -0.000402471 0
          0.00136503 -0.00179513 0
          0.000881793 0.000780032 0
          0.000943694 -0.000106089 0
          0.000969271 0.0022438 0
          4.41492e-06 -0.000677222 0
          0.000227462 0.00455733 0
          -0.000356813 0.0011925 0
          0 0 0
          0 0 0
          1.82598e-05 -0.00500036 0
          0.0011698 -0.00451821 0
          0.000670212 -0.00373888 0
          0.00140709 -0.00467226 0
          0.00260016 -0.00137035 0
          0.00169756 -0.00319251 0
          0.00198502 -0.00159648 0
          0.00230562 0.000287905 0
          0.00134197 0.000226558 0
          0.0021246 -0.00024063 0
          0.000939371 0.00393354 0
          0.000353594 -0.00111486 0
          0.00155269 0.00500167 0
          -0.00037236 0.0021126 0
          0 0 0
          0 0 0
          -0.000204916 -0.00568703 0
          0.000990775 -0.00557933 0
          0.00180339 -0.00330232 0
          0.00178923 -0.00528703 0
          0.00236279 -0.0029368 0
          0.00397392 -0.00187972 0
          0.00134979 -0.00081734 0
          0.00256187 -0.00174368 0
          0.00380307 0.00200082 0
          0.00108528 -0.000184283 0
          0.00146722 0.0049033 0
          0.00109193 -0.00181246 0
          0.000812277 0.00598519 0
          -0.000653745 0.00272635 0
          0 0 0
          0 0 0
          0.000512328 -0.00662567 0
          0.00151726 -0.00617922 0
          0.00237347 -0.00493671 0
          0.0045262 -0.00500912 0
          0.00305234 -0.00286896 0
          0.00321532 -0.00306883 0
          0.00577528 0.000556573 0
          0.00397903 -0.00227155 0
          0.00371754 0.00153213 0
          0.00461492 0.00269894 0
          0.00299573 0.00366666 0
          0.00262628 -0.0002111 0
          0.00271491 0.0064334 0
          0.000486012 0.00454784 0
          0 0 0
          0 0 0
          0.000182013 -0.00810059 0
          0.00259867 -0.00728868 0
          0.00270818 -0.00581085 0
          0.00335514 -0.00622086 0
          0.00402524 -0.00125943 0
          0.00397393 -0.00427547 0
          0.00462892 -0.00226111 0
          0.00533408 0.00202968 0
          0.00135267 0.000900767 0
          0.00360912 0.000119545 0
          0.00276668 0.00892584 0
          -0.000101128 -0.00352074 0
          0.000189237 0.0109831 0
          -0.00335662 0.00315504 0
          0 0 0
          0 0 0
          0.0025136 -0.0106538 0
          0.0047892 -0.00868136 0
          0.00467854 -0.00533738 0
          0.00553135 -0.00658563 0
          0.00782363 -0.00435531 0
          0.010873 -0.00315186 0
          0.00613316 0.000244438 0
          0.00775995 -0.00152289 0
          0.0114247 0.00545562 0
          0.00588839 -0.000479943 0
          0.00976853 0.00746608 0
          0.00853229 0.00259607 0
          0.00929245 0.00670224 0
          0.00865859 0.0101892 0
          0 0 0
          0 0 0
          -0.000227006 -0.0139238 0
          0.00145696 -0.00853394 0
          0.00234719 -0.0072315 0
          0.00753816 -0.00956218 0
          0.00640782 -0.00492519 0
          0.00343876 -0.00232582 0
          0.00531507 0.00105419 0
          0.00235995 -0.00143018 0
          0.00121869 0.00112204 0
          0.00460696 0.00550985 0
          -0.00591699 0.00604494 0
          0.000821905 -0.00383681 0
          -0.00242352 0.0165103 0
          -0.0135167 0.00666819 0
          0 0 0
          0 0 0
          0.00362896 -0.0160216 0
          0.00952337 -0.0116787 0
          0.0158636 -0.0124122 0
          0.0170439 -0.00942354 0
          0.0120222 0.000264319 0
          0.0143457 -0.00375791 0
          0.0144918 0.000833127 0
          0.0173101 0.00198879 0
          0.0133572 0.00379198 0
          0.014461 0.00161454 0
          0.0223605 0.0160464 0
          0.0107837 -0.00658115 0
          0.0207243 0.0178163 0
          0.0212515 0.0177692 0
          0 0 0
          0 0 0
          0.00499223 -0.0244899 0
          0.018413 -0.0223718 0
          0.0164374 -0.0102643 0
          0.00940469 -0.00473982 0
          0.00941132 -0.00274568 0
          0.00859959 -0.00260791 0
          0.00291236 0.000298113 0
          -5.45213e-05 0.000627654 0
          -0.00276501 0.00687868 0
          -0.0109462 0.0014061 0
          -0.0144477 0.00643398 0
          -0.00851333 0.0042599 0
          -0.0295605 0.0132492 0
          -0.0283192 0.0112383 0
          0 0 0
          0 0 0
          0.0158525 -0.0451327 0
          0.0120475 -0.0137549 0
          0.000280001 -0.00616822 0
          0.00986494 -0.00540213 0
          0.00901884 -0.000235948 0
          0.0137887 -0.000858673 0
          0.0166637 0.00585232 0
          0.0203064 0.00410415 0
          0.0236058 0.00989938 0
          0.0311214 0.00961716 0
          0.0266583 0.0129587 0
          0.0292315 -0.000431147 0
          0.0410127 0.0368542 0
          0.0234887 0.0080216 0
          0 0 0
          0 0 0
          -0.044141 -0.0272732 0
          -0.0710016 -0.00298644 0
          -0.0707985 -0.00814798 0
          -0.0786286 -0.00916411 0
          -0.0812806 -0.00290585 0
          -0.0812506 -0.00880873 0
          -0.0817741 -0.00103423 0
          -0.0772919 -0.0056622 0
          -0.0739872 0.000596565 0
          -0.0680555 -0.00318785 0
          -0.0573462 0.009687 0
          -0.0545951 -0.0101931 0
          -0.0459169 0.0206132 0
          -0.0208648 0.0172427 0
          0 0 0
          0.0256 0 0
          0.0256 0 0
          0.0256 0 0
          0.0256 0 0
          0.0256 0 0
          0.0256 0 0
          0.0256 0 0
          0.0256 0 0
          0.0256 0 0
          0.0256 0 0
          0.0256 0 0
          0.0256 0 0
          0.0256 0 0
          0.0256 0 0
          0.0256 0 0
          0.0256 0 0
        </DataArray>
      </PointData>
      <CellData>
      </CellData>
    </Piece>
  </ImageData>
</VTKFile>
