<?xml version="1.0"?>
<VTKFile type="ImageData" version="0.1" byte_order="LittleEndian">
  <ImageData WholeExtent="0 15 0 15 0 0" Origin="0 0 0" Spacing="1 1 1">
    <Piece Extent="0 15 0 15 0 0">
      <PointData>
        <DataArray type="Float32" Name="rho" format="ascii">
          0.938888
          0.883061
          -12.8945
          4.11732
          0.685198
          0.523403
          0.258726
          -0.69982
          6.98356
          4.809
          1.35714
          0.869081
          -0.630929
          0.775016
          1.10745
          1.65815
          1.00666
          0.941745
          1.11554
          1.59027
          1.09824
          0.947064
          0.89013
          0.672068
          -0.433017
          0.257886
          1.22142
          0.787271
          0.965893
          1.41846
          1.12106
          1.28774
          0.929653
          0.99155
          0.987782
          0.974275
          0.973451
          0.97445
          0.970059
          0.936604
          0.919003
          0.842666
          1.23185
          1.07938
          1.28494
          1.26256
          1.20818
          1.03195
          0.962719
          0.992624
          0.993136
          0.989521
          0.984766
          0.978755
          0.970649
          0.96487
          0.982751
          0.943505
          0.988802
          1.0171
          0.947235
          0.898824
          0.989379
          0.928554
          1.00394
          1.00297
          1.00062
          0.996418
          0.991049
          0.985042
          0.979122
          0.970435
          0.964159
          0.959323
          0.950859
          0.939078
          0.916814
          0.901467
          0.904601
          0.908696
          1.02708
          1.0131
          1.01062
          1.00554
          0.999769
          0.993297
          0.987033
          0.980787
          0.973896
          0.967463
          0.959378
          0.951085
          0.938756
          0.928905
          0.916212
          0.928933
          1.02269
          1.03467
          1.02976
          1.02079
          1.01156
          1.00438
          0.997302
          0.993253
          0.989372
          0.987634
          0.99548
          1.00151
          0.994835
          0.968777
          0.953383
          0.923404
          0.00939244
          -2.80992
          -3.61262
          -3.1846
          -2.35471
          1.01787
          1.01308
          1.00881
          1.06571
          1.20086
          -2.97612
          -4.06999
          -7.55651
          -8.85459
          -7.47312
          2.2434
          4.17651
          21.8883
          11.1382
          4.12044
          -11.1957
          -3.42692
          1.03104
          -3.21192
          -5.92092
          -9.70927
          -17.9768
          -0.430708
          21.6583
          60.3307
          -8.19469
          4.04989
          0.847734
          -18.6452
          0.196688
          9.91764
          6.48487
          -9.05433
          1.18143
          -4.33308
          11.6218
          9.79149
          14.5424
          16.8513
          11.7664
          -18.4174
          56.0661
          6.639
          0.731002
          -20.4713
          18.0885
          -32.6404
          12.844
          -18.5325
          -23.4796
          -58.283
          -83.9224
          -118.217
          -103.342
          -159.148
          59.8371
          636.397
          5.47305
          -9.75038
          -4.2007
          -15.7365
          10.4599
          1.72455
          26.7629
          -29.3879
          -34.971
          40.0882
          66.4585
          129.082
          135.119
          221.909
          -1671.13
          137.742
          -222.411
          -9.91098
          -74.9841
          7.1337
          -21.9595
          7.1719
          44.7814
          -38.133
          -3.30949
          348.625
          233.085
          198.206
          374.249
          757.557
          434.712
          -28.4484
          164.854
          -13.9937
          -257.124
          -15.677
          -53.1315
          1.57787
          55.9266
          -42.8563
          -411.377
          -565.924
          -791.534
          -21.5857
          -585.532
          -544.381
          -274.986
          82.8901
          7.52844
          -85.3114
          -274.719
          -15.8177
          -30.2666
          -17.413
          39.9414
          -43.452
          -308.288
          666.213
          306.118
          168.326
          721.03
          404.287
          73.5883
          -10.2711
          -92.4724
          -18.4226
          -96.9905
          -56.8926
          -24.306
          -7.55258
          0.976289
          -14.013
          9.78251
          -68.5533
          -167.13
          -42.6108
          -36.1917
          2.41959
          -155.54
          40.9806
          120.515
          23.8116
        </DataArray>
        <DataArray type="Float32" Name="ux" format="ascii">
          0
          0
          0
          0
          0
          0
          0
          0
          0
          0
          0
          0
          0
          0
          0
          0
          0
          0.0170732
          -0.107446
          0.0179113
          0.173358
          0.0314026
          0.0863756
          0.233552
          -0.0527883
          -2.3397
          -0.123073
          0.157982
          0.0958208
          -0.0593816
          -0.0725798
          0
          0
          0.000351982
          0.0174705
          0.018661
          0.0215265
          0.0291427
          0.0289648
          0.0493654
          0.0540599
          0.00294116
          -0.047926
          0.0246071
          0.0639862
          -0.0391939
          -0.040462
          0
          0
          0.00322749
          0.0128947
          0.019296
          0.0250984
          0.0292426
          0.0344199
          0.0322526
          0.0239625
          0.0483132
          0.0140852
          0.0412618
          0.0735995
          -0.00522747
          -0.00520612
          0
          0
          0.00781741
          0.0156733
          0.0204736
          0.0261326
          0.0300352
          0.0322504
          0.0357575
          0.0355638
          0.0338508
          0.0360099
          0.0334461
          0.0288859
          0.012481
          0.00114812
          0
          0
          0.00679949
          0.0165568
          0.0247261
          0.0283522
          0.0325009
          0.0346028
          0.0345512
          0.036902
          0.0372415
          0.038766
          0.0376359
          0.0330921
          0.028372
          0.0198011
          0
          0
          0.0121102
          0.0246909
          0.0318806
          0.0358508
          0.0341336
          0.0350078
          0.0333772
          0.0340604
          0.034007
          0.0291195
          0.0290979
          0.0312344
          0.0174826
          0.00470925
          0
          0
          -0.150629
          0.375953
          0.483681
          1.41891
          0.042048
          0.0386891
          0.0401111
          0.0113164
          -0.00853763
          -1.45379
          -0.74849
          -0.460475
          -0.09159
          0.151832
          0
          0
          -0.116292
          0.494106
          0.430855
          0.739377
          1.28838
          0.0409841
          -1.34412
          -0.658563
          -0.486716
          -0.457871
          0.0615758
          -0.91183
          0.0285719
          -4.51005
          0
          0
          -0.13303
          -0.412269
          0.316869
          -0.257022
          1.11116
          -0.0323416
          -1.31566
          0.0460116
          -0.168439
          0.179443
          -0.0862354
          1.48995
          0.904477
          -0.842077
          0
          0
          -0.3725
          -0.753328
          0.370229
          0.28161
          1.0692
          -1.06146
          -0.607875
          -0.405703
          -0.0523385
          0.142449
          -0.387222
          0.861009
          0.65255
          10.3763
          0
          0
          0.0706631
          -1.00515
          6.19962
          0.269893
          1.07577
          -1.05747
          0.30611
          -0.214647
          0.0369949
          0.112492
          -0.761334
          -0.0695182
          1.49566
          0.215033
          0
          0
          0.0311581
          0.480701
          2.5865
          0.388555
          1.11141
          -1.54665
          -0.696858
          -0.450349
          -0.756805
          0.0686097
          -0.490696
          0.286028
          0.718538
          -0.726264
          0
          0
          0.376987
          0.805349
          9.17617
          0.360695
          1.17121
          -1.00016
          -0.0416281
          0.0886428
          -6.28222
          -0.500688
          0.277713
          0.194916
          -0.247625
          0.730783
          0
          0
          2.16837
          1.11322
          0.404074
          0.291584
          1.21786
          -0.995707
          0.256405
          -0.114693
          0.603394
          0.664954
          0.0105277
          -1.35098
          -5.94481
          -0.038353
          0
          0.0256
          0.0256
          0.0256
          0.0256
          0.0256
          0.0256
          0.0256
          0.0256
          0.0256
          0.0256
          0.0256
          0.0256
          0.0256
          0.0256
          0.0256
          0.0256
        </DataArray>
        <DataArray type="Float32" Name="uy" format="ascii">
          0
          0
          0
          0
          0
          0
          0
          0
          0
          0
          0
          0
          0
          0
          0
          0
          0
          -0.0584494
          0.105006
          0.383828
          0.115379
          -0.0344671
          -0.0789112
          -0.323575
          3.18451
          -2.92232
          -0.0248248
          0.31241
          -0.37177
          -0.0118472
          0.256942
          0
          0
          -0.014511
          -0.0226626
          -0.0324132
          -0.0304198
          -0.0233009
          -0.0236473
          -0.0607005
          -0.0454245
          -0.0606705
          0.0788294
          0.0566312
          0.088698
          0.109598
          0.128537
          0
          0
          -0.0320465
          -0.0313235
          -0.0295657
          -0.0290491
          -0.0288636
          -0.0300234
          -0.0263697
          -0.0164365
          -0.0543873
          0.00757316
          0.0425881
          -0.00626859
          -0.0404742
          0.0428024
          0
          0
          -0.0418423
          -0.0388337
          -0.0366097
          -0.0355179
          -0.0322297
          -0.0335784
          -0.0320502
          -0.0343146
          -0.0286918
          -0.0328792
          -0.0320632
          -0.041712
          -0.0452434
          -0.0312944
          0
          0
          -0.0534712
          -0.050918
          -0.0449235
          -0.0421221
          -0.0381997
          -0.0353467
          -0.0344325
          -0.034265
          -0.034128
          -0.0353035
          -0.0325248
          -0.0291789
          -0.0267654
          -0.0110634
          0
          0
          -0.075639
          -0.0699363
          -0.0583541
          -0.0490771
          -0.0434373
          -0.0389972
          -0.0356302
          -0.0413669
          -0.0375538
          -0.0527531
          -0.0553457
          -0.0529055
          -0.0290798
          -0.0107657
          0
          0
          -1.34067
          -1.26548
          -1.3041
          -1.41233
          -0.0462617
          -0.0450188
          -0.0410455
          -0.0930969
          -0.185483
          -1.33715
          -1.24817
          -1.13678
          -1.11283
          -1.13495
          0
          0
          -0.748888
          -0.596012
          1.23813
          -0.840033
          -1.28667
          -0.0492063
          -1.31058
          -1.18606
          -1.12353
          -0.826172
          -27.5295
          -0.756949
          -0.824866
          -1.87073
          0
          0
          -0.409517
          -42.4519
          0.498832
          0.0211769
          -0.686501
          -0.127805
          -0.403891
          -0.126172
          -0.271567
          -0.268176
          -0.20679
          -1.94035
          0.535213
          -1.77506
          0
          0
          -0.390439
          0.143297
          0.0946186
          0.107491
          -0.512512
          -1.05495
          -0.933192
          -1.09679
          -0.928172
          -0.960081
          -0.999149
          -1.7031
          -0.673791
          8.53176
          0
          0
          0.25743
          0.770639
          -5.54234
          -0.015048
          -0.321906
          -0.346415
          -0.100432
          -0.317003
          -0.355246
          -0.427181
          -0.053027
          -0.0116754
          -0.0899015
          0.0148453
          0
          0
          3.11185
          -0.359505
          -1.26697
          -0.0301988
          -0.171737
          9.43488
          -0.886976
          -1.12597
          -1.2844
          -1.06394
          0.339242
          0.410614
          2.93375
          -0.234953
          0
          0
          -0.281601
          -0.353821
          3.86546
          -0.00806857
          -0.0364599
          -0.901969
          -0.796037
          0.0221781
          15.1987
          0.289244
          -0.0485194
          -0.25802
          0.206477
          -7.51999
          0
          0
          -1.52921
          -0.159977
          -0.0431526
          0.263816
          0.142329
          0.0502725
          0.0379182
          0.833583
          2.15878
          0.605537
          0.587201
          -0.438864
          3.70371
          0.475083
          0
          0
          0
          0
          0
          0
          0
          0
          0
          0
          0
          0
          0
          0
          0
          0
          0
        </DataArray>
        <DataArray type="Float32" Name="velocity" NumberOfComponents="3" format="ascii">
          0 0 0
          0 0 0
          0 0 0
          0 0 0
          0 0 0
          0 0 0
          0 0 0
          0 0 0
          0 0 0
          0 0 0
          0 0 0
          0 0 0
          0 0 0
          0 0 0
          0 0 0
          0 0 0
          0 0 0
          0.0170732 -0.0584494 0
          -0.107446 0.105006 0
          0.0179113 0.383828 0
          0.173358 0.115379 0
          0.0314026 -0.0344671 0
          0.0863756 -0.0789112 0
          0.233552 -0.323575 0
          -0.0527883 3.18451 0
          -2.3397 -2.92232 0
          -0.123073 -0.0248248 0
          0.157982 0.31241 0
          0.0958208 -0.37177 0
          -0.0593816 -0.0118472 0
          -0.0725798 0.256942 0
          0 0 0
          0 0 0
          0.000351982 -0.014511 0
          0.0174705 -0.0226626 0
          0.018661 -0.0324132 0
          0.0215265 -0.0304198 0
          0.0291427 -0.0233009 0
          0.0289648 -0.0236473 0
          0.0493654 -0.0607005 0
          0.0540599 -0.0454245 0
          0.00294116 -0.0606705 0
          -0.047926 0.0788294 0
          0.0246071 0.0566312 0
          0.0639862 0.088698 0
          -0.0391939 0.109598 0
          -0.040462 0.128537 0
          0 0 0
          0 0 0
          0.00322749 -0.0320465 0
          0.0128947 -0.0313235 0
          0.019296 -0.0295657 0
          0.0250984 -0.0290491 0
          0.0292426 -0.0288636 0
          0.0344199 -0.0300234 0
          0.0322526 -0.0263697 0
          0.0239625 -0.0164365 0
          0.0483132 -0.0543873 0
          0.0140852 0.00757316 0
          0.0412618 0.0425881 0
          0.0735995 -0.00626859 0
          -0.00522747 -0.0404742 0
          -0.00520612 0.0428024 0
          0 0 0
          0 0 0
          0.00781741 -0.0418423 0
          0.0156733 -0.0388337 0
          0.0204736 -0.0366097 0
          0.0261326 -0.0355179 0
          0.0300352 -0.0322297 0
          0.0322504 -0.0335784 0
          0.0357575 -0.0320502 0
          0.0355638 -0.0343146 0
          0.0338508 -0.0286918 0
          0.0360099 -0.0328792 0
          0.0334461 -0.0320632 0
          0.0288859 -0.041712 0
          0.012481 -0.0452434 0
          0.00114812 -0.0312944 0
          0 0 0
          0 0 0
          0.00679949 -0.0534712 0
          0.0165568 -0.050918 0
          0.0247261 -0.0449235 0
          0.0283522 -0.0421221 0
          0.0325009 -0.0381997 0
          0.0346028 -0.0353467 0
          0.0345512 -0.0344325 0
          0.036902 -0.034265 0
          0.0372415 -0.034128 0
          0.038766 -0.0353035 0
          0.0376359 -0.0325248 0
          0.0330921 -0.0291789 0
          0.028372 -0.0267654 0
          0.0198011 -0.0110634 0
          0 0 0
          0 0 0
          0.0121102 -0.075639 0
          0.0246909 -0.0699363 0
          0.0318806 -0.0583541 0
          0.0358508 -0.0490771 0
          0.0341336 -0.0434373 0
          0.0350078 -0.0389972 0
          0.0333772 -0.0356302 0
          0.0340604 -0.0413669 0
          0.034007 -0.0375538 0
          0.0291195 -0.0527531 0
          0.0290979 -0.0553457 0
          0.0312344 -0.0529055 0
          0.0174826 -0.0290798 0
          0.00470925 -0.0107657 0
          0 0 0
          0 0 0
          -0.150629 -1.34067 0
          0.375953 -1.26548 0
          0.483681 -1.3041 0
          1.41891 -1.41233 0
          0.042048 -0.0462617 0
          0.0386891 -0.0450188 0
          0.0401111 -0.0410455 0
          0.0113164 -0.0930969 0
          -0.00853763 -0.185483 0
          -1.45379 -1.33715 0
          -0.74849 -1.24817 0
          -0.460475 -1.13678 0
          -0.09159 -1.11283 0
          0.151832 -1.13495 0
          0 0 0
          0 0 0
          -0.116292 -0.748888 0
          0.494106 -0.596012 0
          0.430855 1.23813 0
          0.739377 -0.840033 0
          1.28838 -1.28667 0
          0.0409841 -0.0492063 0
          -1.34412 -1.31058 0
          -0.658563 -1.18606 0
          -0.486716 -1.12353 0
          -0.457871 -0.826172 0
          0.0615758 -27.5295 0
          -0.91183 -0.756949 0
          0.0285719 -0.824866 0
          -4.51005 -1.87073 0
          0 0 0
          0 0 0
          -0.13303 -0.409517 0
          -0.412269 -42.4519 0
          0.316869 0.498832 0
          -0.257022 0.0211769 0
          1.11116 -0.686501 0
          -0.0323416 -0.127805 0
          -1.31566 -0.403891 0
          0.0460116 -0.126172 0
          -0.168439 -0.271567 0
          0.179443 -0.268176 0
          -0.0862354 -0.20679 0
          1.48995 -1.94035 0
          0.904477 0.535213 0
          -0.842077 -1.77506 0
          0 0 0
          0 0 0
          -0.3725 -0.390439 0
          -0.753328 0.143297 0
          0.370229 0.0946186 0
          0.28161 0.107491 0
          1.0692 -0.512512 0
          -1.06146 -1.05495 0
          -0.607875 -0.933192 0
          -0.405703 -1.09679 0
          -0.0523385 -0.928172 0
          0.142449 -0.960081 0
          -0.387222 -0.999149 0
          0.861009 -1.7031 0
          0.65255 -0.673791 0
          10.3763 8.53176 0
          0 0 0
          0 0 0
          0.0706631 0.25743 0
          -1.00515 0.770639 0
          6.19962 -5.54234 0
          0.269893 -0.015048 0
          1.07577 -0.321906 0
          -1.05747 -0.346415 0
          0.30611 -0.100432 0
          -0.214647 -0.317003 0
          0.0369949 -0.355246 0
          0.112492 -0.427181 0
          -0.761334 -0.053027 0
          -0.0695182 -0.0116754 0
          1.49566 -0.0899015 0
          0.215033 0.0148453 0
          0 0 0
          0 0 0
          0.0311581 3.11185 0
          0.480701 -0.359505 0
          2.5865 -1.26697 0
          0.388555 -0.0301988 0
          1.11141 -0.171737 0
          -1.54665 9.43488 0
          -0.696858 -0.886976 0
          -0.450349 -1.12597 0
          -0.756805 -1.2844 0
          0.0686097 -1.06394 0
          -0.490696 0.339242 0
          0.286028 0.410614 0
          0.718538 2.93375 0
          -0.726264 -0.234953 0
          0 0 0
          0 0 0
          0.376987 -0.281601 0
          0.805349 -0.353821 0
          9.17617 3.86546 0
          0.360695 -0.00806857 0
          1.17121 -0.0364599 0
          -1.00016 -0.901969 0
          -0.0416281 -0.796037 0
          0.0886428 0.0221781 0
          -6.28222 15.1987 0
          -0.500688 0.289244 0
          0.277713 -0.0485194 0
          0.194916 -0.25802 0
          -0.247625 0.206477 0
          0.730783 -7.51999 0
          0 0 0
          0 0 0
          2.16837 -1.52921 0
          1.11322 -0.159977 0
          0.404074 -0.0431526 0
          0.291584 0.263816 0
          1.21786 0.142329 0
          -0.995707 0.0502725 0
          0.256405 0.0379182 0
          -0.114693 0.833583 0
          0.603394 2.15878 0
          0.664954 0.605537 0
          0.0105277 0.587201 0
          -1.35098 -0.438864 0
          -5.94481 3.70371 0
          -0.038353 0.475083 0
          0 0 0
          0.0256 0 0
          0.0256 0 0
          0.0256 0 0
          0.0256 0 0
          0.0256 0 0
          0.0256 0 0
          0.0256 0 0
          0.0256 0 0
          0.0256 0 0
          0.0256 0 0
          0.0256 0 0
          0.0256 0 0
          0.0256 0 0
          0.0256 0 0
          0.0256 0 0
          0.0256 0 0
        </DataArray>
      </PointData>
      <CellData>
      </CellData>
    </Piece>
  </ImageData>
</VTKFile>
