<?xml version="1.0"?>
<VTKFile type="ImageData" version="0.1" byte_order="LittleEndian">
  <ImageData WholeExtent="0 15 0 15 0 0" Origin="0 0 0" Spacing="1 1 1">
    <Piece Extent="0 15 0 15 0 0">
      <PointData>
        <DataArray type="Float32" Name="rho" format="ascii">
          0.999045
          1.00059
          0.996511
          1.00001
          0.997768
          0.998832
          0.997873
          0.998001
          0.997195
          0.997396
          0.996054
          0.997768
          0.992785
          1.00061
          0.989524
          0.995619
          0.995987
          0.994102
          0.994648
          0.994939
          0.995737
          0.996314
          0.997187
          0.997899
          0.99881
          0.999548
          1.0006
          1.00109
          1.00219
          1.00225
          1.0032
          1.00051
          0.995555
          0.994387
          0.994701
          0.995138
          0.995704
          0.996427
          0.997148
          0.997997
          0.998816
          0.999743
          1.00047
          1.00131
          1.00189
          1.00236
          1.0027
          1.0018
          0.995405
          0.994551
          0.994824
          0.995337
          0.995824
          0.996485
          0.997236
          0.998062
          0.998941
          0.999752
          1.00058
          1.00129
          1.00172
          1.00241
          1.00268
          1.00187
          0.99555
          0.994785
          0.995115
          0.995468
          0.996032
          0.996606
          0.997361
          0.998192
          0.999055
          0.999906
          1.00065
          1.00118
          1.00189
          1.00218
          1.00259
          1.00198
          0.995464
          0.995107
          0.995378
          0.995747
          0.996211
          0.996808
          0.997523
          0.998373
          0.999209
          1.00004
          1.00069
          1.00132
          1.00177
          1.00218
          1.00249
          1.00203
          0.995442
          0.995486
          0.995713
          0.996062
          0.9965
          0.997034
          0.997757
          0.998595
          0.99943
          1.00011
          1.00087
          1.00135
          1.00175
          1.00216
          1.00237
          1.00209
          0.995375
          0.995975
          0.996159
          0.996435
          0.996816
          0.997406
          0.998042
          0.998785
          0.999645
          1.00037
          1.00082
          1.00142
          1.00179
          1.002
          1.00218
          1.0022
          0.995128
          0.996429
          0.99668
          0.996825
          0.997305
          0.997697
          0.998327
          0.999096
          0.999682
          1.00046
          1.00095
          1.00114
          1.00173
          1.00177
          1.00201
          1.00228
          0.995019
          0.997183
          0.997077
          0.997434
          0.997693
          0.998024
          0.998617
          0.999252
          0.999887
          1.00019
          1.00093
          1.00115
          1.00108
          1.00171
          1.00127
          1.00245
          0.994213
          0.997364
          0.997818
          0.997893
          0.997956
          0.998606
          0.998827
          0.999281
          0.999969
          1.00042
          1.00021
          1.00114
          1.00094
          1.00058
          1.0015
          1.00253
          0.994823
          0.998407
          0.99824
          0.997977
          0.99882
          0.998599
          0.999117
          0.999625
          0.999733
          1.00029
          1.00073
          0.999645
          1.00116
          1.00052
          0.999533
          1.00265
          0.990574
          0.998073
          0.998161
          0.999146
          0.998572
          0.999069
          0.999402
          0.999639
          1.00008
          0.999904
          1.00023
          1.00081
          0.998899
          1.00079
          1.00054
          1.00292
          0.99242
          0.999286
          0.999016
          0.998637
          0.999089
          0.999492
          0.999446
          0.999836
          0.999927
          1.0003
          0.999563
          1.00006
          1.00049
          0.997934
          0.997357
          1.00579
          0.972339
          0.996581
          0.999666
          0.998549
          0.999859
          0.999172
          0.99997
          0.999762
          1.00012
          0.999618
          1.00046
          0.998624
          1.00034
          0.997121
          1.00508
          1.00814
          0.933063
          0.987014
          0.994257
          0.998954
          0.998611
          0.999695
          0.99943
          0.99994
          0.999611
          1.00013
          0.999312
          1.00072
          0.998326
          1.00439
          0.998836
          1.0397
        </DataArray>
        <DataArray type="Float32" Name="ux" format="ascii">
          0
          0
          0
          0
          0
          0
          0
          0
          0
          0
          0
          0
          0
          0
          0
          0
          0
          0.00101297
          0.0012285
          0.00152541
          0.00212681
          0.00235482
          0.00272351
          0.00287737
          0.0028697
          0.00280026
          0.00236912
          0.00244848
          0.00155553
          0.00157642
          0.00157998
          0
          0
          0.000630584
          0.00131485
          0.00149903
          0.00179581
          0.00221836
          0.00239862
          0.00255683
          0.00256604
          0.0023871
          0.00235675
          0.00178745
          0.00168405
          0.00172469
          0.000506751
          0
          0
          0.000371888
          0.000791186
          0.00114049
          0.00144606
          0.00163417
          0.00194149
          0.00199523
          0.00196195
          0.0019437
          0.00148629
          0.00146531
          0.00114792
          0.000587228
          0.000124646
          0
          0
          0.000332143
          0.000711057
          0.000801427
          0.00119001
          0.00133647
          0.00148881
          0.00162546
          0.00161763
          0.00142836
          0.00136317
          0.00129167
          0.00066602
          0.000817627
          0.000329376
          0
          0
          -1.95454e-05
          0.000419262
          0.00041856
          0.000685364
          0.000840766
          0.000939704
          0.00101838
          0.00100529
          0.000920021
          0.000806713
          0.000606153
          0.000337195
          0.000435318
          -0.000256212
          0
          0
          -0.00035184
          4.42225e-05
          2.90412e-05
          0.000199155
          0.000253814
          0.000443503
          0.00038819
          0.000399193
          0.000491809
          0.000194714
          0.000180474
          2.40605e-05
          0.00011225
          -0.000542787
          0
          0
          -0.000657405
          -0.000205212
          -0.000466191
          -0.000290331
          -0.000259389
          -0.000220016
          -0.000137291
          -0.000227543
          -0.000243178
          -7.47612e-05
          -0.000245463
          -0.000532618
          1.86673e-05
          -0.000791633
          0
          0
          -0.00131004
          -0.000945257
          -0.00123603
          -0.000945413
          -0.00102141
          -0.00111997
          -0.000953728
          -0.000835441
          -0.00112791
          -0.00104579
          -0.000698585
          -0.00122147
          -0.000869218
          -0.00159651
          0
          0
          -0.00150654
          -0.00108816
          -0.00139484
          -0.00139408
          -0.00159635
          -0.00129149
          -0.00155904
          -0.00143049
          -0.000977662
          -0.00169985
          -0.0013639
          -0.000903426
          -0.000668352
          -0.00178653
          0
          0
          -0.00323212
          -0.00240295
          -0.00293535
          -0.00320573
          -0.00282863
          -0.00290952
          -0.00282158
          -0.00311465
          -0.00286571
          -0.0021569
          -0.00358612
          -0.00305596
          -0.0016693
          -0.00398235
          0
          0
          -0.00114542
          -0.00119623
          -0.00275177
          -0.00164499
          -0.00218449
          -0.00234969
          -0.00194278
          -0.00165486
          -0.0023854
          -0.00180856
          6.73157e-05
          -0.00279184
          -0.00027315
          -7.02359e-05
          0
          0
          -0.00771004
          -0.00749129
          -0.00581849
          -0.00625606
          -0.00616422
          -0.00523461
          -0.00575384
          -0.00579111
          -0.00517309
          -0.00755079
          -0.00730223
          -0.00492461
          -0.010303
          -0.0127984
          0
          0
          -0.00181708
          0.000525558
          -0.00239945
          -0.00264007
          -0.00190274
          -0.00267515
          -0.00236119
          -0.00223582
          -0.00203817
          0.000304508
          -0.00161584
          0.000635034
          0.00904746
          0.00227841
          0
          0
          -0.0126717
          -0.011697
          -0.0099424
          -0.00708901
          -0.00733503
          -0.00616635
          -0.00614716
          -0.00644167
          -0.00697564
          -0.00909431
          -0.00787799
          -0.014334
          -0.0159773
          -0.0148501
          0
          0.0256
          0.0256
          0.0256
          0.0256
          0.0256
          0.0256
          0.0256
          0.0256
          0.0256
          0.0256
          0.0256
          0.0256
          0.0256
          0.0256
          0.0256
          0.0256
        </DataArray>
        <DataArray type="Float32" Name="uy" format="ascii">
          0
          0
          0
          0
          0
          0
          0
          0
          0
          0
          0
          0
          0
          0
          0
          0
          0
          0.00186141
          0.00138147
          0.00124028
          0.00107052
          0.000651384
          0.000383117
          -9.20031e-05
          -0.000369605
          -0.000928622
          -0.00110635
          -0.00187597
          -0.00183986
          -0.00224341
          -0.00331731
          0
          0
          0.00188337
          0.00168264
          0.00138893
          0.00110539
          0.000749163
          0.000408587
          -0.000111459
          -0.000422138
          -0.000997834
          -0.00132706
          -0.00179471
          -0.00208001
          -0.00270472
          -0.00290681
          0
          0
          0.00215848
          0.00151892
          0.00179772
          0.00108462
          0.000886175
          0.00041148
          -1.5518e-05
          -0.00052176
          -0.000969969
          -0.00144468
          -0.00160666
          -0.0027611
          -0.00184194
          -0.0031909
          0
          0
          0.00242244
          0.00179741
          0.00183788
          0.00133018
          0.000947895
          0.000455101
          -2.27916e-05
          -0.000558908
          -0.0010534
          -0.0015086
          -0.00200124
          -0.00247246
          -0.00224027
          -0.00330435
          0
          0
          0.00275691
          0.00201857
          0.00216925
          0.00132772
          0.00119157
          0.000470567
          -5.67633e-05
          -0.000569189
          -0.00106172
          -0.00191993
          -0.00173909
          -0.00292228
          -0.00238392
          -0.00345792
          0
          0
          0.00324464
          0.00219399
          0.00252796
          0.00147258
          0.00129399
          0.000515018
          -5.03622e-08
          -0.000740718
          -0.00114409
          -0.00197802
          -0.00196873
          -0.00341236
          -0.00230944
          -0.00402332
          0
          0
          0.00375593
          0.00233453
          0.00295207
          0.00161664
          0.00139515
          0.000545889
          9.7919e-05
          -0.000799407
          -0.00134158
          -0.00203646
          -0.00201856
          -0.00401689
          -0.00231066
          -0.00453417
          0
          0
          0.00437938
          0.0024865
          0.00346694
          0.00149683
          0.00176438
          0.000565365
          -3.89254e-05
          -0.000625115
          -0.00130162
          -0.00271974
          -0.00157609
          -0.00469638
          -0.00230801
          -0.00531669
          0
          0
          0.00487785
          0.00267429
          0.00356425
          0.00175817
          0.00186194
          0.000583255
          0.000100116
          -0.00092767
          -0.000924292
          -0.00263224
          -0.00234446
          -0.00448047
          -0.0021987
          -0.00599308
          0
          0
          0.00610819
          0.00192578
          0.00460398
          0.0017747
          0.0017259
          0.000692714
          0.00033373
          -0.000961223
          -0.00152366
          -0.00194079
          -0.00193298
          -0.0070296
          0.000117763
          -0.00784121
          0
          0
          0.0060114
          0.00244702
          0.0051824
          0.000949648
          0.00237017
          0.000465271
          0.000140647
          -0.000574105
          -0.00130845
          -0.00350298
          9.03965e-05
          -0.00744749
          -0.00162422
          -0.00635045
          0
          0
          0.00806976
          0.00261337
          0.00424919
          0.00184114
          0.00190521
          0.000434884
          0.000136128
          -0.000913693
          -0.000748591
          -0.0030093
          -0.00279102
          -0.00505086
          0.000158667
          -0.0113228
          0
          0
          0.00960492
          -0.000759504
          0.00631625
          0.000337551
          0.00175861
          0.000242407
          0.000504826
          -0.00104315
          -0.00059954
          -0.00201663
          -0.000630422
          -0.0111171
          0.0091995
          -0.0125295
          0
          0
          0.00961897
          0.000532669
          0.0064027
          -0.00018492
          0.00220194
          0.000106893
          0.000190827
          -0.00122802
          -0.00127027
          -0.00377666
          0.000241866
          -0.0130419
          0.00365318
          -0.0114652
          0
          0
          0
          0
          0
          0
          0
          0
          0
          0
          0
          0
          0
          0
          0
          0
          0
        </DataArray>
        <DataArray type="Float32" Name="velocity" NumberOfComponents="3" format="ascii">
          0 0 0
          0 0 0
          0 0 0
          0 0 0
          0 0 0
          0 0 0
          0 0 0
          0 0 0
          0 0 0
          0 0 0
          0 0 0
          0 0 0
          0 0 0
          0 0 0
          0 0 0
          0 0 0
          0 0 0
          0.00101297 0.00186141 0
          0.0012285 0.00138147 0
          0.00152541 0.00124028 0
          0.00212681 0.00107052 0
          0.00235482 0.000651384 0
          0.00272351 0.000383117 0
          0.00287737 -9.20031e-05 0
          0.0028697 -0.000369605 0
          0.00280026 -0.000928622 0
          0.00236912 -0.00110635 0
          0.00244848 -0.00187597 0
          0.00155553 -0.00183986 0
          0.00157642 -0.00224341 0
          0.00157998 -0.00331731 0
          0 0 0
          0 0 0
          0.000630584 0.00188337 0
          0.00131485 0.00168264 0
          0.00149903 0.00138893 0
          0.00179581 0.00110539 0
          0.00221836 0.000749163 0
          0.00239862 0.000408587 0
          0.00255683 -0.000111459 0
          0.00256604 -0.000422138 0
          0.0023871 -0.000997834 0
          0.00235675 -0.00132706 0
          0.00178745 -0.00179471 0
          0.00168405 -0.00208001 0
          0.00172469 -0.00270472 0
          0.000506751 -0.00290681 0
          0 0 0
          0 0 0
          0.000371888 0.00215848 0
          0.000791186 0.00151892 0
          0.00114049 0.00179772 0
          0.00144606 0.00108462 0
          0.00163417 0.000886175 0
          0.00194149 0.00041148 0
          0.00199523 -1.5518e-05 0
          0.00196195 -0.00052176 0
          0.0019437 -0.000969969 0
          0.00148629 -0.00144468 0
          0.00146531 -0.00160666 0
          0.00114792 -0.0027611 0
          0.000587228 -0.00184194 0
          0.000124646 -0.0031909 0
          0 0 0
          0 0 0
          0.000332143 0.00242244 0
          0.000711057 0.00179741 0
          0.000801427 0.00183788 0
          0.00119001 0.00133018 0
          0.00133647 0.000947895 0
          0.00148881 0.000455101 0
          0.00162546 -2.27916e-05 0
          0.00161763 -0.000558908 0
          0.00142836 -0.0010534 0
          0.00136317 -0.0015086 0
          0.00129167 -0.00200124 0
          0.00066602 -0.00247246 0
          0.000817627 -0.00224027 0
          0.000329376 -0.00330435 0
          0 0 0
          0 0 0
          -1.95454e-05 0.00275691 0
          0.000419262 0.00201857 0
          0.00041856 0.00216925 0
          0.000685364 0.00132772 0
          0.000840766 0.00119157 0
          0.000939704 0.000470567 0
          0.00101838 -5.67633e-05 0
          0.00100529 -0.000569189 0
          0.000920021 -0.00106172 0
          0.000806713 -0.00191993 0
          0.000606153 -0.00173909 0
          0.000337195 -0.00292228 0
          0.000435318 -0.00238392 0
          -0.000256212 -0.00345792 0
          0 0 0
          0 0 0
          -0.00035184 0.00324464 0
          4.42225e-05 0.00219399 0
          2.90412e-05 0.00252796 0
          0.000199155 0.00147258 0
          0.000253814 0.00129399 0
          0.000443503 0.000515018 0
          0.00038819 -5.03622e-08 0
          0.000399193 -0.000740718 0
          0.000491809 -0.00114409 0
          0.000194714 -0.00197802 0
          0.000180474 -0.00196873 0
          2.40605e-05 -0.00341236 0
          0.00011225 -0.00230944 0
          -0.000542787 -0.00402332 0
          0 0 0
          0 0 0
          -0.000657405 0.00375593 0
          -0.000205212 0.00233453 0
          -0.000466191 0.00295207 0
          -0.000290331 0.00161664 0
          -0.000259389 0.00139515 0
          -0.000220016 0.000545889 0
          -0.000137291 9.7919e-05 0
          -0.000227543 -0.000799407 0
          -0.000243178 -0.00134158 0
          -7.47612e-05 -0.00203646 0
          -0.000245463 -0.00201856 0
          -0.000532618 -0.00401689 0
          1.86673e-05 -0.00231066 0
          -0.000791633 -0.00453417 0
          0 0 0
          0 0 0
          -0.00131004 0.00437938 0
          -0.000945257 0.0024865 0
          -0.00123603 0.00346694 0
          -0.000945413 0.00149683 0
          -0.00102141 0.00176438 0
          -0.00111997 0.000565365 0
          -0.000953728 -3.89254e-05 0
          -0.000835441 -0.000625115 0
          -0.00112791 -0.00130162 0
          -0.00104579 -0.00271974 0
          -0.000698585 -0.00157609 0
          -0.00122147 -0.00469638 0
          -0.000869218 -0.00230801 0
          -0.00159651 -0.00531669 0
          0 0 0
          0 0 0
          -0.00150654 0.00487785 0
          -0.00108816 0.00267429 0
          -0.00139484 0.00356425 0
          -0.00139408 0.00175817 0
          -0.00159635 0.00186194 0
          -0.00129149 0.000583255 0
          -0.00155904 0.000100116 0
          -0.00143049 -0.00092767 0
          -0.000977662 -0.000924292 0
          -0.00169985 -0.00263224 0
          -0.0013639 -0.00234446 0
          -0.000903426 -0.00448047 0
          -0.000668352 -0.0021987 0
          -0.00178653 -0.00599308 0
          0 0 0
          0 0 0
          -0.00323212 0.00610819 0
          -0.00240295 0.00192578 0
          -0.00293535 0.00460398 0
          -0.00320573 0.0017747 0
          -0.00282863 0.0017259 0
          -0.00290952 0.000692714 0
          -0.00282158 0.00033373 0
          -0.00311465 -0.000961223 0
          -0.00286571 -0.00152366 0
          -0.0021569 -0.00194079 0
          -0.00358612 -0.00193298 0
          -0.00305596 -0.0070296 0
          -0.0016693 0.000117763 0
          -0.00398235 -0.00784121 0
          0 0 0
          0 0 0
          -0.00114542 0.0060114 0
          -0.00119623 0.00244702 0
          -0.00275177 0.0051824 0
          -0.00164499 0.000949648 0
          -0.00218449 0.00237017 0
          -0.00234969 0.000465271 0
          -0.00194278 0.000140647 0
          -0.00165486 -0.000574105 0
          -0.0023854 -0.00130845 0
          -0.00180856 -0.00350298 0
          6.73157e-05 9.03965e-05 0
          -0.00279184 -0.00744749 0
          -0.00027315 -0.00162422 0
          -7.02359e-05 -0.00635045 0
          0 0 0
          0 0 0
          -0.00771004 0.00806976 0
          -0.00749129 0.00261337 0
          -0.00581849 0.00424919 0
          -0.00625606 0.00184114 0
          -0.00616422 0.00190521 0
          -0.00523461 0.000434884 0
          -0.00575384 0.000136128 0
          -0.00579111 -0.000913693 0
          -0.00517309 -0.000748591 0
          -0.00755079 -0.0030093 0
          -0.00730223 -0.00279102 0
          -0.00492461 -0.00505086 0
          -0.010303 0.000158667 0
          -0.0127984 -0.0113228 0
          0 0 0
          0 0 0
          -0.00181708 0.00960492 0
          0.000525558 -0.000759504 0
          -0.00239945 0.00631625 0
          -0.00264007 0.000337551 0
          -0.00190274 0.00175861 0
          -0.00267515 0.000242407 0
          -0.00236119 0.000504826 0
          -0.00223582 -0.00104315 0
          -0.00203817 -0.00059954 0
          0.000304508 -0.00201663 0
          -0.00161584 -0.000630422 0
          0.000635034 -0.0111171 0
          0.00904746 0.0091995 0
          0.00227841 -0.0125295 0
          0 0 0
          0 0 0
          -0.0126717 0.00961897 0
          -0.011697 0.000532669 0
          -0.0099424 0.0064027 0
          -0.00708901 -0.00018492 0
          -0.00733503 0.00220194 0
          -0.00616635 0.000106893 0
          -0.00614716 0.000190827 0
          -0.00644167 -0.00122802 0
          -0.00697564 -0.00127027 0
          -0.00909431 -0.00377666 0
          -0.00787799 0.000241866 0
          -0.014334 -0.0130419 0
          -0.0159773 0.00365318 0
          -0.0148501 -0.0114652 0
          0 0 0
          0.0256 0 0
          0.0256 0 0
          0.0256 0 0
          0.0256 0 0
          0.0256 0 0
          0.0256 0 0
          0.0256 0 0
          0.0256 0 0
          0.0256 0 0
          0.0256 0 0
          0.0256 0 0
          0.0256 0 0
          0.0256 0 0
          0.0256 0 0
          0.0256 0 0
          0.0256 0 0
        </DataArray>
      </PointData>
      <CellData>
      </CellData>
    </Piece>
  </ImageData>
</VTKFile>
