<?xml version="1.0"?>
<VTKFile type="ImageData" version="0.1" byte_order="LittleEndian">
  <ImageData WholeExtent="0 15 0 15 0 0" Origin="0 0 0" Spacing="1 1 1">
    <Piece Extent="0 15 0 15 0 0">
      <PointData>
        <DataArray type="Float32" Name="rho" format="ascii">
          0.985746
          0.980865
          0.984027
          0.984636
          0.984194
          0.986106
          0.98467
          0.986775
          0.986051
          0.988311
          0.98816
          0.99242
          0.988184
          1.00133
          0.993003
          0.993069
          0.98801
          0.98973
          0.989898
          0.990112
          0.989926
          0.99039
          0.990353
          0.990602
          0.990779
          0.990988
          0.991093
          0.991428
          0.991421
          0.991525
          0.99213
          0.991663
          0.989421
          0.990066
          0.989895
          0.990136
          0.990294
          0.990215
          0.990587
          0.990624
          0.990798
          0.991015
          0.991149
          0.991258
          0.991491
          0.991533
          0.991397
          0.991929
          0.988933
          0.990101
          0.990231
          0.990117
          0.990394
          0.990493
          0.990454
          0.990808
          0.990819
          0.990997
          0.991166
          0.991247
          0.991382
          0.991439
          0.991594
          0.991932
          0.989467
          0.990216
          0.990348
          0.990445
          0.990315
          0.990638
          0.99068
          0.990634
          0.991046
          0.990917
          0.99114
          0.991287
          0.991276
          0.991443
          0.991383
          0.991706
          0.989585
          0.990487
          0.990388
          0.990594
          0.990639
          0.990467
          0.990882
          0.990866
          0.990724
          0.99122
          0.991008
          0.991208
          0.991289
          0.991282
          0.991331
          0.99169
          0.989451
          0.990664
          0.990728
          0.990539
          0.990796
          0.99088
          0.990608
          0.991042
          0.990939
          0.99087
          0.991314
          0.990938
          0.991324
          0.991157
          0.991417
          0.991444
          0.990024
          0.990881
          0.99083
          0.990946
          0.990761
          0.990999
          0.990949
          0.990607
          0.991375
          0.990843
          0.990857
          0.991462
          0.990805
          0.99149
          0.990649
          0.991597
          0.989172
          0.991057
          0.99107
          0.99116
          0.991106
          0.990712
          0.99112
          0.991263
          0.990397
          0.99154
          0.990778
          0.990752
          0.991446
          0.990253
          0.991905
          0.990801
          0.991997
          0.991459
          0.991444
          0.991199
          0.991087
          0.99131
          0.990988
          0.99094
          0.991288
          0.990198
          0.991686
          0.990502
          0.990691
          0.991759
          0.98945
          0.991223
          0.986759
          0.991822
          0.991627
          0.991294
          0.991486
          0.991531
          0.990858
          0.990939
          0.991069
          0.991129
          0.990012
          0.991945
          0.989979
          0.990079
          0.992316
          0.989461
          0.995147
          0.992528
          0.991412
          0.992243
          0.991756
          0.990772
          0.991394
          0.991079
          0.990429
          0.991075
          0.991294
          0.988511
          0.992309
          0.99003
          0.986834
          0.991703
          0.982042
          0.991049
          0.993696
          0.992
          0.991086
          0.991796
          0.991062
          0.990781
          0.990961
          0.990369
          0.990431
          0.990991
          0.989698
          0.990194
          0.993569
          0.987154
          0.994356
          0.995297
          0.992205
          0.991907
          0.991791
          0.991443
          0.990601
          0.990853
          0.990178
          0.990571
          0.989183
          0.99096
          0.990637
          0.987421
          0.984345
          0.992049
          0.975504
          0.994294
          0.991179
          0.993538
          0.992019
          0.990617
          0.991834
          0.989839
          0.991065
          0.989558
          0.990773
          0.989469
          0.989955
          0.986725
          0.997851
          0.997672
          0.942844
          0.98646
          0.990422
          0.991924
          0.992356
          0.991201
          0.991196
          0.990669
          0.9902
          0.990313
          0.98967
          0.990806
          0.987865
          0.993129
          0.986834
          0.994165
        </DataArray>
        <DataArray type="Float32" Name="ux" format="ascii">
          0
          0
          0
          0
          0
          0
          0
          0
          0
          0
          0
          0
          0
          0
          0
          0
          0
          -0.00121063
          -0.00100265
          -0.000696502
          -0.000388248
          -0.000369659
          -0.000413249
          -0.000342261
          -0.000541887
          -0.000811941
          -0.000958483
          -0.00110946
          -0.00168476
          -0.00128917
          -0.00121549
          0
          0
          0.000209159
          0.000473083
          2.49165e-05
          0.000393643
          0.000827437
          0.000560597
          0.00048666
          0.000468796
          0.000211972
          0.000269092
          -0.000361952
          -0.00042281
          0.000683913
          6.61378e-05
          0
          0
          -0.0011385
          -0.000460126
          6.03652e-05
          -0.00039264
          -0.000116784
          0.000521351
          -0.000157983
          -6.46123e-05
          4.89026e-05
          -0.000840391
          -0.000791489
          -0.00064465
          -0.00117044
          -0.00182865
          0
          0
          -0.000150945
          -5.25946e-05
          0.000258823
          0.00128781
          0.000390371
          0.000690074
          0.00152189
          0.000908568
          0.000458663
          0.000664386
          0.000726892
          -0.00014881
          0.000254926
          -0.000365614
          0
          0
          -0.000238258
          0.00067217
          3.14297e-05
          0.000732264
          0.00170624
          0.000730875
          0.00115432
          0.00154451
          0.000646375
          0.00136124
          0.000422228
          -2.44159e-05
          0.00108107
          -0.000665338
          0
          0
          -0.000596649
          0.00040783
          0.000932329
          0.000623934
          0.00123273
          0.00285294
          0.00037546
          0.00137781
          0.00284679
          0.000351703
          0.000787902
          0.000670224
          0.000454895
          -0.000829703
          0
          0
          -1.64406e-05
          0.000669193
          0.00115525
          0.00285102
          0.00162115
          0.00178397
          0.00402752
          0.00235127
          0.00215349
          0.00332832
          0.00173557
          0.00150784
          0.00184531
          -0.000342303
          0
          0
          -0.000682183
          0.000978344
          0.000939518
          0.0018452
          0.00216518
          0.00166399
          0.00293046
          0.00381485
          0.000343861
          0.00234203
          0.00225154
          -0.000403845
          0.000326984
          -0.0025658
          0
          0
          0.00150304
          0.00308962
          0.00292413
          0.00309678
          0.0047166
          0.00768629
          0.00347517
          0.00515726
          0.0087618
          0.00341679
          0.00660547
          0.00633274
          0.00632347
          0.00544549
          0
          0
          -0.00178772
          -0.000328262
          -0.000508936
          0.00317004
          0.00344243
          0.00120049
          0.00327227
          0.000621855
          0.000195746
          0.0037661
          -0.00520628
          0.000455376
          -0.0011666
          -0.0110362
          0
          0
          0.00231093
          0.0042502
          0.00804812
          0.010949
          0.00703114
          0.00926523
          0.0103272
          0.0127265
          0.00943475
          0.0108951
          0.0185705
          0.00805786
          0.0159228
          0.0165462
          0
          0
          -0.00134211
          0.0079105
          0.00839639
          0.00323257
          0.00411446
          0.00458012
          0.00104483
          -0.000136779
          -0.00119225
          -0.00825814
          -0.010357
          -0.0055217
          -0.0243598
          -0.0245527
          0
          0
          0.0147011
          0.0165795
          0.00521812
          0.0120001
          0.01126
          0.0126759
          0.0145042
          0.0158731
          0.0177682
          0.0228842
          0.0178067
          0.0208645
          0.0308437
          0.0161185
          0
          0
          -0.0335279
          -0.051809
          -0.0506362
          -0.0566348
          -0.0598131
          -0.0602407
          -0.0619269
          -0.0597887
          -0.0578601
          -0.0541929
          -0.0456386
          -0.0456585
          -0.037371
          -0.0171306
          0
          0.0256
          0.0256
          0.0256
          0.0256
          0.0256
          0.0256
          0.0256
          0.0256
          0.0256
          0.0256
          0.0256
          0.0256
          0.0256
          0.0256
          0.0256
          0.0256
        </DataArray>
        <DataArray type="Float32" Name="uy" format="ascii">
          0
          0
          0
          0
          0
          0
          0
          0
          0
          0
          0
          0
          0
          0
          0
          0
          0
          -0.00251053
          -0.00257172
          -0.00158237
          -0.00236983
          -0.000905684
          -0.00227576
          -0.000828633
          -0.00161786
          -0.000343667
          -0.00109977
          0.000892229
          -0.000772397
          0.00304555
          0.000808571
          0
          0
          -0.00260082
          -0.00243075
          -0.00161461
          -0.00286741
          -0.000706517
          -0.00211144
          -0.00100727
          -0.00116728
          -0.000369678
          -0.00106137
          0.00152778
          -0.00130802
          0.00233774
          0.000778368
          0
          0
          -0.00267011
          -0.00282885
          -0.00127343
          -0.00286828
          -0.00142205
          -0.00149174
          -0.00080004
          -0.00126578
          1.71586e-05
          -0.000463554
          0.00181494
          -0.0018269
          0.00320358
          0.000507132
          0
          0
          -0.0023914
          -0.003375
          -0.00184598
          -0.00246158
          -0.00132739
          -0.00239987
          -1.73172e-06
          -0.00150549
          0.000527848
          -0.000276565
          0.00156586
          -0.0013385
          0.00365549
          -4.88647e-05
          0
          0
          -0.00293244
          -0.00312133
          -0.00216309
          -0.00344376
          -0.000382815
          -0.00244428
          -0.00131717
          0.000359617
          6.10459e-05
          -0.000667775
          0.00313395
          -0.00196142
          0.00402081
          0.000655785
          0
          0
          -0.00326377
          -0.00394972
          -0.00152904
          -0.00396785
          -0.00174191
          -0.00132398
          -0.000586838
          -0.00159975
          0.00152023
          -0.000484187
          0.00360241
          -0.00253168
          0.00482413
          0.00102739
          0
          0
          -0.00378175
          -0.00439165
          -0.00264942
          -0.00350383
          -0.00207193
          -0.002327
          0.00081913
          -0.00219758
          0.000805522
          0.00195977
          0.00260853
          -0.00168195
          0.00553695
          0.00210035
          0
          0
          -0.00435353
          -0.0051294
          -0.00319877
          -0.00483971
          -0.000129348
          -0.00350252
          -0.00199741
          0.00174293
          0.00017767
          -0.000687758
          0.00723531
          -0.00456806
          0.00894637
          0.00121769
          0
          0
          -0.00595609
          -0.00587888
          -0.0032022
          -0.00469422
          -0.00259194
          -0.00275186
          -0.000221854
          -0.00183425
          0.00419337
          -0.00111802
          0.00520093
          0.000571606
          0.00551382
          0.00644972
          0
          0
          -0.00757261
          -0.00620721
          -0.00335391
          -0.00703439
          -0.00367567
          -0.00205429
          0.000630594
          -0.00204632
          0.000221647
          0.00441513
          0.00416967
          -0.00561751
          0.0146366
          0.00325396
          0
          0
          -0.00863357
          -0.0068958
          -0.00738489
          -0.00836834
          0.000401779
          -0.00403422
          -0.000140625
          0.000968171
          0.00163976
          -2.53196e-05
          0.012622
          -0.00805711
          0.0148668
          0.0126795
          0
          0
          -0.0109899
          -0.0137932
          -0.00777325
          -0.00451265
          -0.00269993
          -0.00379862
          -0.0010701
          -0.000812687
          0.00452487
          -0.000729794
          0.00403183
          0.00279569
          0.0116075
          0.00733152
          0
          0
          -0.0270034
          -0.0101921
          -0.00287055
          -0.00678731
          -0.000595632
          -0.00290895
          0.0024405
          0.00143565
          0.00639016
          0.00663424
          0.0091108
          -0.0021879
          0.0337634
          0.00278825
          0
          0
          -0.0186075
          -0.00202157
          -0.00319023
          -0.00844046
          -0.000599299
          -0.006916
          -0.000718349
          -0.00411601
          0.000444443
          -0.00235125
          0.00766687
          -0.0106691
          0.0193202
          0.00902656
          0
          0
          0
          0
          0
          0
          0
          0
          0
          0
          0
          0
          0
          0
          0
          0
          0
        </DataArray>
        <DataArray type="Float32" Name="velocity" NumberOfComponents="3" format="ascii">
          0 0 0
          0 0 0
          0 0 0
          0 0 0
          0 0 0
          0 0 0
          0 0 0
          0 0 0
          0 0 0
          0 0 0
          0 0 0
          0 0 0
          0 0 0
          0 0 0
          0 0 0
          0 0 0
          0 0 0
          -0.00121063 -0.00251053 0
          -0.00100265 -0.00257172 0
          -0.000696502 -0.00158237 0
          -0.000388248 -0.00236983 0
          -0.000369659 -0.000905684 0
          -0.000413249 -0.00227576 0
          -0.000342261 -0.000828633 0
          -0.000541887 -0.00161786 0
          -0.000811941 -0.000343667 0
          -0.000958483 -0.00109977 0
          -0.00110946 0.000892229 0
          -0.00168476 -0.000772397 0
          -0.00128917 0.00304555 0
          -0.00121549 0.000808571 0
          0 0 0
          0 0 0
          0.000209159 -0.00260082 0
          0.000473083 -0.00243075 0
          2.49165e-05 -0.00161461 0
          0.000393643 -0.00286741 0
          0.000827437 -0.000706517 0
          0.000560597 -0.00211144 0
          0.00048666 -0.00100727 0
          0.000468796 -0.00116728 0
          0.000211972 -0.000369678 0
          0.000269092 -0.00106137 0
          -0.000361952 0.00152778 0
          -0.00042281 -0.00130802 0
          0.000683913 0.00233774 0
          6.61378e-05 0.000778368 0
          0 0 0
          0 0 0
          -0.0011385 -0.00267011 0
          -0.000460126 -0.00282885 0
          6.03652e-05 -0.00127343 0
          -0.00039264 -0.00286828 0
          -0.000116784 -0.00142205 0
          0.000521351 -0.00149174 0
          -0.000157983 -0.00080004 0
          -6.46123e-05 -0.00126578 0
          4.89026e-05 1.71586e-05 0
          -0.000840391 -0.000463554 0
          -0.000791489 0.00181494 0
          -0.00064465 -0.0018269 0
          -0.00117044 0.00320358 0
          -0.00182865 0.000507132 0
          0 0 0
          0 0 0
          -0.000150945 -0.0023914 0
          -5.25946e-05 -0.003375 0
          0.000258823 -0.00184598 0
          0.00128781 -0.00246158 0
          0.000390371 -0.00132739 0
          0.000690074 -0.00239987 0
          0.00152189 -1.73172e-06 0
          0.000908568 -0.00150549 0
          0.000458663 0.000527848 0
          0.000664386 -0.000276565 0
          0.000726892 0.00156586 0
          -0.00014881 -0.0013385 0
          0.000254926 0.00365549 0
          -0.000365614 -4.88647e-05 0
          0 0 0
          0 0 0
          -0.000238258 -0.00293244 0
          0.00067217 -0.00312133 0
          3.14297e-05 -0.00216309 0
          0.000732264 -0.00344376 0
          0.00170624 -0.000382815 0
          0.000730875 -0.00244428 0
          0.00115432 -0.00131717 0
          0.00154451 0.000359617 0
          0.000646375 6.10459e-05 0
          0.00136124 -0.000667775 0
          0.000422228 0.00313395 0
          -2.44159e-05 -0.00196142 0
          0.00108107 0.00402081 0
          -0.000665338 0.000655785 0
          0 0 0
          0 0 0
          -0.000596649 -0.00326377 0
          0.00040783 -0.00394972 0
          0.000932329 -0.00152904 0
          0.000623934 -0.00396785 0
          0.00123273 -0.00174191 0
          0.00285294 -0.00132398 0
          0.00037546 -0.000586838 0
          0.00137781 -0.00159975 0
          0.00284679 0.00152023 0
          0.000351703 -0.000484187 0
          0.000787902 0.00360241 0
          0.000670224 -0.00253168 0
          0.000454895 0.00482413 0
          -0.000829703 0.00102739 0
          0 0 0
          0 0 0
          -1.64406e-05 -0.00378175 0
          0.000669193 -0.00439165 0
          0.00115525 -0.00264942 0
          0.00285102 -0.00350383 0
          0.00162115 -0.00207193 0
          0.00178397 -0.002327 0
          0.00402752 0.00081913 0
          0.00235127 -0.00219758 0
          0.00215349 0.000805522 0
          0.00332832 0.00195977 0
          0.00173557 0.00260853 0
          0.00150784 -0.00168195 0
          0.00184531 0.00553695 0
          -0.000342303 0.00210035 0
          0 0 0
          0 0 0
          -0.000682183 -0.00435353 0
          0.000978344 -0.0051294 0
          0.000939518 -0.00319877 0
          0.0018452 -0.00483971 0
          0.00216518 -0.000129348 0
          0.00166399 -0.00350252 0
          0.00293046 -0.00199741 0
          0.00381485 0.00174293 0
          0.000343861 0.00017767 0
          0.00234203 -0.000687758 0
          0.00225154 0.00723531 0
          -0.000403845 -0.00456806 0
          0.000326984 0.00894637 0
          -0.0025658 0.00121769 0
          0 0 0
          0 0 0
          0.00150304 -0.00595609 0
          0.00308962 -0.00587888 0
          0.00292413 -0.0032022 0
          0.00309678 -0.00469422 0
          0.0047166 -0.00259194 0
          0.00768629 -0.00275186 0
          0.00347517 -0.000221854 0
          0.00515726 -0.00183425 0
          0.0087618 0.00419337 0
          0.00341679 -0.00111802 0
          0.00660547 0.00520093 0
          0.00633274 0.000571606 0
          0.00632347 0.00551382 0
          0.00544549 0.00644972 0
          0 0 0
          0 0 0
          -0.00178772 -0.00757261 0
          -0.000328262 -0.00620721 0
          -0.000508936 -0.00335391 0
          0.00317004 -0.00703439 0
          0.00344243 -0.00367567 0
          0.00120049 -0.00205429 0
          0.00327227 0.000630594 0
          0.000621855 -0.00204632 0
          0.000195746 0.000221647 0
          0.0037661 0.00441513 0
          -0.00520628 0.00416967 0
          0.000455376 -0.00561751 0
          -0.0011666 0.0146366 0
          -0.0110362 0.00325396 0
          0 0 0
          0 0 0
          0.00231093 -0.00863357 0
          0.0042502 -0.0068958 0
          0.00804812 -0.00738489 0
          0.010949 -0.00836834 0
          0.00703114 0.000401779 0
          0.00926523 -0.00403422 0
          0.0103272 -0.000140625 0
          0.0127265 0.000968171 0
          0.00943475 0.00163976 0
          0.0108951 -2.53196e-05 0
          0.0185705 0.012622 0
          0.00805786 -0.00805711 0
          0.0159228 0.0148668 0
          0.0165462 0.0126795 0
          0 0 0
          0 0 0
          -0.00134211 -0.0109899 0
          0.0079105 -0.0137932 0
          0.00839639 -0.00777325 0
          0.00323257 -0.00451265 0
          0.00411446 -0.00269993 0
          0.00458012 -0.00379862 0
          0.00104483 -0.0010701 0
          -0.000136779 -0.000812687 0
          -0.00119225 0.00452487 0
          -0.00825814 -0.000729794 0
          -0.010357 0.00403183 0
          -0.0055217 0.00279569 0
          -0.0243598 0.0116075 0
          -0.0245527 0.00733152 0
          0 0 0
          0 0 0
          0.0147011 -0.0270034 0
          0.0165795 -0.0101921 0
          0.00521812 -0.00287055 0
          0.0120001 -0.00678731 0
          0.01126 -0.000595632 0
          0.0126759 -0.00290895 0
          0.0145042 0.0024405 0
          0.0158731 0.00143565 0
          0.0177682 0.00639016 0
          0.0228842 0.00663424 0
          0.0178067 0.0091108 0
          0.0208645 -0.0021879 0
          0.0308437 0.0337634 0
          0.0161185 0.00278825 0
          0 0 0
          0 0 0
          -0.0335279 -0.0186075 0
          -0.051809 -0.00202157 0
          -0.0506362 -0.00319023 0
          -0.0566348 -0.00844046 0
          -0.0598131 -0.000599299 0
          -0.0602407 -0.006916 0
          -0.0619269 -0.000718349 0
          -0.0597887 -0.00411601 0
          -0.0578601 0.000444443 0
          -0.0541929 -0.00235125 0
          -0.0456386 0.00766687 0
          -0.0456585 -0.0106691 0
          -0.037371 0.0193202 0
          -0.0171306 0.00902656 0
          0 0 0
          0.0256 0 0
          0.0256 0 0
          0.0256 0 0
          0.0256 0 0
          0.0256 0 0
          0.0256 0 0
          0.0256 0 0
          0.0256 0 0
          0.0256 0 0
          0.0256 0 0
          0.0256 0 0
          0.0256 0 0
          0.0256 0 0
          0.0256 0 0
          0.0256 0 0
          0.0256 0 0
        </DataArray>
      </PointData>
      <CellData>
      </CellData>
    </Piece>
  </ImageData>
</VTKFile>
