<?xml version="1.0"?>
<VTKFile type="ImageData" version="0.1" byte_order="LittleEndian">
  <ImageData WholeExtent="0 15 0 15 0 0" Origin="0 0 0" Spacing="1 1 1">
    <Piece Extent="0 15 0 15 0 0">
      <PointData>
        <DataArray type="Float32" Name="rho" format="ascii">
          0.992465
          0.992852
          0.992079
          0.994874
          0.992319
          0.994113
          0.992246
          0.992836
          0.991698
          0.992287
          0.991022
          0.993506
          0.988355
          1.00006
          0.989835
          0.994073
          0.992888
          0.994352
          0.994587
          0.994594
          0.994428
          0.994594
          0.994483
          0.994485
          0.994489
          0.994493
          0.994441
          0.994513
          0.994496
          0.994372
          0.994965
          0.994657
          0.993452
          0.994663
          0.994498
          0.99456
          0.994587
          0.994454
          0.994547
          0.994512
          0.994448
          0.994499
          0.994452
          0.99445
          0.994501
          0.994459
          0.99428
          0.995241
          0.99293
          0.994543
          0.994576
          0.994491
          0.994577
          0.994547
          0.994441
          0.994537
          0.994483
          0.994429
          0.994493
          0.994446
          0.994412
          0.994454
          0.994536
          0.995345
          0.993147
          0.994508
          0.99458
          0.994557
          0.994436
          0.994578
          0.994531
          0.994369
          0.994554
          0.994445
          0.994415
          0.99446
          0.994438
          0.994445
          0.994371
          0.995356
          0.99286
          0.994537
          0.994453
          0.99457
          0.994525
          0.994377
          0.994549
          0.994536
          0.994307
          0.994551
          0.9944
          0.994415
          0.994444
          0.994397
          0.994434
          0.995407
          0.992632
          0.994467
          0.994523
          0.994371
          0.99457
          0.994485
          0.994326
          0.994569
          0.99446
          0.994278
          0.994589
          0.994321
          0.994443
          0.994412
          0.994442
          0.995526
          0.992524
          0.994508
          0.994415
          0.994521
          0.994294
          0.99459
          0.994495
          0.994123
          0.994706
          0.994408
          0.994168
          0.994686
          0.994239
          0.994511
          0.994216
          0.995624
          0.992085
          0.994252
          0.994479
          0.994385
          0.994522
          0.994241
          0.99444
          0.994679
          0.993951
          0.994732
          0.994398
          0.994055
          0.994736
          0.993994
          0.994755
          0.995664
          0.992601
          0.994628
          0.994283
          0.994437
          0.994416
          0.994348
          0.994412
          0.994369
          0.994645
          0.993825
          0.994845
          0.99431
          0.994039
          0.994993
          0.993615
          0.995672
          0.990334
          0.994022
          0.994528
          0.994348
          0.994174
          0.99475
          0.994231
          0.994224
          0.994522
          0.994624
          0.993618
          0.99514
          0.993931
          0.993669
          0.995297
          0.995828
          0.993882
          0.995037
          0.994208
          0.994204
          0.994823
          0.993963
          0.9945
          0.994546
          0.99395
          0.994544
          0.994865
          0.992707
          0.995502
          0.994045
          0.992429
          0.995827
          0.985401
          0.993086
          0.994623
          0.994969
          0.993898
          0.994606
          0.994453
          0.994176
          0.994635
          0.994022
          0.994228
          0.994879
          0.993238
          0.994787
          0.995757
          0.99576
          0.991475
          0.996288
          0.994181
          0.994237
          0.994491
          0.994536
          0.994216
          0.994569
          0.994128
          0.994586
          0.993558
          0.994704
          0.994342
          0.99201
          0.98978
          0.997408
          0.972261
          0.992879
          0.994947
          0.994197
          0.995025
          0.993786
          0.994944
          0.993973
          0.994647
          0.993789
          0.994669
          0.993062
          0.994515
          0.99086
          1.00142
          1.00025
          0.940554
          0.984829
          0.991055
          0.994313
          0.994192
          0.994477
          0.994314
          0.994508
          0.99415
          0.994421
          0.993765
          0.994844
          0.992344
          0.997941
          0.991615
          1.01377
        </DataArray>
        <DataArray type="Float32" Name="ux" format="ascii">
          0
          0
          0
          0
          0
          0
          0
          0
          0
          0
          0
          0
          0
          0
          0
          0
          0
          -0.00135308
          -0.00148968
          -0.00146781
          -0.00125747
          -0.00144094
          -0.00145612
          -0.00136361
          -0.00145028
          -0.00154124
          -0.00157852
          -0.00142155
          -0.00191845
          -0.00137398
          -0.00105368
          0
          0
          -0.000372212
          -0.000228097
          -0.00097829
          -0.000958969
          -0.000679373
          -0.00100089
          -0.00105233
          -0.000979647
          -0.00110302
          -0.00082323
          -0.00127344
          -0.00105583
          3.59714e-05
          -0.000554571
          0
          0
          -0.00149765
          -0.00121793
          -0.00109829
          -0.00163438
          -0.00163938
          -0.00113033
          -0.00169139
          -0.00172434
          -0.00131223
          -0.00194326
          -0.00171068
          -0.00136095
          -0.00171977
          -0.00197091
          0
          0
          -0.000873174
          -0.000960615
          -0.0011131
          -0.000621576
          -0.00140571
          -0.00140025
          -0.000768828
          -0.00107227
          -0.0014784
          -0.000996094
          -0.000744037
          -0.00128348
          -0.000455164
          -0.000859646
          0
          0
          -0.00103179
          -0.000658591
          -0.00154701
          -0.00119362
          -0.000812592
          -0.0017498
          -0.00138653
          -0.000967053
          -0.00153911
          -0.00107978
          -0.00136408
          -0.00137392
          -0.000462424
          -0.00150962
          0
          0
          -0.00147567
          -0.00100582
          -0.00112488
          -0.0017545
          -0.00150509
          -0.000315757
          -0.00216784
          -0.00169734
          -0.000142722
          -0.00177053
          -0.00137382
          -0.000958705
          -0.000827147
          -0.00162132
          0
          0
          -0.0011018
          -0.000884101
          -0.00119586
          -0.000625772
          -0.00149982
          -0.00143785
          -0.000125333
          -0.00134906
          -0.00151479
          3.15922e-05
          -0.000968016
          -0.00104449
          3.37482e-05
          -0.00158574
          0
          0
          -0.00207697
          -0.00145673
          -0.00213969
          -0.00139444
          -0.00155065
          -0.00268515
          -0.00119083
          -0.000224557
          -0.00258684
          -0.00132659
          -0.000151447
          -0.00176758
          -0.000723415
          -0.00229375
          0
          0
          -0.00035425
          -0.000117896
          -0.000535011
          -0.00104719
          -0.000945237
          0.00121591
          -0.00182411
          -0.000444756
          0.0027176
          -0.00144874
          0.000425113
          0.00192082
          0.00139385
          0.00014391
          0
          0
          -0.0042098
          -0.00289536
          -0.00378707
          -0.00329969
          -0.00211141
          -0.00338461
          -0.00182252
          -0.0036332
          -0.00318754
          0.000584518
          -0.00525551
          -0.00207607
          -0.000441603
          -0.00710296
          0
          0
          0.00176198
          0.000740451
          -0.000169235
          0.00282544
          -4.18848e-05
          0.000723628
          0.00210121
          0.0035756
          0.00140841
          0.0033736
          0.0102031
          0.00260606
          0.00795172
          0.00873575
          0
          0
          -0.00872021
          -0.00650303
          -0.00403967
          -0.00739247
          -0.00646621
          -0.00514036
          -0.00654313
          -0.00558798
          -0.00385266
          -0.00849045
          -0.00792731
          -0.00213297
          -0.0163658
          -0.01953
          0
          0
          0.00679455
          0.0110167
          0.00372986
          0.00666876
          0.00702915
          0.00586826
          0.00697224
          0.00690573
          0.00719716
          0.0107677
          0.00640683
          0.00930861
          0.0193298
          0.00837973
          0
          0
          -0.017837
          -0.0236366
          -0.0218654
          -0.0226655
          -0.0252286
          -0.024974
          -0.0271801
          -0.0282255
          -0.0291696
          -0.0303723
          -0.0265777
          -0.0323949
          -0.0276887
          -0.0142656
          0
          0.0256
          0.0256
          0.0256
          0.0256
          0.0256
          0.0256
          0.0256
          0.0256
          0.0256
          0.0256
          0.0256
          0.0256
          0.0256
          0.0256
          0.0256
          0.0256
        </DataArray>
        <DataArray type="Float32" Name="uy" format="ascii">
          0
          0
          0
          0
          0
          0
          0
          0
          0
          0
          0
          0
          0
          0
          0
          0
          0
          -0.000516092
          -0.00101811
          -0.000104604
          -0.000922038
          7.49332e-05
          -0.00106012
          -0.000327949
          -0.000968727
          -0.000439821
          -0.00113782
          -0.000158769
          -0.00135163
          0.0012186
          -0.000808104
          0
          0
          -0.000454977
          -0.000808723
          -3.22127e-07
          -0.00132101
          0.000249623
          -0.00100136
          -0.000553441
          -0.000756431
          -0.000466675
          -0.00134765
          0.000418443
          -0.0019422
          0.000665643
          -0.000906455
          0
          0
          -0.000379403
          -0.00119375
          0.000476529
          -0.00136996
          -0.000269178
          -0.000649387
          -0.00033712
          -0.000944026
          -0.000380366
          -0.000846115
          0.000543234
          -0.0025151
          0.00163636
          -0.001412
          0
          0
          5.81283e-05
          -0.00152007
          0.000180323
          -0.000927877
          -0.000247464
          -0.00127602
          0.000182672
          -0.00112535
          -0.000222533
          -0.000790397
          0.00022114
          -0.00220372
          0.00179855
          -0.0019453
          0
          0
          -4.2121e-05
          -0.00127408
          0.00016887
          -0.00165284
          0.000654444
          -0.00125749
          -0.000976748
          9.09735e-05
          -0.000335223
          -0.00151081
          0.00139941
          -0.00295394
          0.00208164
          -0.00177119
          0
          0
          0.000144098
          -0.00168413
          0.000880273
          -0.00192415
          -8.41321e-05
          -0.000587339
          -0.00035864
          -0.00141689
          0.000398656
          -0.00104518
          0.00110308
          -0.00334985
          0.00273011
          -0.0020393
          0
          0
          0.000203146
          -0.00188311
          0.000578683
          -0.00123299
          -0.000707799
          -0.00116672
          0.000870812
          -0.00186727
          -0.000541982
          0.000305038
          0.000792672
          -0.00366567
          0.00354967
          -0.00198289
          0
          0
          0.000659931
          -0.00223362
          0.00094597
          -0.00245952
          0.00119033
          -0.00186976
          -0.00140449
          0.000949451
          -0.000843352
          -0.00226225
          0.00374807
          -0.00552322
          0.0049872
          -0.00232691
          0
          0
          0.000222966
          -0.00188246
          0.000470853
          -0.00184887
          0.000164858
          -0.00158091
          -0.000565322
          -0.00206562
          0.00190289
          -0.00211533
          0.000977432
          -0.00258567
          0.00375248
          -0.000475597
          0
          0
          0.00119932
          -0.00306656
          0.00198726
          -0.00240972
          -0.00119357
          -0.000917542
          0.000266381
          -0.00258816
          -0.00132993
          0.00183625
          0.000935635
          -0.00824475
          0.0105699
          -0.00294877
          0
          0
          0.000353187
          -0.00191423
          0.0010708
          -0.00452034
          0.00158377
          -0.00271027
          -0.000813565
          -0.000481619
          -0.00139393
          -0.00321664
          0.00691966
          -0.00984293
          0.00810856
          0.00389708
          0
          0
          0.00272466
          -0.00282769
          -0.000670152
          -0.00133032
          -0.000199296
          -0.00271871
          -0.00156692
          -0.00253554
          0.000337759
          -0.00397998
          -0.000947578
          -0.00177647
          0.00854287
          -0.000734387
          0
          0
          -0.00141954
          -0.00520337
          0.00359973
          -0.00411454
          0.000259635
          -0.00270133
          -0.001058
          -0.00263108
          0.000123407
          5.90425e-05
          0.00156924
          -0.00883629
          0.0269771
          -0.00408793
          0
          0
          -0.00172782
          -0.000983434
          0.00377736
          -0.00494234
          0.00188139
          -0.00329582
          -0.000766286
          -0.00308762
          -0.00111043
          -0.00396823
          0.00337928
          -0.0138577
          0.0144458
          -0.000993781
          0
          0
          0
          0
          0
          0
          0
          0
          0
          0
          0
          0
          0
          0
          0
          0
          0
        </DataArray>
        <DataArray type="Float32" Name="velocity" NumberOfComponents="3" format="ascii">
          0 0 0
          0 0 0
          0 0 0
          0 0 0
          0 0 0
          0 0 0
          0 0 0
          0 0 0
          0 0 0
          0 0 0
          0 0 0
          0 0 0
          0 0 0
          0 0 0
          0 0 0
          0 0 0
          0 0 0
          -0.00135308 -0.000516092 0
          -0.00148968 -0.00101811 0
          -0.00146781 -0.000104604 0
          -0.00125747 -0.000922038 0
          -0.00144094 7.49332e-05 0
          -0.00145612 -0.00106012 0
          -0.00136361 -0.000327949 0
          -0.00145028 -0.000968727 0
          -0.00154124 -0.000439821 0
          -0.00157852 -0.00113782 0
          -0.00142155 -0.000158769 0
          -0.00191845 -0.00135163 0
          -0.00137398 0.0012186 0
          -0.00105368 -0.000808104 0
          0 0 0
          0 0 0
          -0.000372212 -0.000454977 0
          -0.000228097 -0.000808723 0
          -0.00097829 -3.22127e-07 0
          -0.000958969 -0.00132101 0
          -0.000679373 0.000249623 0
          -0.00100089 -0.00100136 0
          -0.00105233 -0.000553441 0
          -0.000979647 -0.000756431 0
          -0.00110302 -0.000466675 0
          -0.00082323 -0.00134765 0
          -0.00127344 0.000418443 0
          -0.00105583 -0.0019422 0
          3.59714e-05 0.000665643 0
          -0.000554571 -0.000906455 0
          0 0 0
          0 0 0
          -0.00149765 -0.000379403 0
          -0.00121793 -0.00119375 0
          -0.00109829 0.000476529 0
          -0.00163438 -0.00136996 0
          -0.00163938 -0.000269178 0
          -0.00113033 -0.000649387 0
          -0.00169139 -0.00033712 0
          -0.00172434 -0.000944026 0
          -0.00131223 -0.000380366 0
          -0.00194326 -0.000846115 0
          -0.00171068 0.000543234 0
          -0.00136095 -0.0025151 0
          -0.00171977 0.00163636 0
          -0.00197091 -0.001412 0
          0 0 0
          0 0 0
          -0.000873174 5.81283e-05 0
          -0.000960615 -0.00152007 0
          -0.0011131 0.000180323 0
          -0.000621576 -0.000927877 0
          -0.00140571 -0.000247464 0
          -0.00140025 -0.00127602 0
          -0.000768828 0.000182672 0
          -0.00107227 -0.00112535 0
          -0.0014784 -0.000222533 0
          -0.000996094 -0.000790397 0
          -0.000744037 0.00022114 0
          -0.00128348 -0.00220372 0
          -0.000455164 0.00179855 0
          -0.000859646 -0.0019453 0
          0 0 0
          0 0 0
          -0.00103179 -4.2121e-05 0
          -0.000658591 -0.00127408 0
          -0.00154701 0.00016887 0
          -0.00119362 -0.00165284 0
          -0.000812592 0.000654444 0
          -0.0017498 -0.00125749 0
          -0.00138653 -0.000976748 0
          -0.000967053 9.09735e-05 0
          -0.00153911 -0.000335223 0
          -0.00107978 -0.00151081 0
          -0.00136408 0.00139941 0
          -0.00137392 -0.00295394 0
          -0.000462424 0.00208164 0
          -0.00150962 -0.00177119 0
          0 0 0
          0 0 0
          -0.00147567 0.000144098 0
          -0.00100582 -0.00168413 0
          -0.00112488 0.000880273 0
          -0.0017545 -0.00192415 0
          -0.00150509 -8.41321e-05 0
          -0.000315757 -0.000587339 0
          -0.00216784 -0.00035864 0
          -0.00169734 -0.00141689 0
          -0.000142722 0.000398656 0
          -0.00177053 -0.00104518 0
          -0.00137382 0.00110308 0
          -0.000958705 -0.00334985 0
          -0.000827147 0.00273011 0
          -0.00162132 -0.0020393 0
          0 0 0
          0 0 0
          -0.0011018 0.000203146 0
          -0.000884101 -0.00188311 0
          -0.00119586 0.000578683 0
          -0.000625772 -0.00123299 0
          -0.00149982 -0.000707799 0
          -0.00143785 -0.00116672 0
          -0.000125333 0.000870812 0
          -0.00134906 -0.00186727 0
          -0.00151479 -0.000541982 0
          3.15922e-05 0.000305038 0
          -0.000968016 0.000792672 0
          -0.00104449 -0.00366567 0
          3.37482e-05 0.00354967 0
          -0.00158574 -0.00198289 0
          0 0 0
          0 0 0
          -0.00207697 0.000659931 0
          -0.00145673 -0.00223362 0
          -0.00213969 0.00094597 0
          -0.00139444 -0.00245952 0
          -0.00155065 0.00119033 0
          -0.00268515 -0.00186976 0
          -0.00119083 -0.00140449 0
          -0.000224557 0.000949451 0
          -0.00258684 -0.000843352 0
          -0.00132659 -0.00226225 0
          -0.000151447 0.00374807 0
          -0.00176758 -0.00552322 0
          -0.000723415 0.0049872 0
          -0.00229375 -0.00232691 0
          0 0 0
          0 0 0
          -0.00035425 0.000222966 0
          -0.000117896 -0.00188246 0
          -0.000535011 0.000470853 0
          -0.00104719 -0.00184887 0
          -0.000945237 0.000164858 0
          0.00121591 -0.00158091 0
          -0.00182411 -0.000565322 0
          -0.000444756 -0.00206562 0
          0.0027176 0.00190289 0
          -0.00144874 -0.00211533 0
          0.000425113 0.000977432 0
          0.00192082 -0.00258567 0
          0.00139385 0.00375248 0
          0.00014391 -0.000475597 0
          0 0 0
          0 0 0
          -0.0042098 0.00119932 0
          -0.00289536 -0.00306656 0
          -0.00378707 0.00198726 0
          -0.00329969 -0.00240972 0
          -0.00211141 -0.00119357 0
          -0.00338461 -0.000917542 0
          -0.00182252 0.000266381 0
          -0.0036332 -0.00258816 0
          -0.00318754 -0.00132993 0
          0.000584518 0.00183625 0
          -0.00525551 0.000935635 0
          -0.00207607 -0.00824475 0
          -0.000441603 0.0105699 0
          -0.00710296 -0.00294877 0
          0 0 0
          0 0 0
          0.00176198 0.000353187 0
          0.000740451 -0.00191423 0
          -0.000169235 0.0010708 0
          0.00282544 -0.00452034 0
          -4.18848e-05 0.00158377 0
          0.000723628 -0.00271027 0
          0.00210121 -0.000813565 0
          0.0035756 -0.000481619 0
          0.00140841 -0.00139393 0
          0.0033736 -0.00321664 0
          0.0102031 0.00691966 0
          0.00260606 -0.00984293 0
          0.00795172 0.00810856 0
          0.00873575 0.00389708 0
          0 0 0
          0 0 0
          -0.00872021 0.00272466 0
          -0.00650303 -0.00282769 0
          -0.00403967 -0.000670152 0
          -0.00739247 -0.00133032 0
          -0.00646621 -0.000199296 0
          -0.00514036 -0.00271871 0
          -0.00654313 -0.00156692 0
          -0.00558798 -0.00253554 0
          -0.00385266 0.000337759 0
          -0.00849045 -0.00397998 0
          -0.00792731 -0.000947578 0
          -0.00213297 -0.00177647 0
          -0.0163658 0.00854287 0
          -0.01953 -0.000734387 0
          0 0 0
          0 0 0
          0.00679455 -0.00141954 0
          0.0110167 -0.00520337 0
          0.00372986 0.00359973 0
          0.00666876 -0.00411454 0
          0.00702915 0.000259635 0
          0.00586826 -0.00270133 0
          0.00697224 -0.001058 0
          0.00690573 -0.00263108 0
          0.00719716 0.000123407 0
          0.0107677 5.90425e-05 0
          0.00640683 0.00156924 0
          0.00930861 -0.00883629 0
          0.0193298 0.0269771 0
          0.00837973 -0.00408793 0
          0 0 0
          0 0 0
          -0.017837 -0.00172782 0
          -0.0236366 -0.000983434 0
          -0.0218654 0.00377736 0
          -0.0226655 -0.00494234 0
          -0.0252286 0.00188139 0
          -0.024974 -0.00329582 0
          -0.0271801 -0.000766286 0
          -0.0282255 -0.00308762 0
          -0.0291696 -0.00111043 0
          -0.0303723 -0.00396823 0
          -0.0265777 0.00337928 0
          -0.0323949 -0.0138577 0
          -0.0276887 0.0144458 0
          -0.0142656 -0.000993781 0
          0 0 0
          0.0256 0 0
          0.0256 0 0
          0.0256 0 0
          0.0256 0 0
          0.0256 0 0
          0.0256 0 0
          0.0256 0 0
          0.0256 0 0
          0.0256 0 0
          0.0256 0 0
          0.0256 0 0
          0.0256 0 0
          0.0256 0 0
          0.0256 0 0
          0.0256 0 0
          0.0256 0 0
        </DataArray>
      </PointData>
      <CellData>
      </CellData>
    </Piece>
  </ImageData>
</VTKFile>
