<?xml version="1.0"?>
<VTKFile type="ImageData" version="0.1" byte_order="LittleEndian">
  <ImageData WholeExtent="0 15 0 15 0 0" Origin="0 0 0" Spacing="1 1 1">
    <Piece Extent="0 15 0 15 0 0">
      <PointData>
        <DataArray type="Float32" Name="rho" format="ascii">
          0.996088
          0.996508
          0.994839
          0.997753
          0.994762
          0.996184
          0.994045
          0.99412
          0.992606
          0.992647
          0.990879
          0.992884
          0.987243
          0.998418
          0.988087
          0.992412
          0.995412
          0.995662
          0.995834
          0.99574
          0.995524
          0.995543
          0.995349
          0.995216
          0.995113
          0.994984
          0.99485
          0.99477
          0.994717
          0.994473
          0.995004
          0.993974
          0.99565
          0.995924
          0.995729
          0.995702
          0.995633
          0.995435
          0.995388
          0.995264
          0.995076
          0.995024
          0.994856
          0.994778
          0.994722
          0.994614
          0.994392
          0.994718
          0.995114
          0.995808
          0.995786
          0.995654
          0.995637
          0.995511
          0.995324
          0.995284
          0.995143
          0.994962
          0.994932
          0.99479
          0.994659
          0.994644
          0.994661
          0.994859
          0.99524
          0.995805
          0.995815
          0.99572
          0.995542
          0.995564
          0.995421
          0.995165
          0.995208
          0.995021
          0.994871
          0.994804
          0.994728
          0.994634
          0.994527
          0.99494
          0.994904
          0.995868
          0.995745
          0.995781
          0.995647
          0.995432
          0.995461
          0.995347
          0.99502
          0.995116
          0.994882
          0.994791
          0.994719
          0.994617
          0.994592
          0.995017
          0.994675
          0.995859
          0.995862
          0.995657
          0.995754
          0.995553
          0.995315
          0.995406
          0.995192
          0.994885
          0.995063
          0.994721
          0.994722
          0.994627
          0.994589
          0.995166
          0.994509
          0.995986
          0.995836
          0.995864
          0.995548
          0.995727
          0.99551
          0.995032
          0.99543
          0.995059
          0.994671
          0.995038
          0.994561
          0.994678
          0.994405
          0.995249
          0.994126
          0.995811
          0.995991
          0.9958
          0.995837
          0.995472
          0.995502
          0.995592
          0.994777
          0.995331
          0.994945
          0.994447
          0.994979
          0.994266
          0.994799
          0.995347
          0.994416
          0.996304
          0.995867
          0.995945
          0.995841
          0.99559
          0.995544
          0.99536
          0.995442
          0.994533
          0.995309
          0.994745
          0.994305
          0.995082
          0.993819
          0.995296
          0.99264
          0.995736
          0.99621
          0.995985
          0.995609
          0.996085
          0.995435
          0.995229
          0.99538
          0.995312
          0.994163
          0.995441
          0.994271
          0.993816
          0.995262
          0.995576
          0.995521
          0.996863
          0.996042
          0.995807
          0.996374
          0.995394
          0.995714
          0.995621
          0.994841
          0.995226
          0.995401
          0.993167
          0.995619
          0.994253
          0.992688
          0.995297
          0.987962
          0.995142
          0.996331
          0.996734
          0.995536
          0.996016
          0.995745
          0.995279
          0.995553
          0.994735
          0.99476
          0.995316
          0.993379
          0.994929
          0.995484
          0.995538
          0.993443
          0.99809
          0.996102
          0.996032
          0.996126
          0.996042
          0.995549
          0.995695
          0.99508
          0.995387
          0.994154
          0.994989
          0.994618
          0.992107
          0.990017
          0.997118
          0.974088
          0.994766
          0.997115
          0.995874
          0.996747
          0.995366
          0.996243
          0.995191
          0.995615
          0.99458
          0.995268
          0.993377
          0.994783
          0.990812
          1.00109
          0.999389
          0.941913
          0.98706
          0.99333
          0.996619
          0.996118
          0.996281
          0.995747
          0.995683
          0.994982
          0.994952
          0.993932
          0.994735
          0.991939
          0.997315
          0.990886
          1.01523
        </DataArray>
        <DataArray type="Float32" Name="ux" format="ascii">
          0
          0
          0
          0
          0
          0
          0
          0
          0
          0
          0
          0
          0
          0
          0
          0
          0
          -0.000663852
          -0.000445753
          -0.000116169
          0.000369053
          0.000412756
          0.000569444
          0.000733071
          0.000661561
          0.000512807
          0.000291948
          0.000264611
          -0.000561866
          -0.000413488
          -0.000432673
          0
          0
          9.54305e-05
          0.000621191
          0.000228222
          0.000494255
          0.000953746
          0.000804205
          0.000847793
          0.000919121
          0.000726013
          0.000871134
          0.000199155
          0.000142054
          0.000820461
          -0.000195825
          0
          0
          -0.000895435
          -0.000331239
          4.80696e-05
          -0.000143719
          2.1053e-05
          0.000620353
          0.000194743
          0.000143699
          0.000485729
          -0.000250529
          -0.000222861
          -0.000182089
          -0.000845332
          -0.00139648
          0
          0
          -0.000422322
          -0.000128737
          -5.00511e-05
          0.000609088
          0.000138201
          0.000243443
          0.000854807
          0.000615557
          0.000149647
          0.000486184
          0.000526558
          -0.000241972
          0.000272312
          -0.000470146
          0
          0
          -0.000635852
          2.46321e-05
          -0.000516116
          2.60096e-05
          0.000489057
          -0.000194566
          0.000191638
          0.000557279
          3.64437e-06
          0.000229788
          -0.000164657
          -0.000387751
          0.000114077
          -0.00115577
          0
          0
          -0.00108577
          -0.000357859
          -0.000263158
          -0.000582607
          -0.000228028
          0.000933498
          -0.000609321
          -0.000244659
          0.00110889
          -0.00042525
          -0.000289566
          -0.00011196
          -0.000223509
          -0.00128342
          0
          0
          -0.000817623
          -0.000279499
          -0.000411615
          0.000247833
          -0.000310606
          -0.000143086
          0.000995833
          -7.31264e-05
          -0.000300836
          0.00103029
          6.04635e-07
          -0.000357203
          0.000476851
          -0.00130369
          0
          0
          -0.00180885
          -0.000956851
          -0.00141202
          -0.000495283
          -0.000509911
          -0.00149088
          -5.8703e-05
          0.000816171
          -0.00134457
          -0.000417617
          0.000659737
          -0.000949919
          -0.00028554
          -0.00196251
          0
          0
          -0.000279962
          0.000174891
          -8.66103e-06
          -0.000284463
          -0.000211095
          0.00181503
          -0.000820804
          0.00039225
          0.00322158
          -0.000660326
          0.000733005
          0.00214977
          0.00140659
          -0.000220288
          0
          0
          -0.00406165
          -0.00247969
          -0.00307457
          -0.00273937
          -0.00140033
          -0.00233806
          -0.000942927
          -0.00254451
          -0.00210945
          0.00131331
          -0.00403803
          -0.00169072
          0.000145561
          -0.00601978
          0
          0
          0.00187174
          0.00120599
          3.20059e-05
          0.00307369
          0.000678413
          0.00121384
          0.00255864
          0.00375579
          0.00160726
          0.00332722
          0.00949515
          0.00243052
          0.00701889
          0.00748157
          0
          0
          -0.00875407
          -0.00704896
          -0.00430187
          -0.00710973
          -0.00626432
          -0.00480739
          -0.00611961
          -0.00515027
          -0.0032632
          -0.0077066
          -0.00692419
          -0.00105912
          -0.0141247
          -0.0180212
          0
          0
          0.00537967
          0.00977794
          0.00359571
          0.00612977
          0.00692157
          0.00577226
          0.00697254
          0.00692755
          0.00707377
          0.0106117
          0.0063182
          0.0087496
          0.0189255
          0.00814442
          0
          0
          -0.0154917
          -0.019415
          -0.0172336
          -0.0168377
          -0.0187508
          -0.0180258
          -0.0197781
          -0.0208439
          -0.0220308
          -0.023924
          -0.0211472
          -0.0281128
          -0.0251651
          -0.0136026
          0
          0.0256
          0.0256
          0.0256
          0.0256
          0.0256
          0.0256
          0.0256
          0.0256
          0.0256
          0.0256
          0.0256
          0.0256
          0.0256
          0.0256
          0.0256
          0.0256
        </DataArray>
        <DataArray type="Float32" Name="uy" format="ascii">
          0
          0
          0
          0
          0
          0
          0
          0
          0
          0
          0
          0
          0
          0
          0
          0
          0
          0.000210051
          -0.000363512
          0.000439589
          -0.000361193
          0.000400342
          -0.000649676
          -0.000169556
          -0.000801603
          -0.000511822
          -0.00120239
          -0.000545506
          -0.00159697
          0.000544514
          -0.00131111
          0
          0
          0.000365886
          -0.000110889
          0.000639823
          -0.000661898
          0.000628897
          -0.000560344
          -0.000319298
          -0.000583089
          -0.000472213
          -0.00138882
          7.20733e-05
          -0.00209939
          0.000123456
          -0.00135783
          0
          0
          0.000538425
          -0.000411308
          0.00115033
          -0.000668993
          0.000255873
          -0.000233865
          -6.26175e-05
          -0.000716631
          -0.0003709
          -0.000887468
          0.000257345
          -0.00262764
          0.00115759
          -0.0018285
          0
          0
          0.000995169
          -0.00060997
          0.000957528
          -0.000220726
          0.000303027
          -0.000700885
          0.000410584
          -0.000820537
          -0.000227755
          -0.000796069
          -2.65053e-05
          -0.00226202
          0.00128725
          -0.00226246
          0
          0
          0.00100051
          -0.000393521
          0.00106515
          -0.000839457
          0.00115736
          -0.000653158
          -0.000566217
          0.000243361
          -0.000225797
          -0.00148438
          0.00109001
          -0.0029513
          0.00162917
          -0.00215323
          0
          0
          0.00125932
          -0.000712194
          0.00172345
          -0.0010219
          0.00058805
          -8.53233e-05
          1.56941e-05
          -0.00104584
          0.000381907
          -0.000965516
          0.000759811
          -0.00328333
          0.00229704
          -0.00248796
          0
          0
          0.00138066
          -0.00088372
          0.00155281
          -0.000388448
          1.63606e-05
          -0.000543799
          0.00112933
          -0.00141738
          -0.000484689
          0.000167115
          0.000618785
          -0.0036886
          0.00309275
          -0.00253621
          0
          0
          0.00189517
          -0.0012292
          0.00202659
          -0.0015424
          0.00174316
          -0.00112094
          -0.000875374
          0.00105384
          -0.000673503
          -0.00222486
          0.00318391
          -0.00525725
          0.00427853
          -0.00288837
          0
          0
          0.00154297
          -0.000846384
          0.00152055
          -0.000968122
          0.000957743
          -0.00091639
          -0.000175982
          -0.00164529
          0.00174188
          -0.00197508
          0.000486863
          -0.00280766
          0.00354255
          -0.00164341
          0
          0
          0.00272072
          -0.00214292
          0.00303148
          -0.00129491
          -0.00036288
          -0.000319079
          0.000609261
          -0.00218667
          -0.00121555
          0.00153469
          0.000645879
          -0.00817084
          0.00962878
          -0.00390773
          0
          0
          0.00182922
          -0.0011086
          0.00255023
          -0.00346969
          0.00212234
          -0.00196185
          -0.000438939
          -0.000270089
          -0.00135146
          -0.00333108
          0.00613003
          -0.00956096
          0.00682687
          0.0021752
          0
          0
          0.00416869
          -0.00144863
          0.000722299
          -0.000514049
          0.000598633
          -0.00191147
          -0.00100917
          -0.0021447
          0.000227595
          -0.00389513
          -0.00153234
          -0.00252257
          0.00797448
          -0.00252124
          0
          0
          0.00167732
          -0.00446085
          0.00470877
          -0.00316261
          0.000795082
          -0.00199441
          -0.000749797
          -0.0025639
          -0.000272342
          -0.000649648
          0.000629802
          -0.0102281
          0.0249725
          -0.00503612
          0
          0
          0.00075033
          -0.00100316
          0.00472881
          -0.00421258
          0.00221812
          -0.00257502
          -0.000540539
          -0.00271758
          -0.00115929
          -0.00414985
          0.00293985
          -0.0143642
          0.0130875
          -0.00207528
          0
          0
          0
          0
          0
          0
          0
          0
          0
          0
          0
          0
          0
          0
          0
          0
          0
        </DataArray>
        <DataArray type="Float32" Name="velocity" NumberOfComponents="3" format="ascii">
          0 0 0
          0 0 0
          0 0 0
          0 0 0
          0 0 0
          0 0 0
          0 0 0
          0 0 0
          0 0 0
          0 0 0
          0 0 0
          0 0 0
          0 0 0
          0 0 0
          0 0 0
          0 0 0
          0 0 0
          -0.000663852 0.000210051 0
          -0.000445753 -0.000363512 0
          -0.000116169 0.000439589 0
          0.000369053 -0.000361193 0
          0.000412756 0.000400342 0
          0.000569444 -0.000649676 0
          0.000733071 -0.000169556 0
          0.000661561 -0.000801603 0
          0.000512807 -0.000511822 0
          0.000291948 -0.00120239 0
          0.000264611 -0.000545506 0
          -0.000561866 -0.00159697 0
          -0.000413488 0.000544514 0
          -0.000432673 -0.00131111 0
          0 0 0
          0 0 0
          9.54305e-05 0.000365886 0
          0.000621191 -0.000110889 0
          0.000228222 0.000639823 0
          0.000494255 -0.000661898 0
          0.000953746 0.000628897 0
          0.000804205 -0.000560344 0
          0.000847793 -0.000319298 0
          0.000919121 -0.000583089 0
          0.000726013 -0.000472213 0
          0.000871134 -0.00138882 0
          0.000199155 7.20733e-05 0
          0.000142054 -0.00209939 0
          0.000820461 0.000123456 0
          -0.000195825 -0.00135783 0
          0 0 0
          0 0 0
          -0.000895435 0.000538425 0
          -0.000331239 -0.000411308 0
          4.80696e-05 0.00115033 0
          -0.000143719 -0.000668993 0
          2.1053e-05 0.000255873 0
          0.000620353 -0.000233865 0
          0.000194743 -6.26175e-05 0
          0.000143699 -0.000716631 0
          0.000485729 -0.0003709 0
          -0.000250529 -0.000887468 0
          -0.000222861 0.000257345 0
          -0.000182089 -0.00262764 0
          -0.000845332 0.00115759 0
          -0.00139648 -0.0018285 0
          0 0 0
          0 0 0
          -0.000422322 0.000995169 0
          -0.000128737 -0.00060997 0
          -5.00511e-05 0.000957528 0
          0.000609088 -0.000220726 0
          0.000138201 0.000303027 0
          0.000243443 -0.000700885 0
          0.000854807 0.000410584 0
          0.000615557 -0.000820537 0
          0.000149647 -0.000227755 0
          0.000486184 -0.000796069 0
          0.000526558 -2.65053e-05 0
          -0.000241972 -0.00226202 0
          0.000272312 0.00128725 0
          -0.000470146 -0.00226246 0
          0 0 0
          0 0 0
          -0.000635852 0.00100051 0
          2.46321e-05 -0.000393521 0
          -0.000516116 0.00106515 0
          2.60096e-05 -0.000839457 0
          0.000489057 0.00115736 0
          -0.000194566 -0.000653158 0
          0.000191638 -0.000566217 0
          0.000557279 0.000243361 0
          3.64437e-06 -0.000225797 0
          0.000229788 -0.00148438 0
          -0.000164657 0.00109001 0
          -0.000387751 -0.0029513 0
          0.000114077 0.00162917 0
          -0.00115577 -0.00215323 0
          0 0 0
          0 0 0
          -0.00108577 0.00125932 0
          -0.000357859 -0.000712194 0
          -0.000263158 0.00172345 0
          -0.000582607 -0.0010219 0
          -0.000228028 0.00058805 0
          0.000933498 -8.53233e-05 0
          -0.000609321 1.56941e-05 0
          -0.000244659 -0.00104584 0
          0.00110889 0.000381907 0
          -0.00042525 -0.000965516 0
          -0.000289566 0.000759811 0
          -0.00011196 -0.00328333 0
          -0.000223509 0.00229704 0
          -0.00128342 -0.00248796 0
          0 0 0
          0 0 0
          -0.000817623 0.00138066 0
          -0.000279499 -0.00088372 0
          -0.000411615 0.00155281 0
          0.000247833 -0.000388448 0
          -0.000310606 1.63606e-05 0
          -0.000143086 -0.000543799 0
          0.000995833 0.00112933 0
          -7.31264e-05 -0.00141738 0
          -0.000300836 -0.000484689 0
          0.00103029 0.000167115 0
          6.04635e-07 0.000618785 0
          -0.000357203 -0.0036886 0
          0.000476851 0.00309275 0
          -0.00130369 -0.00253621 0
          0 0 0
          0 0 0
          -0.00180885 0.00189517 0
          -0.000956851 -0.0012292 0
          -0.00141202 0.00202659 0
          -0.000495283 -0.0015424 0
          -0.000509911 0.00174316 0
          -0.00149088 -0.00112094 0
          -5.8703e-05 -0.000875374 0
          0.000816171 0.00105384 0
          -0.00134457 -0.000673503 0
          -0.000417617 -0.00222486 0
          0.000659737 0.00318391 0
          -0.000949919 -0.00525725 0
          -0.00028554 0.00427853 0
          -0.00196251 -0.00288837 0
          0 0 0
          0 0 0
          -0.000279962 0.00154297 0
          0.000174891 -0.000846384 0
          -8.66103e-06 0.00152055 0
          -0.000284463 -0.000968122 0
          -0.000211095 0.000957743 0
          0.00181503 -0.00091639 0
          -0.000820804 -0.000175982 0
          0.00039225 -0.00164529 0
          0.00322158 0.00174188 0
          -0.000660326 -0.00197508 0
          0.000733005 0.000486863 0
          0.00214977 -0.00280766 0
          0.00140659 0.00354255 0
          -0.000220288 -0.00164341 0
          0 0 0
          0 0 0
          -0.00406165 0.00272072 0
          -0.00247969 -0.00214292 0
          -0.00307457 0.00303148 0
          -0.00273937 -0.00129491 0
          -0.00140033 -0.00036288 0
          -0.00233806 -0.000319079 0
          -0.000942927 0.000609261 0
          -0.00254451 -0.00218667 0
          -0.00210945 -0.00121555 0
          0.00131331 0.00153469 0
          -0.00403803 0.000645879 0
          -0.00169072 -0.00817084 0
          0.000145561 0.00962878 0
          -0.00601978 -0.00390773 0
          0 0 0
          0 0 0
          0.00187174 0.00182922 0
          0.00120599 -0.0011086 0
          3.20059e-05 0.00255023 0
          0.00307369 -0.00346969 0
          0.000678413 0.00212234 0
          0.00121384 -0.00196185 0
          0.00255864 -0.000438939 0
          0.00375579 -0.000270089 0
          0.00160726 -0.00135146 0
          0.00332722 -0.00333108 0
          0.00949515 0.00613003 0
          0.00243052 -0.00956096 0
          0.00701889 0.00682687 0
          0.00748157 0.0021752 0
          0 0 0
          0 0 0
          -0.00875407 0.00416869 0
          -0.00704896 -0.00144863 0
          -0.00430187 0.000722299 0
          -0.00710973 -0.000514049 0
          -0.00626432 0.000598633 0
          -0.00480739 -0.00191147 0
          -0.00611961 -0.00100917 0
          -0.00515027 -0.0021447 0
          -0.0032632 0.000227595 0
          -0.0077066 -0.00389513 0
          -0.00692419 -0.00153234 0
          -0.00105912 -0.00252257 0
          -0.0141247 0.00797448 0
          -0.0180212 -0.00252124 0
          0 0 0
          0 0 0
          0.00537967 0.00167732 0
          0.00977794 -0.00446085 0
          0.00359571 0.00470877 0
          0.00612977 -0.00316261 0
          0.00692157 0.000795082 0
          0.00577226 -0.00199441 0
          0.00697254 -0.000749797 0
          0.00692755 -0.0025639 0
          0.00707377 -0.000272342 0
          0.0106117 -0.000649648 0
          0.0063182 0.000629802 0
          0.0087496 -0.0102281 0
          0.0189255 0.0249725 0
          0.00814442 -0.00503612 0
          0 0 0
          0 0 0
          -0.0154917 0.00075033 0
          -0.019415 -0.00100316 0
          -0.0172336 0.00472881 0
          -0.0168377 -0.00421258 0
          -0.0187508 0.00221812 0
          -0.0180258 -0.00257502 0
          -0.0197781 -0.000540539 0
          -0.0208439 -0.00271758 0
          -0.0220308 -0.00115929 0
          -0.023924 -0.00414985 0
          -0.0211472 0.00293985 0
          -0.0281128 -0.0143642 0
          -0.0251651 0.0130875 0
          -0.0136026 -0.00207528 0
          0 0 0
          0.0256 0 0
          0.0256 0 0
          0.0256 0 0
          0.0256 0 0
          0.0256 0 0
          0.0256 0 0
          0.0256 0 0
          0.0256 0 0
          0.0256 0 0
          0.0256 0 0
          0.0256 0 0
          0.0256 0 0
          0.0256 0 0
          0.0256 0 0
          0.0256 0 0
          0.0256 0 0
        </DataArray>
      </PointData>
      <CellData>
      </CellData>
    </Piece>
  </ImageData>
</VTKFile>
