<?xml version="1.0"?>
<VTKFile type="ImageData" version="0.1" byte_order="LittleEndian">
  <ImageData WholeExtent="0 15 0 15 0 0" Origin="0 0 0" Spacing="1 1 1">
    <Piece Extent="0 15 0 15 0 0">
      <PointData>
        <DataArray type="Float32" Name="rho" format="ascii">
          0.976807
          0.970223
          0.95701
          0.952945
          0.948481
          0.943239
          0.932644
          0.919286
          0.893211
          0.855643
          0.863707
          0.733023
          0.77462
          0.829954
          0.933203
          0.971954
          0.981606
          0.984435
          0.983633
          0.98182
          0.979585
          0.97727
          0.973503
          0.969824
          0.963012
          0.959214
          0.948174
          0.941325
          0.935044
          0.937027
          0.94075
          0.957093
          0.984662
          0.985002
          0.984358
          0.982879
          0.981122
          0.978188
          0.975702
          0.971453
          0.967533
          0.963012
          0.956838
          0.953806
          0.95072
          0.95056
          0.950247
          0.958249
          0.987354
          0.986631
          0.985887
          0.984411
          0.982562
          0.980424
          0.977294
          0.974509
          0.971022
          0.96694
          0.964178
          0.960405
          0.958845
          0.957822
          0.95771
          0.961492
          0.989388
          0.988886
          0.987894
          0.986691
          0.984529
          0.982528
          0.979931
          0.977068
          0.974176
          0.970881
          0.968348
          0.965576
          0.963475
          0.962434
          0.96256
          0.962173
          0.996347
          0.991451
          0.990701
          0.989076
          0.987409
          0.984812
          0.982636
          0.979798
          0.976729
          0.974629
          0.971046
          0.969024
          0.966136
          0.965236
          0.962333
          0.965533
          0.994557
          0.99562
          0.994291
          0.992311
          0.99005
          0.988084
          0.984751
          0.982866
          0.979946
          0.976831
          0.974516
          0.970321
          0.968704
          0.964664
          0.967036
          0.958815
          1.01585
          0.998806
          0.998226
          0.996274
          0.993256
          0.990374
          0.988545
          0.985058
          0.983394
          0.979146
          0.976095
          0.973025
          0.966623
          0.966402
          0.95419
          0.966372
          0.993002
          1.00633
          1.00354
          0.99976
          0.996877
          0.993951
          0.991207
          0.989585
          0.984768
          0.985156
          0.978784
          0.975767
          0.969238
          0.958596
          0.967873
          0.940206
          1.06386
          1.0084
          1.0079
          1.00544
          1.00031
          0.997642
          0.994004
          0.991981
          0.991367
          0.983797
          0.988207
          0.969438
          0.970338
          0.951479
          0.91483
          0.973659
          0.979649
          1.01981
          1.01367
          1.00585
          1.00307
          0.998522
          0.99828
          0.996016
          0.9954
          0.995205
          0.987997
          0.994454
          0.978435
          0.94869
          0.935573
          0.902397
          1.16783
          1.02105
          1.01236
          1.00332
          0.999857
          1.00217
          1.00183
          1.00336
          0.997605
          1.00937
          0.999582
          0.971698
          1.00746
          0.842867
          0.82451
          1.01777
          1.02609
          1.04548
          1.01483
          0.996601
          1.00437
          1.00568
          1.00708
          1.00685
          1.01036
          0.999835
          1.022
          1.0192
          1.02044
          0.906377
          0.830557
          0.850914
          1.53093
          1.08184
          1.03593
          1.01617
          1.01055
          1.01079
          1.01579
          1.02114
          1.03405
          0.999633
          1.01377
          1.13243
          0.854743
          0.551288
          0.731387
          1.04827
          0.946128
          1.09444
          1.05253
          1.02732
          1.01893
          1.01614
          1.01815
          1.02053
          1.01805
          0.998266
          1.02784
          1.06103
          0.814907
          0.736585
          1.0055
          0.667612
          0.984883
          1.0567
          1.04197
          1.02683
          1.01253
          1.01023
          1.00638
          1.00541
          0.992844
          0.980971
          1.02322
          0.907459
          1.00947
          0.845589
          1.03413
          0.546912
        </DataArray>
        <DataArray type="Float32" Name="ux" format="ascii">
          0
          0
          0
          0
          0
          0
          0
          0
          0
          0
          0
          0
          0
          0
          0
          0
          0
          0.00336935
          0.00873039
          0.0110741
          0.0148353
          0.0178065
          0.020759
          0.0224373
          0.0241702
          0.0197741
          0.0183192
          0.00875053
          -0.0136261
          -0.0235104
          -0.0165883
          0
          0
          0.00241212
          0.00674642
          0.0106411
          0.0132167
          0.0160556
          0.0177837
          0.0188198
          0.018585
          0.0161269
          0.0126103
          0.00438311
          -0.00565314
          -0.00943421
          -0.00578829
          0
          0
          0.0024441
          0.0067855
          0.0104945
          0.0133944
          0.0150378
          0.0171651
          0.0171343
          0.0168711
          0.0147691
          0.0106606
          0.00674585
          0.00201127
          0.000338938
          -0.000744412
          0
          0
          0.00448351
          0.0087136
          0.011345
          0.0151602
          0.0166582
          0.0181736
          0.0187648
          0.0175615
          0.0154774
          0.0127513
          0.0103243
          0.0057181
          0.0015
          -0.000226083
          0
          0
          0.00379962
          0.00966208
          0.0137865
          0.0160401
          0.0195431
          0.0202864
          0.0195865
          0.0202818
          0.0188655
          0.018466
          0.0156151
          0.011471
          0.0104553
          0.00651174
          0
          0
          0.00632841
          0.0128574
          0.0176792
          0.0207666
          0.0202765
          0.0221276
          0.0202781
          0.0214706
          0.0213993
          0.0173294
          0.0145512
          0.0110396
          0.00394091
          -0.00136201
          0
          0
          0.00765659
          0.0165172
          0.0224459
          0.0250152
          0.0254324
          0.0259082
          0.0301588
          0.0301634
          0.0308534
          0.0320438
          0.0346976
          0.0317096
          0.0321587
          0.0275941
          0
          0
          0.0107504
          0.0230013
          0.0270727
          0.0265224
          0.0287068
          0.0299826
          0.0256949
          0.0260925
          0.0180191
          0.0208365
          0.0121906
          0.00692965
          -0.0137466
          -0.0275077
          0
          0
          0.0161904
          0.0332052
          0.0455025
          0.045094
          0.0413326
          0.0407083
          0.0376055
          0.0404747
          0.0511118
          0.0509174
          0.0756577
          0.0712002
          0.104666
          0.100291
          0
          0
          0.0264285
          0.0608223
          0.0672959
          0.0549942
          0.0381389
          0.0203657
          0.0209762
          0.0177629
          0.0121177
          0.0195907
          -0.0163823
          -0.0132249
          -0.0729575
          -0.113639
          0
          0
          0.0364197
          0.0602254
          0.0695066
          0.0564666
          0.0477521
          0.0463436
          0.0453234
          0.0564388
          0.0559779
          0.0784047
          0.107107
          0.0989588
          0.2575
          0.232323
          0
          0
          0.020139
          0.0140393
          -0.00268753
          0.0108098
          0.0313438
          0.0320968
          0.0343017
          0.0208776
          0.0234292
          -0.035204
          -0.0733388
          -0.0746902
          -0.207094
          -0.187211
          0
          0
          0.00620181
          -0.0891905
          -0.106105
          -0.104623
          -0.0967894
          -0.0871095
          -0.0787135
          -0.0769172
          -0.0279937
          -0.0273892
          -0.0553298
          0.239757
          0.437073
          0.317009
          0
          0
          -0.092794
          -0.174157
          -0.224623
          -0.265783
          -0.287727
          -0.317841
          -0.332884
          -0.366303
          -0.406811
          -0.388443
          -0.389484
          -0.527199
          -0.56794
          0.0227362
          0
          0.0256
          0.0256
          0.0256
          0.0256
          0.0256
          0.0256
          0.0256
          0.0256
          0.0256
          0.0256
          0.0256
          0.0256
          0.0256
          0.0256
          0.0256
          0.0256
        </DataArray>
        <DataArray type="Float32" Name="uy" format="ascii">
          0
          0
          0
          0
          0
          0
          0
          0
          0
          0
          0
          0
          0
          0
          0
          0
          0
          -0.00997763
          -0.0107168
          -0.0114993
          -0.0132565
          -0.0122206
          -0.0161774
          -0.0164675
          -0.0238986
          -0.0269098
          -0.0325756
          -0.0431179
          -0.0422525
          -0.0165532
          0.000846608
          0
          0
          -0.0158491
          -0.0144148
          -0.0145664
          -0.015964
          -0.0147198
          -0.0167427
          -0.016972
          -0.0206595
          -0.0204823
          -0.0259853
          -0.021871
          -0.0228891
          -0.00856598
          -0.00362244
          0
          0
          -0.0194638
          -0.0191175
          -0.0177631
          -0.0176562
          -0.017067
          -0.0164995
          -0.0166922
          -0.0171363
          -0.0165248
          -0.016817
          -0.0123443
          -0.013399
          -0.00408221
          9.03987e-06
          0
          0
          -0.0248244
          -0.0226288
          -0.0213617
          -0.0204423
          -0.0174961
          -0.0185622
          -0.0144774
          -0.0156694
          -0.0113114
          -0.0120459
          -0.00633143
          -0.00653506
          0.000961216
          0.00335177
          0
          0
          -0.0303116
          -0.0270479
          -0.0242637
          -0.0234738
          -0.0197639
          -0.0175841
          -0.0151001
          -0.0121333
          -0.00939764
          -0.00829756
          -0.000721629
          0.000198236
          0.0051388
          0.0107799
          0
          0
          -0.0377191
          -0.0334594
          -0.0285874
          -0.0254687
          -0.0222919
          -0.0173524
          -0.0136162
          -0.0146796
          -0.00536624
          -0.00749497
          0.00576561
          0.00186346
          0.0130439
          0.0136548
          0
          0
          -0.0455777
          -0.0404888
          -0.0334001
          -0.0270409
          -0.0211975
          -0.0197021
          -0.0139639
          -0.0136995
          -0.00563127
          -0.000578503
          0.00356152
          0.0157222
          0.0118176
          0.035843
          0
          0
          -0.0603923
          -0.050279
          -0.0370978
          -0.0288352
          -0.0251594
          -0.0198441
          -0.0187542
          -0.0114225
          -0.00644072
          -0.00930826
          0.0129209
          0.00647306
          0.0355862
          0.0262265
          0
          0
          -0.0727656
          -0.0633583
          -0.0404254
          -0.0283354
          -0.0262545
          -0.0188134
          -0.0113046
          -0.0162804
          0.00117572
          -0.0102698
          0.0137524
          0.0322324
          0.0232063
          0.0921506
          0
          0
          -0.10708
          -0.0861927
          -0.0441272
          -0.0224467
          -0.0181427
          -0.0162134
          -0.02081
          -0.0172565
          -0.0235744
          -0.0128086
          -0.00745039
          -0.000360921
          0.0517466
          0.0731029
          0
          0
          -0.140267
          -0.109526
          -0.037808
          -0.00230953
          -0.00378121
          -0.00753938
          -0.020736
          -0.01291
          -0.0134305
          -0.0233984
          0.052387
          -0.00428256
          0.126592
          0.179876
          0
          0
          -0.169291
          -0.118555
          -0.0369679
          -0.014258
          -0.0120658
          -0.0176952
          -0.0273786
          -0.0351316
          -0.0268864
          -0.0347903
          -0.0477813
          -0.0310703
          -0.0266949
          0.240228
          0
          0
          -0.113823
          -0.0858401
          -0.0447691
          -0.0321828
          -0.0243118
          -0.0185678
          -0.0211419
          -0.0235939
          -0.0237486
          0.0747591
          -0.0649153
          0.0197587
          0.502788
          0.254117
          0
          0
          -0.0154357
          -0.0323998
          -0.0297275
          -0.0253238
          -0.0273432
          -0.0296341
          -0.0323454
          -0.0493634
          -0.0953481
          -0.00854151
          -0.171029
          -0.290886
          -0.0190443
          0.216099
          0
          0
          0
          0
          0
          0
          0
          0
          0
          0
          0
          0
          0
          0
          0
          0
          0
        </DataArray>
        <DataArray type="Float32" Name="velocity" NumberOfComponents="3" format="ascii">
          0 0 0
          0 0 0
          0 0 0
          0 0 0
          0 0 0
          0 0 0
          0 0 0
          0 0 0
          0 0 0
          0 0 0
          0 0 0
          0 0 0
          0 0 0
          0 0 0
          0 0 0
          0 0 0
          0 0 0
          0.00336935 -0.00997763 0
          0.00873039 -0.0107168 0
          0.0110741 -0.0114993 0
          0.0148353 -0.0132565 0
          0.0178065 -0.0122206 0
          0.020759 -0.0161774 0
          0.0224373 -0.0164675 0
          0.0241702 -0.0238986 0
          0.0197741 -0.0269098 0
          0.0183192 -0.0325756 0
          0.00875053 -0.0431179 0
          -0.0136261 -0.0422525 0
          -0.0235104 -0.0165532 0
          -0.0165883 0.000846608 0
          0 0 0
          0 0 0
          0.00241212 -0.0158491 0
          0.00674642 -0.0144148 0
          0.0106411 -0.0145664 0
          0.0132167 -0.015964 0
          0.0160556 -0.0147198 0
          0.0177837 -0.0167427 0
          0.0188198 -0.016972 0
          0.018585 -0.0206595 0
          0.0161269 -0.0204823 0
          0.0126103 -0.0259853 0
          0.00438311 -0.021871 0
          -0.00565314 -0.0228891 0
          -0.00943421 -0.00856598 0
          -0.00578829 -0.00362244 0
          0 0 0
          0 0 0
          0.0024441 -0.0194638 0
          0.0067855 -0.0191175 0
          0.0104945 -0.0177631 0
          0.0133944 -0.0176562 0
          0.0150378 -0.017067 0
          0.0171651 -0.0164995 0
          0.0171343 -0.0166922 0
          0.0168711 -0.0171363 0
          0.0147691 -0.0165248 0
          0.0106606 -0.016817 0
          0.00674585 -0.0123443 0
          0.00201127 -0.013399 0
          0.000338938 -0.00408221 0
          -0.000744412 9.03987e-06 0
          0 0 0
          0 0 0
          0.00448351 -0.0248244 0
          0.0087136 -0.0226288 0
          0.011345 -0.0213617 0
          0.0151602 -0.0204423 0
          0.0166582 -0.0174961 0
          0.0181736 -0.0185622 0
          0.0187648 -0.0144774 0
          0.0175615 -0.0156694 0
          0.0154774 -0.0113114 0
          0.0127513 -0.0120459 0
          0.0103243 -0.00633143 0
          0.0057181 -0.00653506 0
          0.0015 0.000961216 0
          -0.000226083 0.00335177 0
          0 0 0
          0 0 0
          0.00379962 -0.0303116 0
          0.00966208 -0.0270479 0
          0.0137865 -0.0242637 0
          0.0160401 -0.0234738 0
          0.0195431 -0.0197639 0
          0.0202864 -0.0175841 0
          0.0195865 -0.0151001 0
          0.0202818 -0.0121333 0
          0.0188655 -0.00939764 0
          0.018466 -0.00829756 0
          0.0156151 -0.000721629 0
          0.011471 0.000198236 0
          0.0104553 0.0051388 0
          0.00651174 0.0107799 0
          0 0 0
          0 0 0
          0.00632841 -0.0377191 0
          0.0128574 -0.0334594 0
          0.0176792 -0.0285874 0
          0.0207666 -0.0254687 0
          0.0202765 -0.0222919 0
          0.0221276 -0.0173524 0
          0.0202781 -0.0136162 0
          0.0214706 -0.0146796 0
          0.0213993 -0.00536624 0
          0.0173294 -0.00749497 0
          0.0145512 0.00576561 0
          0.0110396 0.00186346 0
          0.00394091 0.0130439 0
          -0.00136201 0.0136548 0
          0 0 0
          0 0 0
          0.00765659 -0.0455777 0
          0.0165172 -0.0404888 0
          0.0224459 -0.0334001 0
          0.0250152 -0.0270409 0
          0.0254324 -0.0211975 0
          0.0259082 -0.0197021 0
          0.0301588 -0.0139639 0
          0.0301634 -0.0136995 0
          0.0308534 -0.00563127 0
          0.0320438 -0.000578503 0
          0.0346976 0.00356152 0
          0.0317096 0.0157222 0
          0.0321587 0.0118176 0
          0.0275941 0.035843 0
          0 0 0
          0 0 0
          0.0107504 -0.0603923 0
          0.0230013 -0.050279 0
          0.0270727 -0.0370978 0
          0.0265224 -0.0288352 0
          0.0287068 -0.0251594 0
          0.0299826 -0.0198441 0
          0.0256949 -0.0187542 0
          0.0260925 -0.0114225 0
          0.0180191 -0.00644072 0
          0.0208365 -0.00930826 0
          0.0121906 0.0129209 0
          0.00692965 0.00647306 0
          -0.0137466 0.0355862 0
          -0.0275077 0.0262265 0
          0 0 0
          0 0 0
          0.0161904 -0.0727656 0
          0.0332052 -0.0633583 0
          0.0455025 -0.0404254 0
          0.045094 -0.0283354 0
          0.0413326 -0.0262545 0
          0.0407083 -0.0188134 0
          0.0376055 -0.0113046 0
          0.0404747 -0.0162804 0
          0.0511118 0.00117572 0
          0.0509174 -0.0102698 0
          0.0756577 0.0137524 0
          0.0712002 0.0322324 0
          0.104666 0.0232063 0
          0.100291 0.0921506 0
          0 0 0
          0 0 0
          0.0264285 -0.10708 0
          0.0608223 -0.0861927 0
          0.0672959 -0.0441272 0
          0.0549942 -0.0224467 0
          0.0381389 -0.0181427 0
          0.0203657 -0.0162134 0
          0.0209762 -0.02081 0
          0.0177629 -0.0172565 0
          0.0121177 -0.0235744 0
          0.0195907 -0.0128086 0
          -0.0163823 -0.00745039 0
          -0.0132249 -0.000360921 0
          -0.0729575 0.0517466 0
          -0.113639 0.0731029 0
          0 0 0
          0 0 0
          0.0364197 -0.140267 0
          0.0602254 -0.109526 0
          0.0695066 -0.037808 0
          0.0564666 -0.00230953 0
          0.0477521 -0.00378121 0
          0.0463436 -0.00753938 0
          0.0453234 -0.020736 0
          0.0564388 -0.01291 0
          0.0559779 -0.0134305 0
          0.0784047 -0.0233984 0
          0.107107 0.052387 0
          0.0989588 -0.00428256 0
          0.2575 0.126592 0
          0.232323 0.179876 0
          0 0 0
          0 0 0
          0.020139 -0.169291 0
          0.0140393 -0.118555 0
          -0.00268753 -0.0369679 0
          0.0108098 -0.014258 0
          0.0313438 -0.0120658 0
          0.0320968 -0.0176952 0
          0.0343017 -0.0273786 0
          0.0208776 -0.0351316 0
          0.0234292 -0.0268864 0
          -0.035204 -0.0347903 0
          -0.0733388 -0.0477813 0
          -0.0746902 -0.0310703 0
          -0.207094 -0.0266949 0
          -0.187211 0.240228 0
          0 0 0
          0 0 0
          0.00620181 -0.113823 0
          -0.0891905 -0.0858401 0
          -0.106105 -0.0447691 0
          -0.104623 -0.0321828 0
          -0.0967894 -0.0243118 0
          -0.0871095 -0.0185678 0
          -0.0787135 -0.0211419 0
          -0.0769172 -0.0235939 0
          -0.0279937 -0.0237486 0
          -0.0273892 0.0747591 0
          -0.0553298 -0.0649153 0
          0.239757 0.0197587 0
          0.437073 0.502788 0
          0.317009 0.254117 0
          0 0 0
          0 0 0
          -0.092794 -0.0154357 0
          -0.174157 -0.0323998 0
          -0.224623 -0.0297275 0
          -0.265783 -0.0253238 0
          -0.287727 -0.0273432 0
          -0.317841 -0.0296341 0
          -0.332884 -0.0323454 0
          -0.366303 -0.0493634 0
          -0.406811 -0.0953481 0
          -0.388443 -0.00854151 0
          -0.389484 -0.171029 0
          -0.527199 -0.290886 0
          -0.56794 -0.0190443 0
          0.0227362 0.216099 0
          0 0 0
          0.0256 0 0
          0.0256 0 0
          0.0256 0 0
          0.0256 0 0
          0.0256 0 0
          0.0256 0 0
          0.0256 0 0
          0.0256 0 0
          0.0256 0 0
          0.0256 0 0
          0.0256 0 0
          0.0256 0 0
          0.0256 0 0
          0.0256 0 0
          0.0256 0 0
          0.0256 0 0
        </DataArray>
      </PointData>
      <CellData>
      </CellData>
    </Piece>
  </ImageData>
</VTKFile>
