<?xml version="1.0"?>
<VTKFile type="ImageData" version="0.1" byte_order="LittleEndian">
  <ImageData WholeExtent="0 15 0 15 0 0" Origin="0 0 0" Spacing="1 1 1">
    <Piece Extent="0 15 0 15 0 0">
      <PointData>
        <DataArray type="Float32" Name="rho" format="ascii">
          0.995703
          0.99777
          0.995018
          0.99878
          0.996156
          0.997667
          0.996402
          0.996722
          0.995791
          0.996039
          0.994461
          0.996445
          0.990757
          1.00039
          0.990354
          0.996526
          0.99468
          0.995023
          0.995452
          0.995619
          0.996035
          0.996367
          0.996839
          0.997194
          0.997678
          0.997991
          0.998464
          0.998584
          0.999111
          0.998953
          0.999688
          0.998948
          0.994643
          0.99535
          0.99547
          0.995753
          0.996065
          0.996465
          0.996839
          0.997305
          0.997634
          0.998115
          0.998353
          0.99877
          0.998971
          0.999149
          0.99915
          0.999897
          0.994423
          0.995365
          0.995552
          0.995836
          0.99615
          0.996514
          0.996909
          0.997323
          0.997765
          0.998066
          0.998509
          0.998799
          0.998953
          0.999283
          0.999393
          0.999986
          0.994514
          0.995447
          0.995664
          0.995873
          0.996202
          0.996587
          0.996986
          0.997344
          0.997811
          0.998219
          0.998537
          0.998817
          0.999202
          0.999275
          0.999441
          1.00022
          0.994264
          0.995524
          0.995674
          0.995965
          0.996253
          0.996599
          0.997032
          0.99749
          0.9978
          0.998326
          0.99862
          0.998991
          0.999229
          0.999455
          0.999608
          1.00043
          0.994116
          0.995532
          0.995741
          0.995945
          0.996348
          0.996641
          0.997042
          0.997561
          0.997988
          0.998253
          0.998865
          0.99907
          0.999371
          0.999616
          0.999765
          1.00069
          0.9939
          0.995627
          0.995736
          0.996039
          0.996229
          0.996806
          0.997154
          0.99742
          0.998163
          0.998548
          0.99869
          0.999372
          0.999505
          0.999759
          0.999859
          1.00093
          0.993544
          0.995458
          0.995819
          0.995954
          0.99642
          0.996659
          0.997176
          0.997795
          0.997875
          0.998737
          0.999088
          0.999117
          0.999875
          0.99979
          1.00022
          1.00121
          0.993422
          0.995801
          0.995637
          0.996061
          0.996413
          0.996659
          0.997244
          0.99773
          0.998334
          0.998329
          0.99939
          0.999566
          0.99953
          1.0004
          0.999822
          1.00137
          0.992369
          0.995222
          0.995854
          0.996076
          0.996081
          0.997071
          0.997168
          0.997576
          0.99842
          0.998991
          0.998615
          1.00013
          0.999851
          0.999638
          1.00093
          1.00179
          0.993618
          0.996022
          0.995752
          0.995632
          0.996761
          0.996492
          0.997313
          0.997973
          0.998002
          0.998964
          0.999791
          0.998523
          1.00084
          1.00031
          0.999275
          1.00158
          0.988371
          0.994842
          0.995487
          0.99656
          0.995977
          0.996849
          0.997378
          0.997701
          0.998614
          0.998602
          0.999345
          1.00058
          0.99892
          1.00104
          1.00129
          1.00211
          0.992
          0.996568
          0.995583
          0.995716
          0.996296
          0.996945
          0.997141
          0.997976
          0.998279
          0.999349
          0.998899
          1.0001
          1.00079
          0.998578
          0.997472
          1.00427
          0.972233
          0.993507
          0.996519
          0.995263
          0.996891
          0.996291
          0.997649
          0.997655
          0.998744
          0.998613
          1.00017
          0.998766
          1.001
          0.997489
          1.00687
          1.00582
          0.937119
          0.985772
          0.992756
          0.99686
          0.996521
          0.997558
          0.997464
          0.998226
          0.998186
          0.999007
          0.998496
          1.00007
          0.99767
          1.00348
          0.99751
          1.02954
        </DataArray>
        <DataArray type="Float32" Name="ux" format="ascii">
          0
          0
          0
          0
          0
          0
          0
          0
          0
          0
          0
          0
          0
          0
          0
          0
          0
          -0.000432607
          -0.000609945
          -0.000630484
          -0.000400911
          -0.00051429
          -0.000413447
          -0.000371601
          -0.000371945
          -0.000335731
          -0.000490178
          -0.000132256
          -0.000762297
          -0.000423963
          2.18352e-05
          0
          0
          -0.000424302
          -0.000121482
          -0.000508557
          -0.000519457
          -0.000344666
          -0.00047769
          -0.000422964
          -0.000370993
          -0.000469314
          -0.000181717
          -0.000598063
          -0.00039762
          0.000240764
          -0.000633267
          0
          0
          -0.00079273
          -0.000680693
          -0.000675896
          -0.00077871
          -0.000881281
          -0.000640074
          -0.000842769
          -0.000884164
          -0.000602391
          -0.00100984
          -0.000745702
          -0.000664017
          -0.000946785
          -0.00108396
          0
          0
          -0.000673896
          -0.000525947
          -0.000816885
          -0.00059525
          -0.00082159
          -0.000879965
          -0.000669152
          -0.000710026
          -0.000942923
          -0.000637949
          -0.000466436
          -0.000923922
          -0.000272158
          -0.000671056
          0
          0
          -0.000938105
          -0.000607857
          -0.00106001
          -0.000907546
          -0.00087795
          -0.00114198
          -0.00100642
          -0.000886396
          -0.00106133
          -0.000957001
          -0.00100301
          -0.00102634
          -0.000552244
          -0.0012802
          0
          0
          -0.00119861
          -0.000849172
          -0.00106939
          -0.00121487
          -0.00125139
          -0.000791544
          -0.00140993
          -0.00131354
          -0.000642707
          -0.00129752
          -0.00116429
          -0.000973531
          -0.000725712
          -0.00141511
          0
          0
          -0.0011939
          -0.00074659
          -0.0012372
          -0.00103407
          -0.00123447
          -0.00126027
          -0.00088582
          -0.00131899
          -0.00139196
          -0.000640488
          -0.00105694
          -0.00132461
          -0.000425717
          -0.00154364
          0
          0
          -0.00189713
          -0.00138484
          -0.00188596
          -0.00137785
          -0.00153614
          -0.00207688
          -0.00141501
          -0.000985642
          -0.00206317
          -0.00168542
          -0.000783465
          -0.00166715
          -0.00119348
          -0.00220691
          0
          0
          -0.00116436
          -0.000745861
          -0.00106533
          -0.00126647
          -0.00156648
          -0.000552444
          -0.00179974
          -0.00132388
          0.000212667
          -0.00187405
          -0.00117967
          1.85234e-06
          -0.00017409
          -0.00166039
          0
          0
          -0.00379405
          -0.00251244
          -0.00310646
          -0.00338768
          -0.00251534
          -0.0029013
          -0.00234754
          -0.00315261
          -0.00276014
          -0.000769457
          -0.00385731
          -0.00292302
          -0.000853615
          -0.0046363
          0
          0
          0.000544177
          0.000335616
          -0.00141957
          0.000737123
          -0.000530274
          -0.00068849
          0.000241723
          0.000807996
          -0.00084913
          0.000185415
          0.00399341
          -0.000844088
          0.00228253
          0.00270122
          0
          0
          -0.00805255
          -0.00755488
          -0.00515712
          -0.00670831
          -0.00656549
          -0.00522256
          -0.00638872
          -0.0060494
          -0.00452742
          -0.00808007
          -0.00722932
          -0.00243059
          -0.0106788
          -0.0143842
          0
          0
          0.0011907
          0.00475179
          0.000698955
          0.0014195
          0.00254035
          0.00140821
          0.00231198
          0.00244679
          0.00260429
          0.00601621
          0.00288985
          0.00502764
          0.0153388
          0.006111
          0
          0
          -0.0116592
          -0.0124482
          -0.0103421
          -0.00788171
          -0.00869923
          -0.00736703
          -0.00783613
          -0.00839279
          -0.00916813
          -0.0116619
          -0.00989635
          -0.0174817
          -0.018482
          -0.012893
          0
          0.0256
          0.0256
          0.0256
          0.0256
          0.0256
          0.0256
          0.0256
          0.0256
          0.0256
          0.0256
          0.0256
          0.0256
          0.0256
          0.0256
          0.0256
          0.0256
        </DataArray>
        <DataArray type="Float32" Name="uy" format="ascii">
          0
          0
          0
          0
          0
          0
          0
          0
          0
          0
          0
          0
          0
          0
          0
          0
          0
          0.000591699
          0.000181755
          0.000526627
          0.000189875
          0.000248065
          -0.000138837
          -0.000238723
          -0.000514644
          -0.000711886
          -0.00096828
          -0.00118766
          -0.00142112
          -0.000829688
          -0.00190599
          0
          0
          0.000593353
          0.000180498
          0.000556983
          -0.000109736
          0.000266105
          -0.000234189
          -0.00036171
          -0.000507021
          -0.00066282
          -0.00118402
          -0.000710266
          -0.00169213
          -0.00104695
          -0.00172382
          0
          0
          0.000683368
          -0.000236279
          0.00081191
          -0.00030775
          0.000131604
          -0.000256654
          -0.000248946
          -0.000621656
          -0.000596063
          -0.000983566
          -0.000400833
          -0.00223669
          6.15934e-05
          -0.00203833
          0
          0
          0.000804863
          -0.00028348
          0.000611755
          -0.000147796
          4.54435e-05
          -0.000403447
          -0.000160508
          -0.000644058
          -0.000606789
          -0.0008803
          -0.000680803
          -0.00175983
          -5.65369e-05
          -0.00213415
          0
          0
          0.000865472
          -0.000377085
          0.000812804
          -0.000569189
          0.000431874
          -0.000449447
          -0.000522073
          -0.00028302
          -0.000452844
          -0.00141431
          0.000124716
          -0.00225639
          0.000279048
          -0.00213423
          0
          0
          0.00111318
          -0.0005687
          0.00108428
          -0.000590884
          0.000247838
          -0.000325902
          -0.000243046
          -0.000808452
          -0.000264098
          -0.00105204
          -0.000112968
          -0.00251526
          0.000823758
          -0.00251603
          0
          0
          0.00132316
          -0.000727017
          0.00124628
          -0.000390039
          2.68127e-05
          -0.000456659
          0.000225928
          -0.000928997
          -0.000742842
          -0.000575656
          2.82871e-05
          -0.00301944
          0.00137256
          -0.00274857
          0
          0
          0.00187642
          -0.000942105
          0.00182555
          -0.00107924
          0.000932966
          -0.000616259
          -0.000642336
          0.000107084
          -0.000626073
          -0.00205124
          0.00140627
          -0.00386893
          0.00197821
          -0.00332441
          0
          0
          0.00199733
          -0.000647644
          0.00156228
          -0.000594281
          0.000771666
          -0.000582706
          -0.000246714
          -0.00115471
          0.000556447
          -0.00172944
          -0.000396012
          -0.00276541
          0.0021188
          -0.00344316
          0
          0
          0.00346771
          -0.00175285
          0.00300961
          -0.000471828
          0.000108306
          -0.000220782
          0.000314426
          -0.00145113
          -0.00116043
          0.00015348
          6.55548e-05
          -0.00672051
          0.0058842
          -0.00539096
          0
          0
          0.00308625
          -0.000887042
          0.00359539
          -0.00205159
          0.00171747
          -0.00095365
          -0.00033323
          -0.000335927
          -0.00103657
          -0.00319748
          0.00378133
          -0.00744091
          0.0032042
          -0.00234403
          0
          0
          0.00540137
          -0.000264767
          0.00218922
          9.03254e-05
          0.00102105
          -0.000754653
          -0.000325747
          -0.00124757
          5.43871e-05
          -0.00292725
          -0.00180797
          -0.00334146
          0.00500773
          -0.00757367
          0
          0
          0.00638127
          -0.00364639
          0.00561003
          -0.00155275
          0.00111643
          -0.000718278
          9.62645e-05
          -0.00174665
          -0.000419469
          -0.00143152
          4.09426e-05
          -0.0117
          0.0167789
          -0.00854176
          0
          0
          0.00581942
          -0.00127249
          0.00592355
          -0.00239497
          0.00216081
          -0.00103526
          -0.000144481
          -0.00180225
          -0.00118521
          -0.00412106
          0.00198754
          -0.0143526
          0.00804829
          -0.00619612
          0
          0
          0
          0
          0
          0
          0
          0
          0
          0
          0
          0
          0
          0
          0
          0
          0
        </DataArray>
        <DataArray type="Float32" Name="velocity" NumberOfComponents="3" format="ascii">
          0 0 0
          0 0 0
          0 0 0
          0 0 0
          0 0 0
          0 0 0
          0 0 0
          0 0 0
          0 0 0
          0 0 0
          0 0 0
          0 0 0
          0 0 0
          0 0 0
          0 0 0
          0 0 0
          0 0 0
          -0.000432607 0.000591699 0
          -0.000609945 0.000181755 0
          -0.000630484 0.000526627 0
          -0.000400911 0.000189875 0
          -0.00051429 0.000248065 0
          -0.000413447 -0.000138837 0
          -0.000371601 -0.000238723 0
          -0.000371945 -0.000514644 0
          -0.000335731 -0.000711886 0
          -0.000490178 -0.00096828 0
          -0.000132256 -0.00118766 0
          -0.000762297 -0.00142112 0
          -0.000423963 -0.000829688 0
          2.18352e-05 -0.00190599 0
          0 0 0
          0 0 0
          -0.000424302 0.000593353 0
          -0.000121482 0.000180498 0
          -0.000508557 0.000556983 0
          -0.000519457 -0.000109736 0
          -0.000344666 0.000266105 0
          -0.00047769 -0.000234189 0
          -0.000422964 -0.00036171 0
          -0.000370993 -0.000507021 0
          -0.000469314 -0.00066282 0
          -0.000181717 -0.00118402 0
          -0.000598063 -0.000710266 0
          -0.00039762 -0.00169213 0
          0.000240764 -0.00104695 0
          -0.000633267 -0.00172382 0
          0 0 0
          0 0 0
          -0.00079273 0.000683368 0
          -0.000680693 -0.000236279 0
          -0.000675896 0.00081191 0
          -0.00077871 -0.00030775 0
          -0.000881281 0.000131604 0
          -0.000640074 -0.000256654 0
          -0.000842769 -0.000248946 0
          -0.000884164 -0.000621656 0
          -0.000602391 -0.000596063 0
          -0.00100984 -0.000983566 0
          -0.000745702 -0.000400833 0
          -0.000664017 -0.00223669 0
          -0.000946785 6.15934e-05 0
          -0.00108396 -0.00203833 0
          0 0 0
          0 0 0
          -0.000673896 0.000804863 0
          -0.000525947 -0.00028348 0
          -0.000816885 0.000611755 0
          -0.00059525 -0.000147796 0
          -0.00082159 4.54435e-05 0
          -0.000879965 -0.000403447 0
          -0.000669152 -0.000160508 0
          -0.000710026 -0.000644058 0
          -0.000942923 -0.000606789 0
          -0.000637949 -0.0008803 0
          -0.000466436 -0.000680803 0
          -0.000923922 -0.00175983 0
          -0.000272158 -5.65369e-05 0
          -0.000671056 -0.00213415 0
          0 0 0
          0 0 0
          -0.000938105 0.000865472 0
          -0.000607857 -0.000377085 0
          -0.00106001 0.000812804 0
          -0.000907546 -0.000569189 0
          -0.00087795 0.000431874 0
          -0.00114198 -0.000449447 0
          -0.00100642 -0.000522073 0
          -0.000886396 -0.00028302 0
          -0.00106133 -0.000452844 0
          -0.000957001 -0.00141431 0
          -0.00100301 0.000124716 0
          -0.00102634 -0.00225639 0
          -0.000552244 0.000279048 0
          -0.0012802 -0.00213423 0
          0 0 0
          0 0 0
          -0.00119861 0.00111318 0
          -0.000849172 -0.0005687 0
          -0.00106939 0.00108428 0
          -0.00121487 -0.000590884 0
          -0.00125139 0.000247838 0
          -0.000791544 -0.000325902 0
          -0.00140993 -0.000243046 0
          -0.00131354 -0.000808452 0
          -0.000642707 -0.000264098 0
          -0.00129752 -0.00105204 0
          -0.00116429 -0.000112968 0
          -0.000973531 -0.00251526 0
          -0.000725712 0.000823758 0
          -0.00141511 -0.00251603 0
          0 0 0
          0 0 0
          -0.0011939 0.00132316 0
          -0.00074659 -0.000727017 0
          -0.0012372 0.00124628 0
          -0.00103407 -0.000390039 0
          -0.00123447 2.68127e-05 0
          -0.00126027 -0.000456659 0
          -0.00088582 0.000225928 0
          -0.00131899 -0.000928997 0
          -0.00139196 -0.000742842 0
          -0.000640488 -0.000575656 0
          -0.00105694 2.82871e-05 0
          -0.00132461 -0.00301944 0
          -0.000425717 0.00137256 0
          -0.00154364 -0.00274857 0
          0 0 0
          0 0 0
          -0.00189713 0.00187642 0
          -0.00138484 -0.000942105 0
          -0.00188596 0.00182555 0
          -0.00137785 -0.00107924 0
          -0.00153614 0.000932966 0
          -0.00207688 -0.000616259 0
          -0.00141501 -0.000642336 0
          -0.000985642 0.000107084 0
          -0.00206317 -0.000626073 0
          -0.00168542 -0.00205124 0
          -0.000783465 0.00140627 0
          -0.00166715 -0.00386893 0
          -0.00119348 0.00197821 0
          -0.00220691 -0.00332441 0
          0 0 0
          0 0 0
          -0.00116436 0.00199733 0
          -0.000745861 -0.000647644 0
          -0.00106533 0.00156228 0
          -0.00126647 -0.000594281 0
          -0.00156648 0.000771666 0
          -0.000552444 -0.000582706 0
          -0.00179974 -0.000246714 0
          -0.00132388 -0.00115471 0
          0.000212667 0.000556447 0
          -0.00187405 -0.00172944 0
          -0.00117967 -0.000396012 0
          1.85234e-06 -0.00276541 0
          -0.00017409 0.0021188 0
          -0.00166039 -0.00344316 0
          0 0 0
          0 0 0
          -0.00379405 0.00346771 0
          -0.00251244 -0.00175285 0
          -0.00310646 0.00300961 0
          -0.00338768 -0.000471828 0
          -0.00251534 0.000108306 0
          -0.0029013 -0.000220782 0
          -0.00234754 0.000314426 0
          -0.00315261 -0.00145113 0
          -0.00276014 -0.00116043 0
          -0.000769457 0.00015348 0
          -0.00385731 6.55548e-05 0
          -0.00292302 -0.00672051 0
          -0.000853615 0.0058842 0
          -0.0046363 -0.00539096 0
          0 0 0
          0 0 0
          0.000544177 0.00308625 0
          0.000335616 -0.000887042 0
          -0.00141957 0.00359539 0
          0.000737123 -0.00205159 0
          -0.000530274 0.00171747 0
          -0.00068849 -0.00095365 0
          0.000241723 -0.00033323 0
          0.000807996 -0.000335927 0
          -0.00084913 -0.00103657 0
          0.000185415 -0.00319748 0
          0.00399341 0.00378133 0
          -0.000844088 -0.00744091 0
          0.00228253 0.0032042 0
          0.00270122 -0.00234403 0
          0 0 0
          0 0 0
          -0.00805255 0.00540137 0
          -0.00755488 -0.000264767 0
          -0.00515712 0.00218922 0
          -0.00670831 9.03254e-05 0
          -0.00656549 0.00102105 0
          -0.00522256 -0.000754653 0
          -0.00638872 -0.000325747 0
          -0.0060494 -0.00124757 0
          -0.00452742 5.43871e-05 0
          -0.00808007 -0.00292725 0
          -0.00722932 -0.00180797 0
          -0.00243059 -0.00334146 0
          -0.0106788 0.00500773 0
          -0.0143842 -0.00757367 0
          0 0 0
          0 0 0
          0.0011907 0.00638127 0
          0.00475179 -0.00364639 0
          0.000698955 0.00561003 0
          0.0014195 -0.00155275 0
          0.00254035 0.00111643 0
          0.00140821 -0.000718278 0
          0.00231198 9.62645e-05 0
          0.00244679 -0.00174665 0
          0.00260429 -0.000419469 0
          0.00601621 -0.00143152 0
          0.00288985 4.09426e-05 0
          0.00502764 -0.0117 0
          0.0153388 0.0167789 0
          0.006111 -0.00854176 0
          0 0 0
          0 0 0
          -0.0116592 0.00581942 0
          -0.0124482 -0.00127249 0
          -0.0103421 0.00592355 0
          -0.00788171 -0.00239497 0
          -0.00869923 0.00216081 0
          -0.00736703 -0.00103526 0
          -0.00783613 -0.000144481 0
          -0.00839279 -0.00180225 0
          -0.00916813 -0.00118521 0
          -0.0116619 -0.00412106 0
          -0.00989635 0.00198754 0
          -0.0174817 -0.0143526 0
          -0.018482 0.00804829 0
          -0.012893 -0.00619612 0
          0 0 0
          0.0256 0 0
          0.0256 0 0
          0.0256 0 0
          0.0256 0 0
          0.0256 0 0
          0.0256 0 0
          0.0256 0 0
          0.0256 0 0
          0.0256 0 0
          0.0256 0 0
          0.0256 0 0
          0.0256 0 0
          0.0256 0 0
          0.0256 0 0
          0.0256 0 0
          0.0256 0 0
        </DataArray>
      </PointData>
      <CellData>
      </CellData>
    </Piece>
  </ImageData>
</VTKFile>
