<?xml version="1.0"?>
<VTKFile type="ImageData" version="0.1" byte_order="LittleEndian">
  <ImageData WholeExtent="0 15 0 15 0 0" Origin="0 0 0" Spacing="1 1 1">
    <Piece Extent="0 15 0 15 0 0">
      <PointData>
        <DataArray type="Float32" Name="rho" format="ascii">
          0.991904
          0.990749
          0.990828
          0.993181
          0.990852
          0.99267
          0.990683
          0.991456
          0.990276
          0.991066
          0.989969
          0.992614
          0.987697
          0.999695
          0.989586
          0.992732
          0.992247
          0.993137
          0.993363
          0.993401
          0.99321
          0.993432
          0.99331
          0.993347
          0.993362
          0.993396
          0.993343
          0.993472
          0.993421
          0.993336
          0.993925
          0.993217
          0.99295
          0.993477
          0.993299
          0.99339
          0.993435
          0.993284
          0.993426
          0.993378
          0.993344
          0.993404
          0.993381
          0.993372
          0.993453
          0.993409
          0.993231
          0.993745
          0.992425
          0.993431
          0.993472
          0.993365
          0.993475
          0.99345
          0.993327
          0.993459
          0.993384
          0.993356
          0.993416
          0.99337
          0.993353
          0.993375
          0.993465
          0.993831
          0.992771
          0.993484
          0.99356
          0.993539
          0.993386
          0.993547
          0.993482
          0.993304
          0.993514
          0.993358
          0.993347
          0.993391
          0.993335
          0.993361
          0.993265
          0.993752
          0.992622
          0.993645
          0.993536
          0.993651
          0.99359
          0.993392
          0.993583
          0.993523
          0.99326
          0.993523
          0.993311
          0.993319
          0.99334
          0.993257
          0.993288
          0.993735
          0.992499
          0.993717
          0.993749
          0.993557
          0.993729
          0.993629
          0.993391
          0.993627
          0.993452
          0.993236
          0.993531
          0.993181
          0.993316
          0.99323
          0.993265
          0.993736
          0.9926
          0.993903
          0.993783
          0.993848
          0.993574
          0.993813
          0.993652
          0.993207
          0.993777
          0.993342
          0.993089
          0.99358
          0.993015
          0.993336
          0.992903
          0.993766
          0.992229
          0.993832
          0.993988
          0.993875
          0.993926
          0.993532
          0.993701
          0.993842
          0.992979
          0.993773
          0.993249
          0.992889
          0.993541
          0.992613
          0.99354
          0.993596
          0.993253
          0.994343
          0.993998
          0.994049
          0.993907
          0.993819
          0.993716
          0.993566
          0.993756
          0.992762
          0.993804
          0.993026
          0.992765
          0.993721
          0.992088
          0.993563
          0.990514
          0.994014
          0.99438
          0.994059
          0.993886
          0.994274
          0.9936
          0.993495
          0.993636
          0.993601
          0.992454
          0.993978
          0.992482
          0.992249
          0.993936
          0.993327
          0.995137
          0.995157
          0.994146
          0.994221
          0.99458
          0.993548
          0.993989
          0.99382
          0.993067
          0.993547
          0.993686
          0.99129
          0.994231
          0.992431
          0.990529
          0.993603
          0.98578
          0.993238
          0.995014
          0.994989
          0.993751
          0.994373
          0.993947
          0.993509
          0.993752
          0.992974
          0.993022
          0.993448
          0.991817
          0.993091
          0.994406
          0.992749
          0.993033
          0.996983
          0.994495
          0.994404
          0.994496
          0.994314
          0.993751
          0.993897
          0.993222
          0.993437
          0.992201
          0.993358
          0.99274
          0.990254
          0.98769
          0.994426
          0.974184
          0.993834
          0.995094
          0.994735
          0.995061
          0.993568
          0.99461
          0.993235
          0.99376
          0.992615
          0.993342
          0.991641
          0.992732
          0.989158
          0.999669
          0.997763
          0.943129
          0.986445
          0.992239
          0.995017
          0.994765
          0.99454
          0.994087
          0.993824
          0.993092
          0.992983
          0.99202
          0.992784
          0.990015
          0.995331
          0.988891
          1.00749
        </DataArray>
        <DataArray type="Float32" Name="ux" format="ascii">
          0
          0
          0
          0
          0
          0
          0
          0
          0
          0
          0
          0
          0
          0
          0
          0
          0
          -0.000996509
          -0.000830329
          -0.000506952
          -7.21908e-05
          -7.51746e-05
          1.00941e-05
          0.000153301
          3.39879e-05
          -0.0001579
          -0.000319104
          -0.000406065
          -0.00111566
          -0.000810653
          -0.000835115
          0
          0
          0.000141127
          0.000553808
          5.12111e-05
          0.000334265
          0.000811339
          0.000583268
          0.00057092
          0.000623926
          0.000412173
          0.000535846
          -0.00010653
          -0.000145721
          0.000742974
          -0.000106883
          0
          0
          -0.00111715
          -0.000492684
          -6.16978e-05
          -0.000436759
          -0.000221884
          0.000441069
          -0.000123264
          -0.000132973
          0.000172847
          -0.000637888
          -0.000604533
          -0.000469025
          -0.00110765
          -0.00171434
          0
          0
          -0.000390541
          -0.000227133
          -3.84344e-05
          0.000769778
          5.90563e-05
          0.000237755
          0.000996917
          0.000608575
          0.00013398
          0.000468772
          0.000526315
          -0.000282862
          0.000252224
          -0.000449777
          0
          0
          -0.000531269
          0.00018248
          -0.00047286
          0.000169687
          0.000838874
          -6.64085e-05
          0.000397751
          0.000836851
          0.000107195
          0.000544412
          -4.26452e-05
          -0.000335955
          0.000421199
          -0.00104222
          0
          0
          -0.000990875
          -0.000159308
          7.1577e-05
          -0.000359731
          0.00015821
          0.00160036
          -0.000416851
          0.000194724
          0.00175051
          -0.000239079
          5.06667e-05
          0.000192005
          2.03475e-06
          -0.00114438
          0
          0
          -0.000560233
          -2.8778e-05
          5.00236e-05
          0.00104276
          0.000220915
          0.000438297
          0.00205122
          0.000677747
          0.000469793
          0.00190348
          0.000551541
          0.000291999
          0.00100059
          -0.00105248
          0
          0
          -0.00152637
          -0.000489514
          -0.000812212
          0.000228592
          0.00030178
          -0.000650902
          0.000988913
          0.00198868
          -0.000709712
          0.000669998
          0.00147059
          -0.000639411
          0.000202578
          -0.00190378
          0
          0
          0.000344482
          0.00107464
          0.00096115
          0.000728334
          0.00131271
          0.00383695
          0.000533382
          0.00209262
          0.0053777
          0.000706655
          0.00277245
          0.00374924
          0.00296371
          0.0015331
          0
          0
          -0.00352214
          -0.00186923
          -0.00248357
          -0.00118676
          0.000133686
          -0.00121785
          0.000623272
          -0.00140047
          -0.0010858
          0.00264653
          -0.00412578
          -0.000471598
          0.000209319
          -0.00760955
          0
          0
          0.00223487
          0.00167931
          0.00184908
          0.00525519
          0.00230577
          0.00363357
          0.0051614
          0.00692087
          0.00454207
          0.0064619
          0.0134796
          0.00481423
          0.0104349
          0.0109409
          0
          0
          -0.00759105
          -0.00381844
          -0.00116315
          -0.00460126
          -0.0032455
          -0.00182701
          -0.00332347
          -0.00253931
          -0.00134389
          -0.00657211
          -0.00672365
          -0.00164657
          -0.0175696
          -0.0203514
          0
          0
          0.00927668
          0.0139063
          0.00580721
          0.00973998
          0.0099507
          0.00916203
          0.0103213
          0.0103071
          0.0107888
          0.0142456
          0.00943814
          0.0124679
          0.0218707
          0.00988968
          0
          0
          -0.0202075
          -0.0279793
          -0.0261619
          -0.0278859
          -0.0307468
          -0.0307124
          -0.0330846
          -0.0338471
          -0.034343
          -0.0347568
          -0.029983
          -0.0347099
          -0.0287914
          -0.0139007
          0
          0.0256
          0.0256
          0.0256
          0.0256
          0.0256
          0.0256
          0.0256
          0.0256
          0.0256
          0.0256
          0.0256
          0.0256
          0.0256
          0.0256
          0.0256
          0.0256
        </DataArray>
        <DataArray type="Float32" Name="uy" format="ascii">
          0
          0
          0
          0
          0
          0
          0
          0
          0
          0
          0
          0
          0
          0
          0
          0
          0
          -0.000674391
          -0.00112624
          -0.000178875
          -0.00105368
          7.10385e-05
          -0.00120906
          -0.000315152
          -0.00104874
          -0.000364993
          -0.00113192
          8.29037e-05
          -0.00129481
          0.00163682
          -0.000564304
          0
          0
          -0.000648594
          -0.000898089
          -0.000106862
          -0.00146543
          0.000278799
          -0.00109123
          -0.000504245
          -0.000729338
          -0.000344798
          -0.00122553
          0.000750948
          -0.00181053
          0.0011195
          -0.000531503
          0
          0
          -0.000613338
          -0.00128943
          0.000386095
          -0.00149708
          -0.000295415
          -0.000631887
          -0.000250861
          -0.00086301
          -0.000142155
          -0.000621251
          0.000960585
          -0.00229569
          0.00215695
          -0.000912067
          0
          0
          -0.000177786
          -0.00169298
          2.49118e-05
          -0.00102197
          -0.000250128
          -0.0013361
          0.000388579
          -0.00103828
          0.000139956
          -0.000483402
          0.000715529
          -0.00189613
          0.00248094
          -0.00139562
          0
          0
          -0.000379733
          -0.00141036
          -9.00082e-05
          -0.00181519
          0.00072006
          -0.00132323
          -0.000851058
          0.000404238
          -3.51373e-05
          -0.00110816
          0.00205987
          -0.00258731
          0.00282852
          -0.00101913
          0
          0
          -0.000302161
          -0.0019224
          0.000645606
          -0.00217327
          -0.000176809
          -0.000516329
          -0.000186378
          -0.00124623
          0.000918298
          -0.000660061
          0.00193264
          -0.00296158
          0.0035543
          -0.00108198
          0
          0
          -0.000371128
          -0.00219158
          0.000164909
          -0.00148872
          -0.000826169
          -0.00120309
          0.00114669
          -0.00176048
          -2.32891e-06
          0.00100071
          0.00147543
          -0.003035
          0.00445679
          -0.000796185
          0
          0
          -9.54796e-05
          -0.00262332
          0.00030837
          -0.00280445
          0.00116754
          -0.00208714
          -0.00134208
          0.00140408
          -0.000433814
          -0.00163066
          0.00490503
          -0.00515095
          0.00632066
          -0.00113706
          0
          0
          -0.000762325
          -0.00248344
          -0.000175904
          -0.00227095
          -0.000209211
          -0.00173153
          -0.000379291
          -0.00186646
          0.0026701
          -0.00164711
          0.00220755
          -0.001623
          0.00454145
          0.00149886
          0
          0
          -0.000275178
          -0.00361488
          0.00114116
          -0.00326922
          -0.00163297
          -0.00107706
          0.00043555
          -0.00240582
          -0.000796944
          0.00277309
          0.0018869
          -0.00748039
          0.0121301
          -0.00117739
          0
          0
          -0.001224
          -0.00260376
          -0.000512711
          -0.00537506
          0.00134774
          -0.00310785
          -0.000688616
          -0.000139505
          -0.000750465
          -0.00230682
          0.00843801
          -0.00931851
          0.0102607
          0.00637744
          0
          0
          0.000771537
          -0.00465304
          -0.00224899
          -0.00211755
          -0.000886833
          -0.0032591
          -0.00170824
          -0.00232401
          0.00118525
          -0.00330033
          0.000467776
          -0.000167844
          0.00974677
          0.00171885
          0
          0
          -0.00592812
          -0.0062724
          0.00217639
          -0.00514807
          -0.000182474
          -0.00320989
          -0.000817686
          -0.00203458
          0.00135692
          0.00164849
          0.0034226
          -0.00654894
          0.0295079
          -0.00244006
          0
          0
          -0.00539847
          -0.00123789
          0.0023924
          -0.00588842
          0.00142496
          -0.00411377
          -0.00079792
          -0.00323688
          -0.00068584
          -0.00327722
          0.00442735
          -0.0127406
          0.0163809
          0.00116518
          0
          0
          0
          0
          0
          0
          0
          0
          0
          0
          0
          0
          0
          0
          0
          0
          0
        </DataArray>
        <DataArray type="Float32" Name="velocity" NumberOfComponents="3" format="ascii">
          0 0 0
          0 0 0
          0 0 0
          0 0 0
          0 0 0
          0 0 0
          0 0 0
          0 0 0
          0 0 0
          0 0 0
          0 0 0
          0 0 0
          0 0 0
          0 0 0
          0 0 0
          0 0 0
          0 0 0
          -0.000996509 -0.000674391 0
          -0.000830329 -0.00112624 0
          -0.000506952 -0.000178875 0
          -7.21908e-05 -0.00105368 0
          -7.51746e-05 7.10385e-05 0
          1.00941e-05 -0.00120906 0
          0.000153301 -0.000315152 0
          3.39879e-05 -0.00104874 0
          -0.0001579 -0.000364993 0
          -0.000319104 -0.00113192 0
          -0.000406065 8.29037e-05 0
          -0.00111566 -0.00129481 0
          -0.000810653 0.00163682 0
          -0.000835115 -0.000564304 0
          0 0 0
          0 0 0
          0.000141127 -0.000648594 0
          0.000553808 -0.000898089 0
          5.12111e-05 -0.000106862 0
          0.000334265 -0.00146543 0
          0.000811339 0.000278799 0
          0.000583268 -0.00109123 0
          0.00057092 -0.000504245 0
          0.000623926 -0.000729338 0
          0.000412173 -0.000344798 0
          0.000535846 -0.00122553 0
          -0.00010653 0.000750948 0
          -0.000145721 -0.00181053 0
          0.000742974 0.0011195 0
          -0.000106883 -0.000531503 0
          0 0 0
          0 0 0
          -0.00111715 -0.000613338 0
          -0.000492684 -0.00128943 0
          -6.16978e-05 0.000386095 0
          -0.000436759 -0.00149708 0
          -0.000221884 -0.000295415 0
          0.000441069 -0.000631887 0
          -0.000123264 -0.000250861 0
          -0.000132973 -0.00086301 0
          0.000172847 -0.000142155 0
          -0.000637888 -0.000621251 0
          -0.000604533 0.000960585 0
          -0.000469025 -0.00229569 0
          -0.00110765 0.00215695 0
          -0.00171434 -0.000912067 0
          0 0 0
          0 0 0
          -0.000390541 -0.000177786 0
          -0.000227133 -0.00169298 0
          -3.84344e-05 2.49118e-05 0
          0.000769778 -0.00102197 0
          5.90563e-05 -0.000250128 0
          0.000237755 -0.0013361 0
          0.000996917 0.000388579 0
          0.000608575 -0.00103828 0
          0.00013398 0.000139956 0
          0.000468772 -0.000483402 0
          0.000526315 0.000715529 0
          -0.000282862 -0.00189613 0
          0.000252224 0.00248094 0
          -0.000449777 -0.00139562 0
          0 0 0
          0 0 0
          -0.000531269 -0.000379733 0
          0.00018248 -0.00141036 0
          -0.00047286 -9.00082e-05 0
          0.000169687 -0.00181519 0
          0.000838874 0.00072006 0
          -6.64085e-05 -0.00132323 0
          0.000397751 -0.000851058 0
          0.000836851 0.000404238 0
          0.000107195 -3.51373e-05 0
          0.000544412 -0.00110816 0
          -4.26452e-05 0.00205987 0
          -0.000335955 -0.00258731 0
          0.000421199 0.00282852 0
          -0.00104222 -0.00101913 0
          0 0 0
          0 0 0
          -0.000990875 -0.000302161 0
          -0.000159308 -0.0019224 0
          7.1577e-05 0.000645606 0
          -0.000359731 -0.00217327 0
          0.00015821 -0.000176809 0
          0.00160036 -0.000516329 0
          -0.000416851 -0.000186378 0
          0.000194724 -0.00124623 0
          0.00175051 0.000918298 0
          -0.000239079 -0.000660061 0
          5.06667e-05 0.00193264 0
          0.000192005 -0.00296158 0
          2.03475e-06 0.0035543 0
          -0.00114438 -0.00108198 0
          0 0 0
          0 0 0
          -0.000560233 -0.000371128 0
          -2.8778e-05 -0.00219158 0
          5.00236e-05 0.000164909 0
          0.00104276 -0.00148872 0
          0.000220915 -0.000826169 0
          0.000438297 -0.00120309 0
          0.00205122 0.00114669 0
          0.000677747 -0.00176048 0
          0.000469793 -2.32891e-06 0
          0.00190348 0.00100071 0
          0.000551541 0.00147543 0
          0.000291999 -0.003035 0
          0.00100059 0.00445679 0
          -0.00105248 -0.000796185 0
          0 0 0
          0 0 0
          -0.00152637 -9.54796e-05 0
          -0.000489514 -0.00262332 0
          -0.000812212 0.00030837 0
          0.000228592 -0.00280445 0
          0.00030178 0.00116754 0
          -0.000650902 -0.00208714 0
          0.000988913 -0.00134208 0
          0.00198868 0.00140408 0
          -0.000709712 -0.000433814 0
          0.000669998 -0.00163066 0
          0.00147059 0.00490503 0
          -0.000639411 -0.00515095 0
          0.000202578 0.00632066 0
          -0.00190378 -0.00113706 0
          0 0 0
          0 0 0
          0.000344482 -0.000762325 0
          0.00107464 -0.00248344 0
          0.00096115 -0.000175904 0
          0.000728334 -0.00227095 0
          0.00131271 -0.000209211 0
          0.00383695 -0.00173153 0
          0.000533382 -0.000379291 0
          0.00209262 -0.00186646 0
          0.0053777 0.0026701 0
          0.000706655 -0.00164711 0
          0.00277245 0.00220755 0
          0.00374924 -0.001623 0
          0.00296371 0.00454145 0
          0.0015331 0.00149886 0
          0 0 0
          0 0 0
          -0.00352214 -0.000275178 0
          -0.00186923 -0.00361488 0
          -0.00248357 0.00114116 0
          -0.00118676 -0.00326922 0
          0.000133686 -0.00163297 0
          -0.00121785 -0.00107706 0
          0.000623272 0.00043555 0
          -0.00140047 -0.00240582 0
          -0.0010858 -0.000796944 0
          0.00264653 0.00277309 0
          -0.00412578 0.0018869 0
          -0.000471598 -0.00748039 0
          0.000209319 0.0121301 0
          -0.00760955 -0.00117739 0
          0 0 0
          0 0 0
          0.00223487 -0.001224 0
          0.00167931 -0.00260376 0
          0.00184908 -0.000512711 0
          0.00525519 -0.00537506 0
          0.00230577 0.00134774 0
          0.00363357 -0.00310785 0
          0.0051614 -0.000688616 0
          0.00692087 -0.000139505 0
          0.00454207 -0.000750465 0
          0.0064619 -0.00230682 0
          0.0134796 0.00843801 0
          0.00481423 -0.00931851 0
          0.0104349 0.0102607 0
          0.0109409 0.00637744 0
          0 0 0
          0 0 0
          -0.00759105 0.000771537 0
          -0.00381844 -0.00465304 0
          -0.00116315 -0.00224899 0
          -0.00460126 -0.00211755 0
          -0.0032455 -0.000886833 0
          -0.00182701 -0.0032591 0
          -0.00332347 -0.00170824 0
          -0.00253931 -0.00232401 0
          -0.00134389 0.00118525 0
          -0.00657211 -0.00330033 0
          -0.00672365 0.000467776 0
          -0.00164657 -0.000167844 0
          -0.0175696 0.00974677 0
          -0.0203514 0.00171885 0
          0 0 0
          0 0 0
          0.00927668 -0.00592812 0
          0.0139063 -0.0062724 0
          0.00580721 0.00217639 0
          0.00973998 -0.00514807 0
          0.0099507 -0.000182474 0
          0.00916203 -0.00320989 0
          0.0103213 -0.000817686 0
          0.0103071 -0.00203458 0
          0.0107888 0.00135692 0
          0.0142456 0.00164849 0
          0.00943814 0.0034226 0
          0.0124679 -0.00654894 0
          0.0218707 0.0295079 0
          0.00988968 -0.00244006 0
          0 0 0
          0 0 0
          -0.0202075 -0.00539847 0
          -0.0279793 -0.00123789 0
          -0.0261619 0.0023924 0
          -0.0278859 -0.00588842 0
          -0.0307468 0.00142496 0
          -0.0307124 -0.00411377 0
          -0.0330846 -0.00079792 0
          -0.0338471 -0.00323688 0
          -0.034343 -0.00068584 0
          -0.0347568 -0.00327722 0
          -0.029983 0.00442735 0
          -0.0347099 -0.0127406 0
          -0.0287914 0.0163809 0
          -0.0139007 0.00116518 0
          0 0 0
          0.0256 0 0
          0.0256 0 0
          0.0256 0 0
          0.0256 0 0
          0.0256 0 0
          0.0256 0 0
          0.0256 0 0
          0.0256 0 0
          0.0256 0 0
          0.0256 0 0
          0.0256 0 0
          0.0256 0 0
          0.0256 0 0
          0.0256 0 0
          0.0256 0 0
          0.0256 0 0
        </DataArray>
      </PointData>
      <CellData>
      </CellData>
    </Piece>
  </ImageData>
</VTKFile>
